; generated by Slic3r 1.3.0 on 2020-07-21 at 03:39:03

; external perimeters extrusion width = 0.44mm (3.38mm^3/s)
; perimeters extrusion width = 0.48mm (7.54mm^3/s)
; infill extrusion width = 0.48mm (10.05mm^3/s)
; solid infill extrusion width = 0.48mm (2.51mm^3/s)
; top infill extrusion width = 0.48mm (1.88mm^3/s)

M107
M190 S65 ; set bed temperature and wait for it to be reached
M104 S205 ; set temperature
G28 ; home all axes
G1 Z5 F5000 ; lift nozzle

; Filament gcode

M109 S205 ; set temperature and wait for it to be reached
G21 ; set units to millimeters
G90 ; use absolute coordinates
M82 ; use absolute distances for extrusion
G92 E0
G1 Z0.500 F7800.000
G1 E-2.00000 F2400.00000
G92 E0
G1 X96.416 Y96.667 F7800.000
G1 E2.00000 F2400.00000
G1 F1800
G1 X97.797 Y95.397 E2.34824
G1 X98.361 Y94.931 E2.48397
G1 X99.025 Y94.442 E2.63699
G1 X99.686 Y94.002 E2.78433
G1 X100.418 Y93.551 E2.94388
G1 X101.121 Y93.162 E3.09301
G1 X101.790 Y92.839 E3.23087
G1 X103.514 Y92.118 E3.57761
G1 X104.202 Y91.872 E3.71325
G1 X104.995 Y91.638 E3.86657
G1 X105.781 Y91.446 E4.01671
G1 X106.608 Y91.274 E4.17355
G1 X107.402 Y91.147 E4.32283
G1 X108.141 Y91.071 E4.46064
G1 X110.004 Y90.981 E4.80679
G1 X110.735 Y90.984 E4.94234
G1 X111.980 Y91.073 E5.17405
G1 X113.202 Y91.240 E5.40281
G1 X113.991 Y91.392 E5.55203
G1 X114.712 Y91.572 E5.68995
G1 X116.497 Y92.122 E6.03651
G1 X117.183 Y92.373 E6.17202
G1 X117.942 Y92.701 E6.32550
G1 X118.654 Y93.049 E6.47255
G1 X119.414 Y93.454 E6.63243
G1 X120.104 Y93.865 E6.78145
G1 X120.722 Y94.281 E6.91960
G1 X122.219 Y95.410 E7.26750
G1 X123.025 Y96.111 E7.46588
G1 X123.676 Y96.745 E7.63451
G1 X124.220 Y97.329 E7.78257
G1 X125.013 Y98.275 E8.01168
G1 X125.453 Y98.878 E8.15017
G1 X126.482 Y100.459 E8.50021
G1 X126.847 Y101.092 E8.63568
G1 X127.395 Y102.211 E8.86704
G1 X127.864 Y103.348 E9.09530
G1 X128.129 Y104.101 E9.24347
G1 X128.338 Y104.820 E9.38238
G1 X128.767 Y106.672 E9.73508
G1 X128.894 Y107.391 E9.87059
G1 X128.991 Y108.207 E10.02312
G1 X129.070 Y109.421 E10.24882
G1 X129.071 Y110.652 E10.47722
G1 X129.021 Y111.401 E10.61656
G1 X128.789 Y113.303 E10.97213
G1 X128.663 Y114.022 E11.10769
G1 X128.474 Y114.820 E11.25974
G1 X128.320 Y115.374 E11.36660
G1 X127.993 Y116.398 E11.56596
G1 X127.714 Y117.140 E11.71317
G1 X127.410 Y117.829 E11.85290
G1 X126.534 Y119.550 E12.21120
G1 X126.168 Y120.183 E12.34688
G1 X125.420 Y121.285 E12.59395
G1 X124.727 Y122.182 E12.80441
G1 X124.211 Y122.782 E12.95121
G1 X123.688 Y123.326 E13.09120
G1 X122.266 Y124.650 E13.45177
G1 X121.705 Y125.119 E13.58755
G1 X120.666 Y125.870 E13.82542
G1 X119.668 Y126.500 E14.04450
G1 X118.979 Y126.886 E14.19106
G1 X118.300 Y127.217 E14.33122
G1 X116.502 Y127.976 E14.69331
G1 X115.813 Y128.224 E14.82926
G1 X114.623 Y128.562 E15.05878
G1 X113.849 Y128.738 E15.20604
G1 X112.659 Y128.944 E15.43026
G1 X111.895 Y129.023 E15.57268
G1 X109.944 Y129.117 E15.93527
G1 X109.176 Y129.112 E16.07768
G1 X107.972 Y129.021 E16.30186
G1 X107.204 Y128.924 E16.44536
G1 X105.997 Y128.706 E16.67303
G1 X105.261 Y128.520 E16.81387
G1 X103.398 Y127.939 E17.17614
G1 X102.711 Y127.684 E17.31213
G1 X101.583 Y127.174 E17.54176
G1 X100.504 Y126.600 E17.76860
G1 X99.827 Y126.192 E17.91528
G1 X99.204 Y125.768 E18.05515
G1 X97.659 Y124.586 E18.41604
G1 X97.101 Y124.111 E18.55209
G1 X96.171 Y123.195 E18.79435
G1 X95.400 Y122.334 E19.00881
G1 X94.902 Y121.717 E19.15587
G1 X94.464 Y121.106 E19.29539
G1 X93.424 Y119.476 E19.65414
G1 X93.064 Y118.839 E19.79012
G1 X92.704 Y118.107 E19.94131
G1 X92.481 Y117.604 E20.04343
G1 X92.073 Y116.583 E20.24746
G1 X91.817 Y115.831 E20.39496
G1 X91.615 Y115.109 E20.53405
G1 X91.199 Y113.236 E20.89013
G1 X91.079 Y112.513 E21.02611
G1 X90.991 Y111.701 E21.17772
G1 X90.925 Y110.487 E21.40332
G1 X90.936 Y109.254 E21.63204
G1 X90.994 Y108.509 E21.77072
G1 X91.242 Y106.622 E22.12393
G1 X91.376 Y105.902 E22.25982
G1 X91.686 Y104.698 E22.49052
G1 X92.068 Y103.531 E22.71847
G1 X92.357 Y102.785 E22.86692
G1 X92.665 Y102.106 E23.00526
G1 X93.536 Y100.430 E23.35575
G1 X93.907 Y99.799 E23.49154
G1 X94.364 Y99.116 E23.64416
G1 X95.094 Y98.139 E23.87042
G1 X95.896 Y97.199 E24.09975
G1 X96.374 Y96.710 E24.22664
G1 E22.22664 F2400.00000
G92 E0
G1 X113.469 Y113.299 F7800.000
G1 E2.00000 F2400.00000
G1 F1800
G1 X113.065 Y113.677 E2.10270
G1 X112.519 Y114.073 E2.22780
G1 X111.834 Y114.417 E2.37013
G1 X111.315 Y114.601 E2.47223
G1 X110.669 Y114.739 E2.59481
G1 X110.002 Y114.786 E2.71894
G1 X109.462 Y114.749 E2.81939
G1 X108.707 Y114.611 E2.96188
G1 X108.059 Y114.375 E3.08981
G1 X107.565 Y114.119 E3.19303
G1 X106.953 Y113.693 E3.33138
G1 X106.531 Y113.299 E3.43854
G1 X106.112 Y112.799 E3.55969
G1 X105.749 Y112.215 E3.68723
G1 X105.467 Y111.553 E3.82084
G1 X105.307 Y110.983 E3.93066
G1 X105.213 Y110.353 E4.04878
G1 X105.212 Y109.661 E4.17716
G1 X105.301 Y109.012 E4.29880
G1 X105.477 Y108.384 E4.41980
G1 X105.736 Y107.784 E4.54110
G1 X106.076 Y107.223 E4.66274
G1 X106.489 Y106.714 E4.78442
G1 X106.967 Y106.266 E4.90612
G1 X107.503 Y105.887 E5.02783
G1 X108.085 Y105.585 E5.14956
G1 X108.721 Y105.358 E5.27495
G1 X109.414 Y105.226 E5.40569
G1 X110.000 Y105.186 E5.51478
G1 X110.655 Y105.231 E5.63654
G1 X111.297 Y105.364 E5.75830
G1 X111.915 Y105.585 E5.88005
G1 X112.497 Y105.887 E6.00179
G1 X113.033 Y106.266 E6.12351
G1 X113.511 Y106.714 E6.24520
G1 X113.924 Y107.223 E6.36687
G1 X114.264 Y107.784 E6.48852
G1 X114.523 Y108.384 E6.60983
G1 X114.699 Y109.012 E6.73081
G1 X114.788 Y109.661 E6.85246
G1 X114.787 Y110.320 E6.97475
G1 X114.696 Y110.972 E7.09692
G1 X114.533 Y111.553 E7.20873
G1 X114.251 Y112.215 E7.34234
G1 X113.888 Y112.799 E7.46989
G1 X113.508 Y113.253 E7.57990
G1 X112.820 Y112.684 F7800.000
G1 F1800
G1 X112.496 Y112.987 E7.66219
G1 X112.054 Y113.308 E7.76358
G1 X111.483 Y113.594 E7.88212
G1 X111.072 Y113.740 E7.96306
G1 X110.544 Y113.853 E8.06313
G1 X110.001 Y113.891 E8.16417
G1 X109.573 Y113.862 E8.24381
G1 X108.942 Y113.746 E8.36293
G1 X108.419 Y113.555 E8.46622
G1 X108.027 Y113.353 E8.54810
G1 X107.515 Y112.997 E8.66379
G1 X107.180 Y112.684 E8.74880
G1 X106.837 Y112.274 E8.84811
G1 X106.543 Y111.802 E8.95124
G1 X106.310 Y111.256 E9.06138
G1 X106.181 Y110.796 E9.15009
G1 X106.105 Y110.287 E9.24557
G1 X106.105 Y109.722 E9.35036
G1 X106.178 Y109.194 E9.44932
G1 X106.320 Y108.683 E9.54779
G1 X106.531 Y108.194 E9.64653
G1 X106.808 Y107.738 E9.74549
G1 X107.144 Y107.324 E9.84447
G1 X107.533 Y106.959 E9.94347
G1 X107.969 Y106.651 E10.04248
G1 X108.442 Y106.405 E10.14151
G1 X108.956 Y106.222 E10.24277
G1 X109.528 Y106.113 E10.35081
G1 X110.000 Y106.081 E10.43860
G1 X110.533 Y106.117 E10.53765
G1 X111.055 Y106.226 E10.63670
G1 X111.558 Y106.405 E10.73575
G1 X112.031 Y106.651 E10.83478
G1 X112.467 Y106.959 E10.93379
G1 X112.856 Y107.324 E11.03279
G1 X113.192 Y107.738 E11.13177
G1 X113.469 Y108.194 E11.23073
G1 X113.680 Y108.683 E11.32947
G1 X113.822 Y109.194 E11.42794
G1 X113.895 Y109.722 E11.52690
G1 X113.895 Y110.258 E11.62639
G1 X113.820 Y110.789 E11.72592
G1 X113.690 Y111.256 E11.81583
G1 X113.457 Y111.802 E11.92598
G1 X113.163 Y112.274 E12.02911
G1 X112.858 Y112.638 E12.11728
G1 X112.171 Y112.069 F7800.000
G1 F1800
G1 X111.927 Y112.297 E12.17918
G1 X111.588 Y112.543 E12.25683
G1 X111.132 Y112.772 E12.35159
G1 X110.828 Y112.880 E12.41137
G1 X110.420 Y112.967 E12.48893
G1 X110.000 Y112.996 E12.56688
G1 X109.684 Y112.975 E12.62571
G1 X109.177 Y112.882 E12.72148
G1 X108.778 Y112.736 E12.80011
G1 X108.489 Y112.586 E12.86065
G1 X108.077 Y112.300 E12.95368
G1 X107.829 Y112.069 E13.01655
G1 X107.561 Y111.749 E13.09402
G1 X107.337 Y111.389 E13.17274
G1 X107.154 Y110.959 E13.25942
G1 X107.056 Y110.609 E13.32699
G1 X106.998 Y110.220 E13.39984
G1 X106.998 Y109.783 E13.48104
G1 X107.054 Y109.375 E13.55733
G1 X107.164 Y108.981 E13.63327
G1 X107.327 Y108.604 E13.70945
G1 X107.540 Y108.253 E13.78572
G1 X107.799 Y107.934 E13.86201
G1 X108.099 Y107.652 E13.93831
G1 X108.434 Y107.415 E14.01463
G1 X108.799 Y107.225 E14.09095
G1 X109.191 Y107.086 E14.16808
G1 X109.643 Y107.000 E14.25341
G1 X110.000 Y106.975 E14.31990
G1 X110.410 Y107.003 E14.39625
G1 X110.813 Y107.087 E14.47259
G1 X111.201 Y107.225 E14.54892
G1 X111.566 Y107.415 E14.62525
G1 X111.901 Y107.652 E14.70157
G1 X112.201 Y107.934 E14.77787
G1 X112.460 Y108.253 E14.85416
G1 X112.673 Y108.604 E14.93043
G1 X112.836 Y108.981 E15.00661
G1 X112.946 Y109.375 E15.08255
G1 X113.002 Y109.783 E15.15884
G1 X113.002 Y110.196 E15.23551
G1 X112.945 Y110.606 E15.31241
G1 X112.846 Y110.959 E15.38042
G1 X112.663 Y111.389 E15.46710
G1 X112.439 Y111.749 E15.54582
G1 X112.209 Y112.023 E15.61215
G1 X112.171 Y112.069 F7800.000
G1 E13.61215 F2400.00000
G92 E0
G1 X117.466 Y115.656 F7800.000
G1 E2.00000 F2400.00000
G1 F1800
G1 X116.828 Y115.654 E2.11826
G1 X115.292 Y116.939 E2.48991
G1 X115.091 Y117.874 E2.66741
G1 X114.430 Y117.659 E2.79640
G1 X112.533 Y118.348 E3.17088
G1 X112.090 Y119.136 E3.33870
G1 X111.568 Y118.709 E3.46391
G1 X109.500 Y118.709 E3.84776
G1 X108.834 Y119.300 E4.01306
G1 X108.482 Y118.716 E4.13958
G1 X106.563 Y118.019 E4.51841
G1 X105.720 Y118.340 E4.68578
G1 X105.606 Y117.690 E4.80831
G1 X104.006 Y116.352 E5.19534
G1 X103.112 Y116.377 E5.36127
G1 X103.151 Y115.589 E5.50767
G1 X102.274 Y114.073 E5.83270
G1 X101.374 Y113.630 E6.01886
G1 X101.660 Y112.937 E6.15796
G1 X101.351 Y111.153 E6.49389
G1 X100.691 Y110.460 E6.67153
G1 X101.159 Y109.946 E6.80063
G1 X101.492 Y108.090 E7.15053
G1 X101.131 Y107.260 E7.31848
G1 X101.699 Y106.961 E7.43764
G1 X102.682 Y105.269 E7.80089
G1 X102.630 Y104.413 E7.96003
G1 X103.219 Y104.330 E8.07049
G1 X104.767 Y103.037 E8.44488
G1 X105.000 Y102.250 E8.59715
G1 X105.548 Y102.365 E8.70116
G1 X107.483 Y101.663 E9.08314
G1 X107.957 Y101.021 E9.23129
G1 X108.418 Y101.306 E9.33186
G1 X110.494 Y101.306 E9.71700
G1 X111.154 Y100.866 E9.86425
G1 X111.490 Y101.291 E9.96483
G1 X113.432 Y101.996 E10.34830
G1 X114.216 Y101.803 E10.49796
G1 X114.393 Y102.335 E10.60202
G1 X115.952 Y103.638 E10.97919
G1 X116.784 Y103.725 E11.13429
G1 X116.767 Y104.321 E11.24486
G1 X117.761 Y106.031 E11.61186
G1 X118.551 Y106.414 E11.77477
G1 X118.314 Y107.012 E11.89417
G1 X118.651 Y108.890 E12.24832
G1 X119.299 Y109.554 E12.42050
G1 X118.836 Y110.075 E12.54993
G1 X118.523 Y111.882 E12.89012
G1 X118.927 Y112.774 E13.07192
G1 X118.265 Y113.129 E13.21142
G1 X117.388 Y114.657 E13.53820
G1 X117.461 Y115.596 E13.71298
G1 X118.422 Y116.447 F7800.000
G1 F1800
G1 X117.705 Y116.549 E13.84744
G1 X117.151 Y116.547 E13.95016
G1 X116.100 Y117.427 E14.20446
G1 X115.756 Y119.028 E14.50844
G1 X114.446 Y118.603 E14.76396
G1 X113.149 Y119.074 E15.01998
G1 X112.348 Y120.502 E15.32385
G1 X111.249 Y119.601 E15.58741
G1 X109.839 Y119.601 E15.84915
G1 X108.623 Y120.680 E16.15070
G1 X107.880 Y119.447 E16.41778
G1 X106.570 Y118.972 E16.67645
G1 X105.122 Y119.522 E16.96389
G1 X104.894 Y118.802 E17.10414
G1 X104.783 Y118.165 E17.22408
G1 X103.693 Y117.254 E17.48774
G1 X103.042 Y117.272 E17.60849
G1 X102.178 Y117.180 E17.76974
G1 X102.247 Y115.808 E18.02464
G1 X101.637 Y114.754 E18.25057
G1 X100.230 Y114.061 E18.54158
G1 X100.737 Y112.835 E18.78778
G1 X100.518 Y111.573 E19.02546
G1 X99.470 Y110.474 E19.30720
G1 X100.326 Y109.535 E19.54294
G1 X100.566 Y108.199 E19.79486
G1 X99.981 Y106.857 E20.06648
G1 X101.056 Y106.291 E20.29187
G1 X101.775 Y105.054 E20.55740
G1 X101.688 Y103.642 E20.81979
G1 X102.843 Y103.482 E21.03613
G1 X103.988 Y102.525 E21.31301
G1 X104.378 Y101.206 E21.56818
G1 X105.483 Y101.439 E21.77786
G1 X106.925 Y100.916 E22.06248
G1 X107.727 Y99.829 E22.31328
G1 X108.672 Y100.414 E22.51947
G1 X110.223 Y100.414 E22.80729
G1 X111.343 Y99.667 E23.05709
G1 X112.033 Y100.538 E23.26337
G1 X113.482 Y101.064 E23.54948
G1 X114.802 Y100.739 E23.80174
G1 X115.160 Y101.812 E24.01172
G1 X116.316 Y102.779 E24.29140
G1 X117.698 Y102.924 E24.54929
G1 X117.667 Y104.092 E24.76614
G1 X118.395 Y105.347 E25.03543
G1 X119.686 Y105.971 E25.30146
G1 X119.238 Y107.104 E25.52754
G1 X119.482 Y108.463 E25.78374
G1 X120.519 Y109.526 E26.05944
G1 X119.672 Y110.479 E26.29601
G1 X119.449 Y111.763 E26.53796
G1 X120.085 Y113.166 E26.82373
G1 X118.912 Y113.795 E27.07080
G1 X118.300 Y114.862 E27.29907
G1 X118.418 Y116.387 E27.58298
G1 X118.757 Y117.786 F7800.000
G1 F1800
G1 X118.186 Y117.382 E27.71271
G1 X117.767 Y117.442 E27.79139
G1 X117.475 Y117.441 E27.84559
G1 X116.908 Y117.914 E27.98254
G1 X116.749 Y118.656 E28.12323
G1 X117.115 Y119.319 E28.26381
G1 X116.636 Y119.673 E28.37441
G1 X116.038 Y120.060 E28.50662
G1 X115.560 Y120.328 E28.60830
G1 X115.181 Y119.780 E28.73181
G1 X114.462 Y119.547 E28.87213
G1 X113.765 Y119.800 E29.00970
G1 X113.390 Y120.468 E29.15189
G1 X113.504 Y121.198 E29.28897
G1 X112.955 Y121.360 E29.39530
G1 X112.232 Y121.525 E29.53289
G1 X111.685 Y121.613 E29.63564
G1 X111.519 Y120.977 E29.75764
G1 X110.930 Y120.494 E29.89886
G1 X110.178 Y120.494 E30.03848
G1 X109.603 Y121.004 E30.18098
G1 X109.459 Y121.722 E30.31692
G1 X108.888 Y121.686 E30.42315
G1 X108.152 Y121.592 E30.56077
G1 X107.609 Y121.488 E30.66339
G1 X107.671 Y120.829 E30.78614
G1 X107.279 Y120.179 E30.92713
G1 X106.577 Y119.924 E31.06564
G1 X105.861 Y120.196 E31.20783
G1 X105.480 Y120.826 E31.34437
G1 X104.958 Y120.596 E31.45030
G1 X104.299 Y120.255 E31.58802
G1 X103.830 Y119.974 E31.68947
G1 X104.129 Y119.343 E31.81891
G1 X104.025 Y119.014 E31.88295
G1 X103.960 Y118.641 E31.95336
G1 X103.380 Y118.155 E32.09365
G1 X103.008 Y118.166 E32.16274
G1 X102.652 Y118.128 E32.22907
G1 X102.050 Y118.613 E32.37251
G1 X101.608 Y118.185 E32.48685
G1 X101.142 Y117.678 E32.61463
G1 X100.806 Y117.261 E32.71387
G1 X101.305 Y116.768 E32.84408
G1 X101.342 Y116.027 E32.98178
G1 X101.000 Y115.435 E33.10861
G1 X100.329 Y115.105 E33.24726
G1 X99.590 Y115.357 E33.39222
G1 X99.349 Y114.867 E33.49356
G1 X99.064 Y114.178 E33.63195
G1 X98.896 Y113.687 E33.72826
G1 X99.542 Y113.389 E33.86021
G1 X99.813 Y112.733 E33.99198
G1 X99.685 Y111.992 E34.13141
G1 X99.191 Y111.475 E34.26417
G1 X98.404 Y111.457 E34.41033
G1 X98.336 Y110.753 E34.54158
G1 X98.311 Y110.184 E34.64721
G1 X98.322 Y109.683 E34.74024
G1 X99.038 Y109.623 E34.87368
G1 X99.493 Y109.124 E34.99890
G1 X99.639 Y108.307 E35.15284
G1 X99.368 Y107.684 E35.27909
G1 X98.626 Y107.394 E35.42686
G1 X98.818 Y106.661 E35.56740
G1 X98.970 Y106.181 E35.66079
G1 X99.144 Y105.730 E35.75058
G1 X99.846 Y105.919 E35.88544
G1 X100.413 Y105.621 E36.00434
G1 X100.867 Y104.839 E36.17215
G1 X100.828 Y104.193 E36.29224
G1 X100.220 Y103.657 E36.44249
G1 X100.494 Y103.247 E36.53401
G1 X100.952 Y102.649 E36.67369
G1 X101.260 Y102.296 E36.76065
G1 X101.860 Y102.717 E36.89669
G1 X102.467 Y102.633 E37.01026
G1 X103.208 Y102.013 E37.18963
G1 X103.384 Y101.418 E37.30467
G1 X102.994 Y100.700 E37.45636
G1 X103.380 Y100.416 E37.54541
G1 X104.016 Y100.009 E37.68543
G1 X104.416 Y99.787 E37.77030
G1 X104.839 Y100.391 E37.90715
G1 X105.419 Y100.513 E38.01701
G1 X106.367 Y100.169 E38.20425
G1 X106.724 Y99.685 E38.31594
G1 X106.603 Y98.871 E38.46859
G1 X107.055 Y98.738 E38.55611
G1 X107.792 Y98.571 E38.69640
G1 X108.238 Y98.500 E38.78017
G1 X108.430 Y99.214 E38.91735
G1 X108.926 Y99.521 E39.02555
G1 X109.953 Y99.521 E39.21604
G1 X110.448 Y99.191 E39.32649
G1 X110.612 Y98.381 E39.47976
G1 X111.080 Y98.411 E39.56676
G1 X111.831 Y98.505 E39.70723
G1 X112.275 Y98.590 E39.79105
G1 X112.212 Y99.326 E39.92807
G1 X112.575 Y99.786 E40.03687
G1 X113.532 Y100.132 E40.22561
G1 X114.115 Y99.989 E40.33704
G1 X114.544 Y99.286 E40.48982
G1 X114.979 Y99.474 E40.57781
G1 X115.652 Y99.818 E40.71802
G1 X116.046 Y100.052 E40.80303
G1 X115.736 Y100.719 E40.93939
G1 X115.926 Y101.290 E41.05102
G1 X116.680 Y101.919 E41.23321
G1 X117.293 Y101.983 E41.34771
G1 X117.933 Y101.473 E41.49965
G1 X118.286 Y101.805 E41.58954
G1 X118.800 Y102.356 E41.72948
G1 X119.098 Y102.720 E41.81667
G1 X118.583 Y103.236 E41.95195
G1 X118.566 Y103.862 E42.06833
G1 X119.030 Y104.662 E42.23992
G1 X119.609 Y104.942 E42.35922
G1 X120.378 Y104.682 E42.50982
G1 X120.603 Y105.128 E42.60247
G1 X120.897 Y105.820 E42.74206
G1 X121.059 Y106.278 E42.83213
G1 X120.404 Y106.583 E42.96611
G1 X120.161 Y107.196 E43.08855
