; generated by Slic3r 1.3.0 on 2020-07-21 at 02:46:43

; external perimeters extrusion width = 0.44mm (3.38mm^3/s)
; perimeters extrusion width = 0.48mm (7.54mm^3/s)
; infill extrusion width = 0.48mm (10.05mm^3/s)
; solid infill extrusion width = 0.48mm (2.51mm^3/s)
; top infill extrusion width = 0.48mm (1.88mm^3/s)

M107
M190 S65 ; set bed temperature and wait for it to be reached
M104 S205 ; set temperature
G28 ; home all axes
G1 Z5 F5000 ; lift nozzle

; Filament gcode

M109 S205 ; set temperature and wait for it to be reached
G21 ; set units to millimeters
G90 ; use absolute coordinates
M82 ; use absolute distances for extrusion
G92 E0
G1 Z0.500 F7800.000
G1 E-2.00000 F2400.00000
G92 E0
G1 X7.170 Y77.518 F7800.000
G1 E2.00000 F2400.00000
G1 F1800
G1 X74.170 Y51.518 E15.33657
G1 X74.544 Y51.380 E15.41053
G1 X76.411 Y50.978 E15.76490
G1 X76.977 Y50.955 E15.86997
G1 X200.000 Y50.956 E38.69944
G1 X200.954 Y51.022 E38.87681
G1 X201.371 Y51.088 E38.95529
G1 X204.161 Y52.210 E39.51331
G1 X204.410 Y52.384 E39.56958
G1 X206.116 Y54.089 E40.01716
G1 X206.261 Y54.298 E40.06444
G1 X207.414 Y57.144 E40.63429
G1 X217.482 Y131.604 E54.57756
G1 X217.544 Y132.527 E54.74915
G1 X217.544 Y161.523 E60.13004
G1 X217.522 Y162.088 E60.23506
G1 X217.120 Y163.955 E60.58944
G1 X217.029 Y164.205 E60.63878
G1 X215.748 Y166.370 E61.10554
G1 X215.577 Y166.565 E61.15360
G1 X214.459 Y167.591 E61.43532
G1 X212.500 Y168.604 E61.84446
G1 X212.206 Y168.700 E61.90195
G1 X210.847 Y168.997 E62.16007
G1 X210.028 Y169.046 E62.31227
G1 X11.935 Y169.044 E99.07243
G1 X10.895 Y168.965 E99.26601
G1 X10.372 Y168.878 E99.36441
G1 X8.198 Y168.051 E99.79608
G1 X7.717 Y167.752 E99.90125
G1 X5.978 Y166.126 E100.34311
G1 X5.902 Y166.025 E100.36658
G1 X5.647 Y165.665 E100.44830
G1 X4.677 Y163.549 E100.88034
G1 X4.556 Y163.034 E100.97841
G1 X4.408 Y162.002 E101.17197
G1 X2.471 Y132.947 E106.57568
G1 X2.456 Y132.489 E106.66076
G1 X2.454 Y84.472 E115.57123
G1 X2.499 Y83.685 E115.71744
G1 X2.800 Y82.294 E115.98159
G1 X2.896 Y82.000 E116.03909
G1 X3.930 Y80.013 E116.45473
G1 X4.935 Y78.923 E116.72978
G1 X5.130 Y78.752 E116.77793
G1 X7.119 Y77.549 E117.20927
G1 E115.20927 F2400.00000
G92 E0
G1 X109.369 Y125.131 F7800.000
G1 E2.00000 F2400.00000
G1 F1800
G1 X109.369 Y64.871 E13.18235
G1 X134.631 Y64.870 E17.87007
G1 X134.631 Y125.131 E29.05266
G1 X127.791 Y125.131 E30.32194
G1 X128.114 Y125.970 E30.48886
G1 X128.303 Y127.500 E30.77495
G1 X128.114 Y129.030 E31.06105
G1 X127.792 Y129.866 E31.22724
G1 X131.150 Y129.866 E31.85034
G1 X131.946 Y129.971 E31.99931
G1 X132.827 Y130.336 E32.17632
G1 X133.584 Y130.916 E32.35333
G1 X134.164 Y131.673 E32.53033
G1 X134.529 Y132.554 E32.70733
G1 X134.634 Y133.350 E32.85631
G1 X134.634 Y151.650 E36.25218
G1 X134.529 Y152.446 E36.40116
G1 X134.164 Y153.327 E36.57817
G1 X133.584 Y154.084 E36.75516
G1 X132.827 Y154.664 E36.93216
G1 X131.946 Y155.029 E37.10918
G1 X131.150 Y155.134 E37.25815
G1 X112.850 Y155.134 E40.65402
G1 X112.054 Y155.029 E40.80300
G1 X111.173 Y154.664 E40.98001
G1 X110.416 Y154.084 E41.15701
G1 X109.836 Y153.327 E41.33401
G1 X109.471 Y152.446 E41.51103
G1 X109.366 Y151.650 E41.66000
G1 X109.366 Y133.350 E45.05586
G1 X109.471 Y132.554 E45.20483
G1 X109.836 Y131.673 E45.38184
G1 X110.416 Y130.916 E45.55885
G1 X111.173 Y130.336 E45.73586
G1 X112.054 Y129.971 E45.91286
G1 X112.850 Y129.866 E46.06184
G1 X116.208 Y129.866 E46.68493
G1 X115.886 Y129.030 E46.85113
G1 X115.697 Y127.500 E47.13722
G1 X115.886 Y125.970 E47.42331
G1 X116.209 Y125.131 E47.59023
G1 X109.429 Y125.131 E48.84837
G1 X110.262 Y124.238 F7800.000
G1 F1800
G1 X110.262 Y65.763 E59.69954
G1 X133.738 Y65.762 E64.05594
G1 X133.738 Y124.238 E74.90726
G1 X126.262 Y124.238 E76.29459
G1 X126.766 Y124.955 E76.45729
G1 X127.242 Y126.188 E76.70256
G1 X127.403 Y127.500 E76.94782
G1 X127.242 Y128.812 E77.19309
G1 X126.766 Y130.045 E77.43834
G1 X126.264 Y130.759 E77.60023
G1 X131.091 Y130.759 E78.49595
G1 X131.713 Y130.840 E78.61226
G1 X132.377 Y131.115 E78.74565
G1 X132.947 Y131.553 E78.87904
G1 X133.385 Y132.123 E79.01243
G1 X133.660 Y132.787 E79.14581
G1 X133.741 Y133.409 E79.26212
G1 X133.741 Y151.591 E82.63627
G1 X133.660 Y152.213 E82.75258
G1 X133.385 Y152.877 E82.88597
G1 X132.947 Y153.447 E83.01935
G1 X132.377 Y153.885 E83.15274
G1 X131.713 Y154.160 E83.28613
G1 X131.091 Y154.241 E83.40244
G1 X112.909 Y154.241 E86.77659
G1 X112.287 Y154.160 E86.89290
G1 X111.623 Y153.885 E87.02629
G1 X111.053 Y153.447 E87.15967
G1 X110.615 Y152.877 E87.29306
G1 X110.340 Y152.213 E87.42645
G1 X110.259 Y151.591 E87.54276
G1 X110.259 Y133.409 E90.91690
G1 X110.340 Y132.787 E91.03321
G1 X110.615 Y132.123 E91.16660
G1 X111.053 Y131.553 E91.29999
G1 X111.623 Y131.115 E91.43338
G1 X112.287 Y130.840 E91.56677
G1 X112.909 Y130.759 E91.68307
G1 X117.736 Y130.759 E92.57880
G1 X117.234 Y130.045 E92.74068
G1 X116.758 Y128.812 E92.98594
G1 X116.597 Y127.500 E93.23121
G1 X116.758 Y126.188 E93.47647
G1 X117.234 Y124.955 E93.72173
G1 X117.738 Y124.238 E93.88444
G1 X110.322 Y124.238 E95.26063
G1 X111.155 Y123.345 F7800.000
G1 F1800
G1 X111.155 Y66.655 E105.78061
G1 X132.845 Y66.655 E109.80570
G1 X132.845 Y123.345 E120.32574
G1 X124.028 Y123.345 E121.96189
G1 X125.339 Y124.478 E122.28335
G1 X125.973 Y125.379 E122.48778
G1 X126.369 Y126.407 E122.69221
G1 X126.504 Y127.500 E122.89665
G1 X126.369 Y128.593 E123.10109
G1 X125.973 Y129.621 E123.30552
G1 X125.339 Y130.522 E123.50995
G1 X124.032 Y131.651 E123.83038
G1 X131.033 Y131.651 E125.12944
G1 X131.480 Y131.710 E125.21308
G1 X131.927 Y131.895 E125.30285
G1 X132.310 Y132.190 E125.39262
G1 X132.605 Y132.573 E125.48239
G1 X132.790 Y133.020 E125.57216
G1 X132.849 Y133.467 E125.65580
G1 X132.849 Y151.533 E129.00823
G1 X132.790 Y151.980 E129.09187
G1 X132.605 Y152.427 E129.18164
G1 X132.310 Y152.810 E129.27141
G1 X131.927 Y153.105 E129.36117
G1 X131.480 Y153.290 E129.45095
G1 X131.033 Y153.349 E129.53459
G1 X112.967 Y153.349 E132.88702
G1 X112.520 Y153.290 E132.97066
G1 X112.073 Y153.105 E133.06043
G1 X111.690 Y152.810 E133.15020
G1 X111.395 Y152.427 E133.23997
G1 X111.210 Y151.980 E133.32974
G1 X111.151 Y151.533 E133.41338
G1 X111.151 Y133.467 E136.76581
G1 X111.210 Y133.020 E136.84945
G1 X111.395 Y132.573 E136.93922
G1 X111.690 Y132.190 E137.02899
G1 X112.073 Y131.895 E137.11876
G1 X112.520 Y131.710 E137.20853
G1 X112.967 Y131.651 E137.29217
G1 X119.968 Y131.651 E138.59123
G1 X118.661 Y130.522 E138.91165
G1 X118.027 Y129.621 E139.11609
G1 X117.631 Y128.593 E139.32052
G1 X117.496 Y127.500 E139.52496
G1 X117.631 Y126.407 E139.72939
G1 X118.027 Y125.379 E139.93382
G1 X118.661 Y124.478 E140.13826
G1 X119.972 Y123.345 E140.45971
G1 X111.215 Y123.345 E142.08473
G1 X110.755 Y123.325 F7800.000
G1 E140.08473 F2400.00000
G92 E0
G1 X104.631 Y125.131 F7800.000
G1 E2.00000 F2400.00000
G1 F1800
G1 X93.369 Y125.131 E4.08973
G1 X93.369 Y64.869 E15.27242
G1 X104.631 Y64.869 E17.36215
G1 X104.631 Y125.071 E28.53371
G1 X103.738 Y124.238 F7800.000
G1 F1800
G1 X94.262 Y124.238 E30.29212
G1 X94.262 Y65.762 E41.14350
G1 X103.738 Y65.762 E42.90191
G1 X103.738 Y124.178 E53.74215
G1 X102.845 Y123.345 F7800.000
G1 F1800
G1 X95.155 Y123.345 E55.16925
G1 X95.155 Y66.655 E65.68931
G1 X102.845 Y66.655 E67.11640
G1 X102.845 Y123.285 E77.62533
G1 X102.863 Y123.745 F7800.000
G1 E75.62533 F2400.00000
G92 E0
G1 X139.369 Y125.131 F7800.000
G1 E2.00000 F2400.00000
G1 F1800
G1 X139.369 Y64.873 E13.18206
G1 X174.066 Y64.870 E19.62075
G1 X164.795 Y125.131 E30.93494
G1 X139.429 Y125.131 E35.64209
G1 X140.262 Y124.238 F7800.000
G1 F1800
G1 X140.262 Y65.764 E46.49308
G1 X173.026 Y65.762 E52.57302
G1 X164.029 Y124.238 E63.55202
G1 X140.322 Y124.238 E67.95139
G1 X141.155 Y123.345 F7800.000
G1 F1800
G1 X141.155 Y66.656 E78.47131
G1 X171.985 Y66.655 E84.19250
G1 X163.264 Y123.345 E94.83631
G1 X141.215 Y123.345 E98.92789
G1 X140.780 Y123.485 F7800.000
G1 E96.92789 F2400.00000
G92 E0
G1 X168.370 Y155.131 F7800.000
G1 E2.00000 F2400.00000
G1 F1800
G1 X168.366 Y132.489 E6.20153
G1 X168.395 Y132.110 E6.27212
G1 X178.264 Y67.961 E18.31634
G1 X178.393 Y67.422 E18.41915
G1 X178.575 Y66.951 E18.51294
G1 X178.828 Y66.501 E18.60864
G1 X179.139 Y66.095 E18.70371
G1 X179.505 Y65.737 E18.79861
G1 X179.916 Y65.434 E18.89349
G1 X180.367 Y65.191 E18.98848
G1 X180.912 Y64.990 E19.09630
G1 X181.686 Y64.872 E19.24154
G1 X193.252 Y64.884 E21.38794
G1 X203.634 Y132.299 E34.04561
G1 X203.630 Y155.131 E38.28255
G1 X168.430 Y155.131 E44.81469
G1 X169.262 Y154.238 F7800.000
G1 F1800
G1 X169.258 Y132.523 E48.84425
G1 X169.282 Y132.212 E48.90218
G1 X179.141 Y68.133 E60.93330
G1 X179.247 Y67.688 E61.01818
G1 X179.384 Y67.333 E61.08887
G1 X179.575 Y66.995 E61.16089
G1 X179.810 Y66.688 E61.23255
G1 X180.085 Y66.418 E61.30407
G1 X180.395 Y66.190 E61.37556
G1 X180.735 Y66.007 E61.44714
G1 X181.136 Y65.859 E61.52651
G1 X181.753 Y65.765 E61.64236
G1 X192.487 Y65.776 E63.63418
G1 X202.742 Y132.367 E76.13720
G1 X202.738 Y154.238 E80.19581
G1 X169.322 Y154.238 E86.39669
G1 X170.155 Y153.345 F7800.000
G1 F1800
G1 X170.151 Y132.557 E90.25428
G1 X170.170 Y132.314 E90.29955
G1 X180.017 Y68.305 E102.31757
G1 X180.101 Y67.954 E102.38454
G1 X180.194 Y67.715 E102.43211
G1 X180.321 Y67.488 E102.48046
G1 X180.480 Y67.281 E102.52871
G1 X180.665 Y67.100 E102.57684
G1 X180.874 Y66.946 E102.62496
G1 X181.102 Y66.823 E102.67312
G1 X181.360 Y66.728 E102.72403
G1 X181.820 Y66.658 E102.81050
G1 X191.721 Y66.668 E104.64773
G1 X201.849 Y132.435 E116.99610
G1 X201.845 Y153.345 E120.87639
G1 X170.215 Y153.345 E126.74601
G1 X169.762 Y153.422 F7800.000
G1 E124.74601 F2400.00000
G92 E0
G1 X163.631 Y155.131 F7800.000
G1 E2.00000 F2400.00000
G1 F1800
G1 X139.369 Y155.131 E6.50215
G1 X139.369 Y129.872 E11.18945
G1 X163.631 Y129.870 E15.69160
G1 X163.631 Y155.071 E20.36809
G1 X162.738 Y154.238 F7800.000
G1 F1800
G1 X140.262 Y154.238 E24.53891
G1 X140.262 Y130.764 E28.89506
G1 X162.738 Y130.762 E33.06589
G1 X162.738 Y154.178 E37.41110
G1 X161.845 Y153.345 F7800.000
G1 F1800
G1 X141.155 Y153.345 E41.25062
G1 X141.155 Y131.655 E45.27561
G1 X161.845 Y131.655 E49.11512
G1 X161.845 Y153.285 E53.12905
G1 X161.931 Y153.736 F7800.000
G1 E51.12905 F2400.00000
G92 E0
G1 X104.631 Y155.131 F7800.000
G1 E2.00000 F2400.00000
G1 F1800
G1 X68.369 Y155.131 E8.72899
G1 X68.369 Y129.875 E13.41575
G1 X104.631 Y129.870 E20.14474
G1 X104.631 Y155.071 E24.82128
G1 X103.738 Y154.238 F7800.000
G1 F1800
G1 X69.262 Y154.238 E31.21896
G1 X69.262 Y130.765 E35.57477
G1 X103.738 Y130.762 E41.97245
G1 X103.738 Y154.178 E46.31769
G1 X102.845 Y153.345 F7800.000
G1 F1800
G1 X70.155 Y153.345 E52.38404
G1 X70.155 Y131.656 E56.40892
G1 X102.845 Y131.655 E62.47528
G1 X102.845 Y153.285 E66.48922
G1 X102.970 Y153.725 F7800.000
G1 E64.48922 F2400.00000
G92 E0
G1 X63.630 Y155.131 F7800.000
G1 E2.00000 F2400.00000
G1 F1800
G1 X63.634 Y133.579 E5.99928
G1 X80.328 Y116.875 E10.38176
G1 X78.631 Y115.932 E10.74215
G1 X78.632 Y60.134 E21.09662
G1 X198.366 Y60.134 E43.31565
G1 X198.366 Y67.701 E44.71990
G1 X208.366 Y132.701 E56.92391
G1 X208.366 Y159.868 E61.96516
G1 X13.464 Y159.866 E98.13323
G1 X11.634 Y132.412 E103.23911
G1 X11.632 Y86.135 E111.82683
G1 X12.519 Y86.160 E111.99143
G1 X13.691 Y86.372 E112.21249
G1 X14.758 Y86.773 E112.42396
G1 X15.736 Y87.357 E112.63544
G1 X16.595 Y88.107 E112.84692
G1 X17.305 Y88.998 E113.05839
G1 X17.845 Y90.002 E113.26986
G1 X18.197 Y91.086 E113.48134
G1 X18.361 Y92.292 E113.70718
G1 X18.370 Y155.131 E125.36826
G1 X63.570 Y155.131 E133.75615
G1 X62.738 Y154.238 F7800.000
G1 F1800
G1 X62.741 Y133.210 E137.65837
G1 X78.860 Y117.081 E141.88985
G1 X77.738 Y116.458 E142.12815
G1 X77.740 Y59.241 E152.74576
G1 X199.259 Y59.241 E175.29610
G1 X199.259 Y67.633 E176.85335
G1 X209.258 Y132.633 E189.05735
G1 X209.259 Y160.760 E194.27694
G1 X12.629 Y160.759 E230.76565
G1 X10.741 Y132.442 E236.03203
G1 X10.740 Y85.244 E244.79060
G1 X11.970 Y85.242 E245.01894
G1 X12.619 Y85.271 E245.13952
G1 X13.930 Y85.508 E245.38665
G1 X15.147 Y85.965 E245.62794
G1 X16.263 Y86.632 E245.86924
G1 X17.242 Y87.488 E246.11054
G1 X18.053 Y88.504 E246.35183
G1 X18.669 Y89.649 E246.59312
G1 X19.071 Y90.886 E246.83442
G1 X19.252 Y92.221 E247.08447
G1 X19.262 Y154.238 E258.59291
G1 X62.678 Y154.238 E266.64952
G1 X61.845 Y153.345 F7800.000
G1 F1800
G1 X61.849 Y132.840 E270.45469
G1 X77.393 Y117.287 E274.53516
G1 X76.845 Y116.983 E274.65137
G1 X76.847 Y58.349 E285.53213
G1 X200.151 Y58.349 E308.41378
G1 X200.151 Y67.565 E310.12402
G1 X210.151 Y132.565 E322.32802
G1 X210.152 Y161.653 E327.72594
G1 X11.794 Y161.651 E364.53529
G1 X9.849 Y132.472 E369.96217
G1 X9.847 Y84.353 E378.89160
G1 X11.989 Y84.349 E379.28916
G1 X12.719 Y84.382 E379.42479
G1 X14.168 Y84.644 E379.69800
G1 X15.536 Y85.158 E379.96911
G1 X16.790 Y85.907 E380.24023
G1 X17.890 Y86.868 E380.51134
G1 X18.801 Y88.011 E380.78245
G1 X19.493 Y89.297 E381.05357
G1 X19.945 Y90.687 E381.32468
G1 X20.143 Y92.151 E381.59894
G1 X20.151 Y92.506 E381.66473
G1 X20.155 Y153.345 E392.95476
G1 X61.785 Y153.345 E400.68009
G1 X62.224 Y153.472 F7800.000
G1 E398.68009 F2400.00000
G92 E0
G1 X123.721 Y123.741 F7800.000
G1 E2.00000 F2400.00000
G1 F1800
G1 X121.835 Y122.845 E2.21148
G1 X121.906 Y122.845 F7800.000
G1 F1800
G1 X120.594 Y123.628 E2.25682
G1 X120.313 Y123.816 E2.26686
G1 F1800
G1 X120.172 Y123.910 E2.26904
G1 X120.280 Y123.740 F7800.000
G1 F1800
G1 X122.166 Y122.845 E2.48056
G1 X122.094 Y122.845 F7800.000
G1 F1800
G1 X123.547 Y123.722 E2.52776
G1 F1800
G1 X123.828 Y123.910 E2.53212
G1 X123.119 Y123.220 F7800.000
G1 F1800
G1 X122.029 Y123.171 E2.66632
G1 X120.882 Y123.220 E2.80763
G1 E0.80763 F2400.00000
G92 E0
G1 X120.172 Y131.090 F7800.000
G1 E2.00000 F2400.00000
G1 F1800
G1 X120.313 Y131.184 E2.00218
G1 F1800
G1 X120.594 Y131.372 E2.01222
G1 X121.900 Y132.151 E2.05734
G1 X121.843 Y132.151 F7800.000
G1 F1800
G1 X123.721 Y131.259 E2.26795
G1 X123.546 Y131.278 F7800.000
G1 F1800
G1 X122.100 Y132.151 E2.31495
G1 X122.157 Y132.151 F7800.000
G1 F1800
G1 X120.279 Y131.259 E2.52559
G1 X120.879 Y131.778 F7800.000
G1 F1800
G1 X122.029 Y131.827 E2.66643
G1 X123.121 Y131.778 E2.80018
G1 X123.546 Y131.278 F7800.000
G1 F1800
G1 X123.828 Y131.090 E2.80453
G1 E0.80453 F2400.00000
G92 E0
G1 X128.783 Y126.370 F7800.000
G1 E2.00000 F2400.00000
G1 F1800
G1 X128.673 Y126.370 E2.02048
G1 X128.685 Y126.469 E2.03885
G1 X129.477 Y125.676 E2.24719
G1 X130.742 Y125.676 E2.48230
G1 X128.824 Y127.594 E2.98666
G1 X128.855 Y127.847 E3.03399
G1 X128.717 Y128.966 E3.24354
G1 X132.007 Y125.676 E4.10845
G1 X133.272 Y125.676 E4.34356
G1 X129.627 Y129.320 E5.30165
G1 X130.888 Y129.324 E5.53609
G1 X134.536 Y125.676 E6.49512
G1 X135.801 Y125.676 E6.73024
G1 X131.971 Y129.506 E7.73712
G1 X132.865 Y129.876 E7.91706
G1 X138.824 Y123.918 E9.48356
G1 X138.824 Y125.183 E9.71868
G1 X133.594 Y130.413 E11.09365
G1 X133.873 Y130.627 E11.15908
G1 X134.208 Y131.063 E11.26134
G1 X139.595 Y125.676 E12.67764
G1 X140.860 Y125.676 E12.91275
G1 X134.705 Y131.831 E14.53090
G1 X135.052 Y132.668 E14.69940
G1 X135.061 Y132.739 E14.71273
G1 X138.824 Y128.977 E15.70195
G1 X138.824 Y130.241 E15.93706
G1 X135.180 Y133.886 E16.89515
G1 X135.180 Y135.150 E17.13027
G1 X138.824 Y131.506 E18.08836
G1 X138.824 Y132.771 E18.32347
G1 X135.180 Y136.415 E19.28156
G1 X135.180 Y137.680 E19.51667
G1 X138.824 Y134.036 E20.47476
G1 X138.824 Y135.300 E20.70987
G1 X135.180 Y138.945 E21.66796
G1 X135.180 Y140.209 E21.90308
G1 X138.824 Y136.565 E22.86117
G1 X138.824 Y137.830 E23.09628
G1 X135.180 Y141.474 E24.05437
G1 X135.180 Y142.739 E24.28948
G1 X138.824 Y139.094 E25.24757
G1 X138.824 Y140.359 E25.48268
G1 X135.180 Y144.003 E26.44078
G1 X135.180 Y145.268 E26.67589
G1 X138.824 Y141.624 E27.63398
G1 X138.824 Y142.889 E27.86909
G1 X135.180 Y146.533 E28.82718
G1 X135.180 Y147.798 E29.06230
G1 X138.824 Y144.153 E30.02039
G1 X138.824 Y145.418 E30.25550
G1 X135.180 Y149.062 E31.21359
G1 X135.180 Y150.327 E31.44871
G1 X138.824 Y146.683 E32.40680
G1 X138.824 Y147.947 E32.64191
G1 X135.180 Y151.592 E33.60000
G1 X135.180 Y152.055 E33.68620
G1 X135.058 Y152.978 E33.85917
G1 X138.824 Y149.212 E34.84918
G1 X138.824 Y150.477 E35.08429
