; generated by Slic3r 1.3.0 on 2020-07-21 at 03:06:11

; external perimeters extrusion width = 0.44mm (3.38mm^3/s)
; perimeters extrusion width = 0.48mm (7.54mm^3/s)
; infill extrusion width = 0.48mm (10.05mm^3/s)
; solid infill extrusion width = 0.48mm (2.51mm^3/s)
; top infill extrusion width = 0.48mm (1.88mm^3/s)

M107
M190 S65 ; set bed temperature and wait for it to be reached
M104 S205 ; set temperature
G28 ; home all axes
G1 Z5 F5000 ; lift nozzle

; Filament gcode

M109 S205 ; set temperature and wait for it to be reached
G21 ; set units to millimeters
G90 ; use absolute coordinates
M82 ; use absolute distances for extrusion
G92 E0
G1 Z0.500 F7800.000
G1 E-2.00000 F2400.00000
G92 E0
G1 X58.802 Y84.798 F7800.000
G1 E2.00000 F2400.00000
G1 F1800
G1 X59.988 Y84.165 E2.24949
G1 X60.705 Y83.907 E2.39095
G1 X61.785 Y83.675 E2.59601
G1 X62.750 Y83.607 E2.77549
G1 X157.250 Y83.607 E20.31191
G1 X158.150 Y83.666 E20.47932
G1 X158.833 Y83.785 E20.60791
G1 X160.012 Y84.165 E20.83780
G1 X160.501 Y84.390 E20.93762
G1 X161.623 Y85.105 E21.18450
G1 X162.301 Y85.699 E21.35183
G1 X162.679 Y86.109 E21.45529
G1 X162.935 Y86.429 E21.53134
G1 X163.859 Y88.047 E21.87708
G1 X163.977 Y88.351 E21.93755
G1 X164.334 Y89.851 E22.22376
G1 X164.393 Y90.750 E22.39094
G1 X164.393 Y129.250 E29.53541
G1 X164.325 Y130.214 E29.71467
G1 X163.834 Y132.014 E30.06095
G1 X162.895 Y133.623 E30.40667
G1 X161.571 Y134.934 E30.75245
G1 X159.952 Y135.860 E31.09853
G1 X158.214 Y136.325 E31.43242
G1 X157.250 Y136.393 E31.61179
G1 X62.750 Y136.393 E49.14821
G1 X61.786 Y136.325 E49.32757
G1 X59.987 Y135.834 E49.67355
G1 X58.377 Y134.895 E50.01940
G1 X57.065 Y133.571 E50.36536
G1 X56.140 Y131.952 E50.71132
G1 X55.675 Y130.214 E51.04522
G1 X55.607 Y129.250 E51.22459
G1 X55.607 Y90.750 E58.36905
G1 X55.629 Y90.203 E58.47056
G1 X55.675 Y89.786 E58.54855
G1 X55.822 Y89.014 E58.69439
G1 X56.017 Y88.367 E58.81975
G1 X56.165 Y87.988 E58.89531
G1 X57.034 Y86.470 E59.21985
G1 X57.105 Y86.377 E59.24143
G1 X58.378 Y85.105 E59.57548
G1 X58.753 Y84.833 E59.66141
G1 E57.66141 F2400.00000
G92 E0
G1 X155.215 Y127.206 F7800.000
G1 E2.00000 F2400.00000
G1 F1800
G1 X64.793 Y127.214 E18.77951
G1 X64.786 Y92.794 E25.16694
G1 X155.215 Y92.794 E41.94785
G1 X155.215 Y127.146 E48.32264
G1 X156.107 Y128.099 F7800.000
G1 F1800
G1 X63.901 Y128.107 E65.43342
G1 X63.893 Y91.901 E72.15219
G1 X156.107 Y91.901 E89.26446
G1 X156.107 Y128.039 E95.97055
G1 X157.000 Y128.992 F7800.000
G1 F1800
G1 X63.008 Y129.000 E113.41261
G1 X63.000 Y91.009 E120.46271
G1 X157.000 Y91.009 E137.90633
G1 X157.000 Y128.932 E144.94372
G1 X156.603 Y128.940 F7800.000
G1 E142.94372 F2400.00000
G92 E0
G1 X153.975 Y126.661 F7800.000
G1 E2.00000 F2400.00000
G1 F1800
G1 X154.669 Y125.966 E2.18237
G1 X154.669 Y124.703 E2.41693
G1 X152.711 Y126.661 E2.93105
G1 X151.448 Y126.661 E3.16563
G1 X154.669 Y123.440 E4.01149
G1 X154.669 Y122.177 E4.24605
G1 X150.185 Y126.661 E5.42366
G1 X148.921 Y126.661 E5.65824
G1 X154.669 Y120.913 E7.16760
G1 X154.669 Y119.650 E7.40216
G1 X147.658 Y126.661 E9.24327
G1 X146.395 Y126.662 E9.47785
G1 X154.669 Y118.387 E11.65070
G1 X154.669 Y117.124 E11.88526
G1 X145.131 Y126.662 E14.38985
G1 X143.868 Y126.662 E14.62443
G1 X154.669 Y115.861 E17.46078
G1 X154.669 Y114.597 E17.69534
G1 X142.605 Y126.662 E20.86343
G1 X141.341 Y126.662 E21.09801
G1 X154.669 Y113.334 E24.59785
G1 X154.669 Y112.071 E24.83241
G1 X140.078 Y126.662 E28.66399
G1 X138.815 Y126.662 E28.89857
G1 X154.669 Y110.808 E33.06190
G1 X154.669 Y109.544 E33.29646
G1 X137.551 Y126.662 E37.79154
G1 X136.288 Y126.662 E38.02612
G1 X154.669 Y108.281 E42.85294
G1 X154.669 Y107.018 E43.08750
G1 X135.024 Y126.663 E48.24607
G1 X133.761 Y126.663 E48.48065
G1 X154.669 Y105.755 E53.97097
G1 X154.669 Y104.491 E54.20553
G1 X132.498 Y126.663 E60.02759
G1 X131.234 Y126.663 E60.26217
G1 X154.669 Y103.228 E66.41598
G1 X154.669 Y101.965 E66.65054
G1 X129.971 Y126.663 E73.13610
G1 X128.708 Y126.663 E73.37068
G1 X154.669 Y100.702 E80.18798
G1 X154.669 Y99.439 E80.42254
G1 X127.444 Y126.663 E87.57159
G1 X126.181 Y126.663 E87.80617
G1 X154.669 Y98.175 E95.28697
G1 X154.669 Y96.912 E95.52153
G1 X124.918 Y126.663 E103.33407
G1 X123.654 Y126.664 E103.56865
G1 X154.669 Y95.649 E111.71294
G1 X154.669 Y94.386 E111.94750
G1 X122.391 Y126.664 E120.42354
G1 X121.128 Y126.664 E120.65812
G1 X154.452 Y93.339 E129.40893
G1 X153.189 Y93.339 E129.64349
G1 X119.864 Y126.664 E138.39432
G1 X118.601 Y126.664 E138.62890
G1 X151.926 Y93.339 E147.37976
G1 X150.662 Y93.339 E147.61432
G1 X117.338 Y126.664 E156.36522
G1 X116.074 Y126.664 E156.59980
G1 X149.399 Y93.339 E165.35072
G1 X148.136 Y93.339 E165.58528
G1 X114.811 Y126.664 E174.33624
G1 X113.548 Y126.664 E174.57082
G1 X146.873 Y93.339 E183.32180
G1 X145.610 Y93.339 E183.55636
G1 X112.284 Y126.665 E192.30737
G1 X111.021 Y126.665 E192.54195
G1 X144.346 Y93.339 E201.29300
G1 X143.083 Y93.339 E201.52756
G1 X109.758 Y126.665 E210.27863
G1 X108.494 Y126.665 E210.51321
G1 X141.820 Y93.339 E219.26431
G1 X140.557 Y93.339 E219.49887
G1 X107.231 Y126.665 E228.25001
G1 X105.968 Y126.665 E228.48459
G1 X139.293 Y93.339 E237.23575
G1 X138.030 Y93.339 E237.47031
G1 X104.704 Y126.665 E246.22150
G1 X103.441 Y126.665 E246.45608
G1 X136.767 Y93.339 E255.20731
G1 X135.504 Y93.339 E255.44187
G1 X102.178 Y126.666 E264.19312
G1 X100.914 Y126.666 E264.42770
G1 X134.240 Y93.339 E273.17898
G1 X132.977 Y93.339 E273.41354
G1 X99.651 Y126.666 E282.16485
G1 X98.388 Y126.666 E282.39943
G1 X131.714 Y93.339 E291.15078
G1 X130.451 Y93.339 E291.38534
G1 X97.124 Y126.666 E300.13671
G1 X95.861 Y126.666 E300.37129
G1 X129.188 Y93.339 E309.12269
G1 X127.924 Y93.339 E309.35725
G1 X94.598 Y126.666 E318.10868
G1 X93.334 Y126.666 E318.34326
G1 X126.661 Y93.339 E327.09472
G1 X125.398 Y93.339 E327.32928
G1 X92.071 Y126.666 E336.08077
G1 X90.808 Y126.667 E336.31535
G1 X124.135 Y93.339 E345.06688
G1 X122.871 Y93.339 E345.30144
G1 X89.544 Y126.667 E354.05299
G1 X88.281 Y126.667 E354.28757
G1 X121.608 Y93.339 E363.03915
G1 X120.345 Y93.339 E363.27371
G1 X87.017 Y126.667 E372.02532
G1 X85.754 Y126.667 E372.25990
G1 X119.082 Y93.339 E381.01154
G1 X117.819 Y93.339 E381.24610
G1 X84.491 Y126.667 E389.99777
G1 X83.227 Y126.667 E390.23235
G1 X116.555 Y93.339 E398.98405
G1 X115.292 Y93.339 E399.21861
G1 X81.964 Y126.667 E407.97034
G1 X80.701 Y126.667 E408.20492
G1 X114.029 Y93.339 E416.95668
G1 X112.766 Y93.339 E417.19124
G1 X79.437 Y126.668 E425.94303
G1 X78.174 Y126.668 E426.17761
G1 X111.502 Y93.339 E434.92943
G1 X110.239 Y93.339 E435.16399
G1 X76.911 Y126.668 E443.91584
G1 X75.647 Y126.668 E444.15042
G1 X108.976 Y93.339 E452.90230
G1 X107.713 Y93.339 E453.13686
G1 X74.384 Y126.668 E461.88877
G1 X73.121 Y126.668 E462.12335
G1 X106.449 Y93.339 E470.87529
G1 X105.186 Y93.339 E471.10985
G1 X71.857 Y126.668 E479.86182
G1 X70.594 Y126.668 E480.09640
G1 X103.923 Y93.339 E488.84840
G1 X102.660 Y93.339 E489.08296
G1 X69.331 Y126.668 E497.83499
G1 X68.067 Y126.669 E498.06957
G1 X101.397 Y93.339 E506.82163
G1 X100.133 Y93.339 E507.05619
G1 X66.804 Y126.669 E515.80828
G1 X65.541 Y126.669 E516.04286
G1 X98.870 Y93.339 E524.79498
G1 X97.607 Y93.339 E525.02954
G1 X65.339 Y125.608 E533.50303
G1 X65.338 Y124.345 E533.73753
G1 X96.344 Y93.339 E541.87938
G1 X95.080 Y93.339 E542.11394
G1 X65.338 Y123.082 E549.92414
G1 X65.338 Y121.819 E550.15864
G1 X93.817 Y93.339 E557.63720
G1 X92.554 Y93.339 E557.87176
G1 X65.337 Y120.556 E565.01867
G1 X65.337 Y119.293 E565.25318
G1 X91.291 Y93.339 E572.06845
G1 X90.027 Y93.339 E572.30301
G1 X65.337 Y118.030 E578.78664
G1 X65.337 Y116.767 E579.02115
G1 X88.764 Y93.339 E585.17313
G1 X87.501 Y93.339 E585.40769
G1 X65.336 Y115.504 E591.22803
G1 X65.336 Y114.241 E591.46254
G1 X86.238 Y93.339 E596.95123
G1 X84.975 Y93.339 E597.18579
G1 X65.336 Y112.978 E602.34284
G1 X65.335 Y111.715 E602.57735
G1 X83.711 Y93.339 E607.40276
G1 X82.448 Y93.339 E607.63732
G1 X65.335 Y110.452 E612.13108
G1 X65.335 Y109.189 E612.36559
G1 X81.185 Y93.339 E616.52771
G1 X79.922 Y93.339 E616.76227
G1 X65.335 Y107.926 E620.59275
G1 X65.334 Y106.664 E620.82726
G1 X78.658 Y93.339 E624.32609
G1 X77.395 Y93.339 E624.56065
G1 X65.334 Y105.401 E627.72785
G1 X65.334 Y104.138 E627.96235
G1 X76.132 Y93.339 E630.79790
G1 X74.869 Y93.339 E631.03246
G1 X65.333 Y102.875 E633.53637
G1 X65.333 Y101.612 E633.77087
G1 X73.606 Y93.339 E635.94313
G1 X72.342 Y93.339 E636.17769
G1 X65.333 Y100.349 E638.01831
G1 X65.333 Y99.086 E638.25282
G1 X71.079 Y93.339 E639.76179
G1 X69.816 Y93.339 E639.99635
G1 X65.332 Y97.823 E641.17368
G1 X65.332 Y96.560 E641.40819
G1 X68.553 Y93.339 E642.25388
G1 X67.289 Y93.339 E642.48844
G1 X65.332 Y95.297 E643.00248
G1 X65.332 Y94.034 E643.23699
G1 X66.026 Y93.339 E643.41939
M104 S200 ; set temperature
M140 S60 ; set bed temperature
G1 Z0.800 F7800.000
G1 X156.464 Y128.455 F7800.000
G1 F3600
G1 X63.544 Y128.464 E648.27395
G1 X63.536 Y91.545 E650.20279
G1 X156.464 Y91.538 E655.05779
G1 X156.464 Y128.395 E656.98337
G1 X156.883 Y128.874 F7800.000
G1 F3600
G1 X63.126 Y128.883 E661.88170
G1 X63.117 Y91.126 E663.85431
G1 X156.883 Y91.120 E668.75308
G1 X156.883 Y128.814 E670.72244
G1 X157.280 Y129.271 F7800.000
G1 F1800
G1 X62.729 Y129.280 E675.15211
G1 X62.720 Y90.729 E676.95822
G1 X157.280 Y90.722 E681.38829
G1 X157.280 Y129.211 E683.19149
G1 X156.883 Y129.220 F7800.000
G1 X156.208 Y92.120 F7800.000
G1 F1200
G1 X155.882 Y91.794 E683.21561
G1 X155.289 Y91.794 E683.24666
G1 X156.208 Y92.714 E683.31470
G1 X156.208 Y93.307 E683.34575
G1 X154.695 Y91.795 E683.45770
G1 X154.102 Y91.795 E683.48875
G1 X156.208 Y93.901 E683.64461
G1 X156.208 Y94.494 E683.67566
G1 X153.509 Y91.795 E683.87543
G1 X152.915 Y91.795 E683.90648
G1 X156.208 Y95.087 E684.15017
G1 X156.208 Y95.681 E684.18122
G1 X152.322 Y91.795 E684.46881
G1 X151.729 Y91.795 E684.49987
G1 X156.208 Y96.274 E684.83137
G1 X156.208 Y96.867 E684.86243
G1 X151.135 Y91.795 E685.23785
G1 X150.542 Y91.795 E685.26890
G1 X156.208 Y97.461 E685.68823
G1 X156.208 Y98.054 E685.71928
G1 X149.949 Y91.795 E686.18253
G1 X149.355 Y91.795 E686.21358
G1 X156.208 Y98.647 E686.72073
G1 X156.208 Y99.241 E686.75179
G1 X148.762 Y91.795 E687.30285
G1 X148.169 Y91.795 E687.33391
G1 X156.208 Y99.834 E687.92889
G1 X156.208 Y100.428 E687.95994
G1 X147.575 Y91.795 E688.59883
G1 X146.982 Y91.795 E688.62988
G1 X156.208 Y101.021 E689.31269
G1 X156.208 Y101.614 E689.34374
G1 X146.389 Y91.795 E690.07046
G1 X145.795 Y91.795 E690.10151
G1 X156.208 Y102.208 E690.87213
G1 X156.208 Y102.801 E690.90319
G1 X145.202 Y91.795 E691.71773
G1 X144.609 Y91.795 E691.74878
G1 X156.208 Y103.394 E692.60723
G1 X156.208 Y103.988 E692.63828
G1 X144.015 Y91.795 E693.54065
G1 X143.422 Y91.795 E693.57170
G1 X156.208 Y104.581 E694.51798
G1 X156.208 Y105.175 E694.54903
G1 X142.829 Y91.795 E695.53922
G1 X142.235 Y91.795 E695.57027
G1 X156.208 Y105.768 E696.60437
G1 X156.208 Y106.361 E696.63542
G1 X141.642 Y91.795 E697.71344
G1 X141.049 Y91.795 E697.74449
G1 X156.208 Y106.955 E698.86641
G1 X156.208 Y107.548 E698.89747
G1 X140.455 Y91.795 E700.06330
G1 X139.862 Y91.795 E700.09435
G1 X156.208 Y108.141 E701.30410
G1 X156.208 Y108.735 E701.33516
G1 X139.269 Y91.796 E702.58882
G1 X138.675 Y91.796 E702.61987
G1 X156.208 Y109.328 E703.91744
G1 X156.208 Y109.922 E703.94850
G1 X138.082 Y91.796 E705.28998
G1 X137.489 Y91.796 E705.32103
G1 X156.208 Y110.515 E706.70643
G1 X156.208 Y111.108 E706.73748
G1 X136.895 Y91.796 E708.16679
G1 X136.302 Y91.796 E708.19784
G1 X156.208 Y111.702 E709.67107
G1 X156.208 Y112.295 E709.70212
G1 X135.709 Y91.796 E711.21925
G1 X135.115 Y91.796 E711.25030
G1 X156.208 Y112.888 E712.81135
G1 X156.208 Y113.482 E712.84240
G1 X134.522 Y91.796 E714.44736
G1 X133.929 Y91.796 E714.47841
G1 X156.208 Y114.075 E716.12728
G1 X156.208 Y114.669 E716.15834
G1 X133.335 Y91.796 E717.85112
G1 X132.742 Y91.796 E717.88217
G1 X156.208 Y115.262 E719.61886
G1 X156.208 Y115.855 E719.64992
G1 X132.149 Y91.796 E721.43052
G1 X131.555 Y91.796 E721.46157
G1 X156.208 Y116.449 E723.28609
G1 X156.208 Y117.042 E723.31715
G1 X130.962 Y91.796 E725.18558
G1 X130.369 Y91.796 E725.21663
G1 X156.208 Y117.635 E727.12897
G1 X156.208 Y118.229 E727.16002
G1 X129.775 Y91.796 E729.11628
G1 X129.182 Y91.796 E729.14733
G1 X156.208 Y118.822 E731.14750
G1 X156.208 Y119.416 E731.17855
G1 X128.589 Y91.796 E733.22263
G1 X127.995 Y91.796 E733.25368
G1 X156.208 Y120.009 E735.34167
G1 X156.208 Y120.602 E735.37272
G1 X127.402 Y91.796 E737.50463
G1 X126.809 Y91.796 E737.53568
G1 X156.208 Y121.196 E739.71149
G1 X156.208 Y121.789 E739.74255
G1 X126.215 Y91.796 E741.96227
G1 X125.622 Y91.796 E741.99332
G1 X156.208 Y122.382 E744.25696
G1 X156.208 Y122.976 E744.28802
G1 X125.029 Y91.796 E746.59557
G1 X124.435 Y91.797 E746.62662
G1 X156.208 Y123.569 E748.97808
G1 X156.208 Y124.163 E749.00913
G1 X123.842 Y91.797 E751.40451
G1 X123.249 Y91.797 E751.43556
G1 X156.208 Y124.756 E753.87485
G1 X156.208 Y125.349 E753.90590
G1 X122.655 Y91.797 E756.38910
G1 X122.062 Y91.797 E756.42015
G1 X156.208 Y125.943 E758.94726
G1 X156.208 Y126.536 E758.97832
G1 X121.469 Y91.797 E761.54934
G1 X120.875 Y91.797 E761.58039
G1 X156.208 Y127.129 E764.19533
G1 X156.208 Y127.723 E764.22638
G1 X120.282 Y91.797 E766.88523
G1 X119.689 Y91.797 E766.91628
G1 X156.091 Y128.200 E769.61041
G1 X155.498 Y128.200 E769.64146
G1 X119.095 Y91.797 E772.33558
G1 X118.502 Y91.797 E772.36663
G1 X154.905 Y128.200 E775.06076
G1 X154.311 Y128.200 E775.09181
G1 X117.909 Y91.797 E777.78594
G1 X117.315 Y91.797 E777.81699
G1 X153.718 Y128.200 E780.51112
G1 X153.125 Y128.200 E780.54217
G1 X116.722 Y91.797 E783.23630
G1 X116.129 Y91.797 E783.26735
G1 X152.531 Y128.200 E785.96148
G1 X151.938 Y128.200 E785.99253
G1 X115.535 Y91.797 E788.68666
G1 X114.942 Y91.797 E788.71771
G1 X151.345 Y128.200 E791.41184
G1 X150.751 Y128.200 E791.44289
G1 X114.349 Y91.797 E794.13703
G1 X113.755 Y91.797 E794.16808
G1 X150.158 Y128.200 E796.86221
G1 X149.565 Y128.200 E796.89326
G1 X113.162 Y91.797 E799.58740
G1 X112.569 Y91.797 E799.61845
G1 X148.971 Y128.200 E802.31259
G1 X148.378 Y128.200 E802.34363
G1 X111.975 Y91.797 E805.03777
G1 X111.382 Y91.797 E805.06882
G1 X147.785 Y128.200 E807.76296
G1 X147.191 Y128.200 E807.79401
G1 X110.789 Y91.797 E810.48815
G1 X110.195 Y91.797 E810.51920
G1 X146.598 Y128.200 E813.21335
G1 X146.005 Y128.200 E813.24440
G1 X109.602 Y91.797 E815.93854
G1 X109.008 Y91.798 E815.96959
G1 X145.411 Y128.200 E818.66373
G1 X144.818 Y128.201 E818.69478
G1 X108.415 Y91.798 E821.38893
G1 X107.822 Y91.798 E821.41998
G1 X144.225 Y128.201 E824.11412
G1 X143.631 Y128.201 E824.14517
G1 X107.228 Y91.798 E826.83932
G1 X106.635 Y91.798 E826.87037
G1 X143.038 Y128.201 E829.56452
G1 X142.445 Y128.201 E829.59557
G1 X106.042 Y91.798 E832.28972
G1 X105.448 Y91.798 E832.32077
G1 X141.852 Y128.201 E835.01492
G1 X141.258 Y128.201 E835.04597
G1 X104.855 Y91.798 E837.74012
G1 X104.262 Y91.798 E837.77117
G1 X140.665 Y128.201 E840.46532
G1 X140.072 Y128.201 E840.49637
G1 X103.668 Y91.798 E843.19052
G1 X103.075 Y91.798 E843.22157
G1 X139.478 Y128.201 E845.91573
G1 X138.885 Y128.201 E845.94678
G1 X102.482 Y91.798 E848.64093
G1 X101.888 Y91.798 E848.67198
G1 X138.292 Y128.201 E851.36614
G1 X137.698 Y128.201 E851.39719
G1 X101.295 Y91.798 E854.09135
G1 X100.702 Y91.798 E854.12240
G1 X137.105 Y128.201 E856.81655
G1 X136.512 Y128.201 E856.84760
G1 X100.108 Y91.798 E859.54176
G1 X99.515 Y91.798 E859.57281
G1 X135.918 Y128.201 E862.26697
G1 X135.325 Y128.201 E862.29802
G1 X98.922 Y91.798 E864.99219
G1 X98.328 Y91.798 E865.02324
G1 X134.732 Y128.201 E867.71740
G1 X134.138 Y128.202 E867.74845
G1 X97.735 Y91.798 E870.44261
G1 X97.142 Y91.798 E870.47366
G1 X133.545 Y128.202 E873.16783
G1 X132.952 Y128.202 E873.19888
G1 X96.548 Y91.798 E875.89304
G1 X95.955 Y91.798 E875.92409
G1 X132.358 Y128.202 E878.61826
G1 X131.765 Y128.202 E878.64931
G1 X95.362 Y91.798 E881.34348
G1 X94.768 Y91.798 E881.37453
G1 X131.172 Y128.202 E884.06870
G1 X130.578 Y128.202 E884.09975
G1 X94.175 Y91.799 E886.79392
G1 X93.582 Y91.799 E886.82497
G1 X129.985 Y128.202 E889.51914
G1 X129.392 Y128.202 E889.55019
G1 X92.988 Y91.799 E892.24436
