; generated by Slic3r 1.3.0 on 2020-07-21 at 02:39:32

; external perimeters extrusion width = 0.44mm (3.38mm^3/s)
; perimeters extrusion width = 0.48mm (7.54mm^3/s)
; infill extrusion width = 0.48mm (10.05mm^3/s)
; solid infill extrusion width = 0.48mm (2.51mm^3/s)
; top infill extrusion width = 0.48mm (1.88mm^3/s)

M107
M190 S65 ; set bed temperature and wait for it to be reached
M104 S205 ; set temperature
G28 ; home all axes
G1 Z5 F5000 ; lift nozzle

; Filament gcode

M109 S205 ; set temperature and wait for it to be reached
G21 ; set units to millimeters
G90 ; use absolute coordinates
M82 ; use absolute distances for extrusion
G92 E0
G1 Z0.500 F7800.000
G1 E-2.00000 F2400.00000
G92 E0
G1 X99.687 Y105.715 F7800.000
G1 E2.00000 F2400.00000
G1 F1231.81
G1 X101.454 Y104.181 E2.43418
G1 X103.632 Y103.327 E2.86836
G1 X105.007 Y103.185 E3.12473
G1 X114.991 Y103.185 E4.97760
G1 X117.296 Y103.588 E5.41178
G1 X119.333 Y104.738 E5.84596
G1 X120.868 Y106.504 E6.28013
G1 X121.724 Y108.682 E6.71431
G1 X121.867 Y110.056 E6.97065
G1 X121.839 Y110.868 E7.12149
G1 X121.769 Y111.576 E7.25345
G1 X121.626 Y112.420 E7.41235
G1 X121.438 Y113.191 E7.55956
G1 X121.220 Y113.887 E7.69492
G1 X120.959 Y114.569 E7.83038
G1 X120.759 Y115.020 E7.92208
G1 X120.459 Y115.615 E8.04576
G1 X119.941 Y116.483 E8.23328
G1 X119.533 Y117.067 E8.36542
G1 X119.099 Y117.614 E8.49511
G1 X118.820 Y117.935 E8.57392
G1 X118.327 Y118.448 E8.70601
G1 X117.577 Y119.125 E8.89359
G1 X116.678 Y119.800 E9.10219
G1 X115.818 Y120.332 E9.28973
G1 X115.187 Y120.662 E9.42191
G1 X114.538 Y120.953 E9.55395
G1 X113.872 Y121.205 E9.68609
G1 X113.219 Y121.409 E9.81292
G1 X112.792 Y121.521 E9.89483
G1 X112.096 Y121.667 E10.02692
G1 X111.094 Y121.803 E10.21458
G1 X109.971 Y121.854 E10.42323
G1 X108.961 Y121.808 E10.61084
G1 X107.846 Y121.657 E10.81957
G1 X107.150 Y121.507 E10.95164
G1 X106.464 Y121.316 E11.08382
G1 X105.513 Y120.975 E11.27141
G1 X104.493 Y120.502 E11.48005
G1 X103.618 Y119.996 E11.66762
G1 X102.699 Y119.348 E11.87625
G1 X102.151 Y118.894 E12.00828
G1 X101.630 Y118.409 E12.14038
G1 X101.140 Y117.893 E12.27248
G1 X100.682 Y117.349 E12.40445
G1 X100.087 Y116.530 E12.59223
G1 X99.512 Y115.566 E12.80057
G1 X99.196 Y114.929 E12.93256
G1 X98.941 Y114.330 E13.05328
G1 X98.597 Y113.322 E13.25090
G1 X98.354 Y112.329 E13.44069
G1 X98.194 Y111.279 E13.63773
G1 X98.142 Y110.570 E13.76974
G1 X98.131 Y110.056 E13.86508
G1 X98.535 Y107.751 E14.29926
G1 X99.658 Y105.767 E14.72230
G1 E12.72230 F2400.00000
G92 E0
G1 X113.287 Y111.470 F7800.000
G1 E2.00000 F2400.00000
G1 F1231.81
G1 X112.977 Y111.991 E2.11257
G1 X112.707 Y112.341 E2.19457
G1 X112.427 Y112.627 E2.26886
G1 X112.073 Y112.910 E2.35280
G1 X111.706 Y113.137 E2.43301
G1 X111.129 Y113.386 E2.54954
G1 X110.675 Y113.505 E2.63666
G1 X110.053 Y113.567 E2.75269
G1 X109.429 Y113.523 E2.86872
G1 X108.968 Y113.418 E2.95647
G1 X108.387 Y113.186 E3.07255
G1 X107.996 Y112.960 E3.15645
G1 X107.492 Y112.553 E3.27650
G1 X107.370 Y112.429 E3.30883
G1 X107.083 Y112.079 E3.39284
G1 X106.694 Y111.470 E3.52687
G1 X113.227 Y111.470 E4.73921
G1 X114.452 Y110.578 F7800.000
G1 F1800
G1 X114.376 Y110.973 E4.81388
G1 X114.268 Y111.363 E4.88903
G1 X114.107 Y111.794 E4.97429
G1 X113.996 Y112.025 E5.02202
G1 X113.716 Y112.494 E5.12336
G1 X113.390 Y112.918 E5.22251
G1 X113.015 Y113.300 E5.32184
G1 X112.588 Y113.640 E5.42315
G1 X112.130 Y113.924 E5.52311
G1 X111.658 Y114.144 E5.61970
G1 X111.395 Y114.240 E5.67172
G1 X110.861 Y114.379 E5.77414
G1 X110.610 Y114.420 E5.82131
G1 X110.066 Y114.461 E5.92255
G1 X109.521 Y114.437 E6.02379
G1 X109.269 Y114.402 E6.07096
G1 X108.730 Y114.279 E6.17360
G1 X108.488 Y114.201 E6.22078
G1 X107.987 Y113.986 E6.32205
G1 X107.514 Y113.713 E6.42333
G1 X107.306 Y113.566 E6.47053
G1 X106.884 Y113.208 E6.57324
G1 X106.706 Y113.027 E6.62045
G1 X106.359 Y112.605 E6.72181
G1 X106.067 Y112.147 E6.82251
G1 X105.949 Y111.918 E6.87031
G1 X105.752 Y111.435 E6.96721
G1 X105.632 Y111.013 E7.04865
G1 X105.545 Y110.578 E7.13092
G1 X114.392 Y110.578 E8.77250
G1 X114.209 Y110.896 F7800.000
G1 E6.77250 F2400.00000
G92 E0
G1 X112.221 Y112.206 F7800.000
G1 E2.00000 F2400.00000
G1 F1231.81
G1 X110.649 Y112.474 E2.31803
G1 F1231.81
G1 X110.037 Y112.518 E2.45270
G1 X109.614 Y112.505 E2.54555
G1 X109.232 Y112.462 E2.62986
G1 F1231.81
G1 X107.808 Y112.236 E2.92436
M104 S200 ; set temperature
M140 S60 ; set bed temperature
G1 Z0.800 F7800.000
G1 X113.927 Y110.483 F7800.000
G1 F1177.14
G1 X113.848 Y110.918 E2.94746
G1 X113.704 Y111.386 E2.97308
G1 X113.523 Y111.792 E2.99626
G1 X113.272 Y112.213 E3.02187
G1 X112.982 Y112.588 E3.04665
G1 X112.649 Y112.926 E3.07143
G1 X112.267 Y113.232 E3.09702
G1 X111.890 Y113.465 E3.12017
G1 X111.446 Y113.671 E3.14574
G1 X110.995 Y113.818 E3.17050
G1 X110.527 Y113.910 E3.19544
G1 X110.141 Y113.942 E3.21570
G1 X109.600 Y113.926 E3.24394
G1 X109.102 Y113.843 E3.27032
G1 X108.903 Y113.791 E3.28108
G1 X108.428 Y113.621 E3.30746
G1 X108.241 Y113.534 E3.31823
G1 X107.817 Y113.289 E3.34380
G1 X107.438 Y113.004 E3.36858
G1 X107.095 Y112.676 E3.39335
G1 X106.794 Y112.310 E3.41814
G1 X106.539 Y111.910 E3.44293
G1 X106.326 Y111.468 E3.46854
G1 X106.183 Y111.048 E3.49173
G1 X106.078 Y110.553 E3.51816
G1 X106.053 Y110.348 E3.52895
G1 X106.039 Y109.878 E3.55353

G1 F3600
G1 X106.051 Y109.636 E3.56617
G1 X106.123 Y109.151 E3.59179
G1 X106.250 Y108.692 E3.61664
G1 X106.422 Y108.269 E3.64052
G1 X106.532 Y108.054 E3.65317
G1 X106.794 Y107.643 E3.67862
G1 X107.091 Y107.280 E3.70310
G1 X107.251 Y107.116 E3.71508
G1 X107.623 Y106.801 E3.74055
G1 X108.019 Y106.539 E3.76533
G1 X108.447 Y106.324 E3.79038
G1 X108.873 Y106.170 E3.81403
G1 X109.350 Y106.061 E3.83960
G1 X109.821 Y106.012 E3.86436
G1 X110.304 Y106.019 E3.88958
G1 X110.516 Y106.041 E3.90071
G1 X110.996 Y106.135 E3.92625
G1 X111.452 Y106.284 E3.95132
G1 X111.863 Y106.473 E3.97495
G1 X112.279 Y106.731 E4.00053
G1 X112.649 Y107.027 E4.02530
G1 X112.982 Y107.365 E4.05008
G1 X113.282 Y107.753 E4.07568
G1 X113.509 Y108.134 E4.09886
G1 X113.708 Y108.582 E4.12447
G1 X113.848 Y109.035 E4.14928
G1 X113.935 Y109.518 E4.17489
G1 X113.954 Y109.878 E4.19372

G1 F1177.14
G1 X113.936 Y110.423 E4.22225
G1 X114.339 Y110.557 F7800.000
G1 F1177.14
G1 X114.256 Y111.017 E4.24666
G1 X114.098 Y111.528 E4.27456
G1 X113.893 Y111.990 E4.30102
G1 X113.619 Y112.449 E4.32892
G1 X113.298 Y112.864 E4.35633
G1 X112.930 Y113.238 E4.38373
G1 X112.513 Y113.571 E4.41161
G1 X112.083 Y113.837 E4.43804
G1 X111.599 Y114.062 E4.46591
G1 X111.101 Y114.224 E4.49329
G1 X110.585 Y114.325 E4.52077
G1 X110.158 Y114.360 E4.54316
G1 X109.550 Y114.342 E4.57493
G1 X109.015 Y114.253 E4.60327
G1 X108.779 Y114.192 E4.61600
G1 X108.268 Y114.009 E4.64435
G1 X108.047 Y113.906 E4.65709
G1 X107.585 Y113.639 E4.68496
G1 X107.166 Y113.324 E4.71235
G1 X106.787 Y112.962 E4.73975
G1 X106.454 Y112.556 E4.76716
G1 X106.172 Y112.114 E4.79457
G1 X105.941 Y111.633 E4.82247
G1 X105.777 Y111.153 E4.84893
G1 X105.664 Y110.622 E4.87732
G1 X105.635 Y110.379 E4.89008
G1 X105.620 Y109.878 E4.91629

G1 F3600
G1 X105.634 Y109.592 E4.93122
G1 X105.713 Y109.064 E4.95913
G1 X105.853 Y108.557 E4.98659
G1 X106.041 Y108.095 E5.01269
G1 X106.168 Y107.845 E5.02732
G1 X106.454 Y107.396 E5.05513
G1 X106.779 Y107.001 E5.08184
G1 X106.965 Y106.809 E5.09581
G1 X107.371 Y106.465 E5.12362
G1 X107.809 Y106.176 E5.15102
G1 X108.276 Y105.941 E5.17833
G1 X108.761 Y105.766 E5.20530
G1 X109.281 Y105.647 E5.23316
G1 X109.802 Y105.593 E5.26054
G1 X110.329 Y105.600 E5.28804
G1 X110.578 Y105.626 E5.30115
G1 X111.101 Y105.729 E5.32900
G1 X111.599 Y105.891 E5.35634
G1 X112.067 Y106.107 E5.38327
G1 X112.521 Y106.388 E5.41115
G1 X112.930 Y106.715 E5.43854
G1 X113.298 Y107.089 E5.46594
G1 X113.625 Y107.511 E5.49383
G1 X113.884 Y107.946 E5.52029
G1 X114.101 Y108.434 E5.54819
G1 X114.256 Y108.936 E5.57561
G1 X114.351 Y109.462 E5.60352
G1 X114.373 Y109.878 E5.62530

G1 F1177.14
G1 X114.373 Y110.248 E5.64465
G1 X114.350 Y110.498 E5.65777
G1 X114.730 Y110.628 F7800.000
G1 F1800
G1 X114.642 Y111.111 E5.68077
G1 X114.473 Y111.662 E5.70775
G1 X114.243 Y112.179 E5.73425
G1 X113.948 Y112.673 E5.76122
G1 X113.598 Y113.126 E5.78803
G1 X113.197 Y113.533 E5.81483
G1 X112.747 Y113.892 E5.84178
G1 X112.267 Y114.190 E5.86827
G1 X111.745 Y114.432 E5.89521
G1 X111.201 Y114.609 E5.92199
G1 X110.640 Y114.720 E5.94881
G1 X110.174 Y114.758 E5.97068
G1 X109.503 Y114.737 E6.00217
G1 X108.932 Y114.642 E6.02926
G1 X108.662 Y114.572 E6.04235
G1 X108.117 Y114.377 E6.06945
G1 X107.864 Y114.259 E6.08254
G1 X107.366 Y113.971 E6.10949
G1 X106.909 Y113.628 E6.13628
G1 X106.495 Y113.232 E6.16308
G1 X106.132 Y112.790 E6.18989
G1 X105.824 Y112.307 E6.21670
G1 X105.575 Y111.789 E6.24367
G1 X105.392 Y111.253 E6.27018
G1 X105.272 Y110.687 E6.29731
G1 X105.239 Y110.409 E6.31042
G1 X105.223 Y109.878 E6.33531

G1 F3600
G1 X105.238 Y109.551 E6.35242
G1 X105.324 Y108.981 E6.38250
G1 X105.476 Y108.429 E6.41242
G1 X105.679 Y107.929 E6.44062
G1 X105.823 Y107.648 E6.45713
G1 X106.132 Y107.163 E6.48717
G1 X106.482 Y106.736 E6.51602
G1 X106.694 Y106.519 E6.53186
G1 X107.132 Y106.147 E6.56189
G1 X107.609 Y105.831 E6.59177
G1 X108.113 Y105.579 E6.62124
G1 X108.655 Y105.383 E6.65134
G1 X109.216 Y105.255 E6.68138
G1 X109.785 Y105.195 E6.71125
G1 X110.352 Y105.203 E6.74092
G1 X110.637 Y105.233 E6.75589
G1 X111.201 Y105.344 E6.78593
G1 X111.738 Y105.519 E6.81542
G1 X112.261 Y105.760 E6.84550
G1 X112.750 Y106.063 E6.87555
G1 X113.197 Y106.420 E6.90543
G1 X113.598 Y106.827 E6.93532
G1 X113.950 Y107.283 E6.96538
G1 X114.240 Y107.769 E6.99494
G1 X114.474 Y108.295 E7.02502
G1 X114.642 Y108.842 E7.05492
G1 X114.745 Y109.408 E7.08500
G1 X114.770 Y109.878 E7.10957

G1 F1800
G1 X114.770 Y110.266 E7.12776
G1 X114.740 Y110.569 E7.14202
G1 X114.356 Y110.772 F7800.000
G1 X111.806 Y112.874 F7800.000

G1 F3600
G1 X112.284 Y112.832 E7.16957
G1 X112.596 Y112.582 E7.19256
G1 X112.864 Y112.310 E7.21453
G1 X107.585 Y112.771 E7.51911
G1 X107.481 Y112.693 E7.52659
G1 X107.126 Y112.340 E7.55537
G1 X113.235 Y111.806 E7.90781
G1 X113.375 Y111.571 E7.92355
G1 X113.490 Y111.312 E7.93981
G1 X106.795 Y111.898 E8.32606
G1 X106.681 Y111.719 E8.33828
G1 X106.551 Y111.448 E8.35555
G1 X113.653 Y110.827 E8.76533
G1 X113.743 Y110.347 E8.79336
G1 X106.376 Y110.992 E9.21842
G1 X106.366 Y110.959 E9.22038
G1 X106.275 Y110.529 E9.24564
G1 X113.757 Y109.875 E9.67737
G1 X113.757 Y109.722 E9.68614
G1 X113.716 Y109.407 E9.70441
G1 X106.241 Y110.061 E10.13569
G1 X106.235 Y109.870 E10.14670
G1 X106.262 Y109.588 E10.16297
G1 X113.610 Y108.945 E10.58691
G1 X113.539 Y108.714 E10.60083
G1 X113.439 Y108.489 E10.61497
G1 X106.354 Y109.109 E11.02375
G1 X106.424 Y108.853 E11.03897
G1 X106.518 Y108.623 E11.05327
G1 X113.200 Y108.038 E11.43880
G1 X112.859 Y107.597 E11.47085
G1 X106.775 Y108.129 E11.82192
G1 X106.909 Y107.919 E11.83624
G1 X107.149 Y107.625 E11.85809
G1 X112.392 Y107.166 E12.16056
G1 X112.266 Y107.066 E12.16981
G1 X111.895 Y106.836 E12.19493
G1 X111.717 Y106.754 E12.20616
G1 X107.750 Y107.101 E12.43506
G1 X107.999 Y106.937 E12.45220
G1 X108.387 Y106.742 E12.47715
G1 X108.751 Y106.610 E12.49941
G1 X109.183 Y106.512 E12.52491
G1 X110.080 Y106.426 E12.57669

G1 E10.57669 F2400.00000
G92 E0
G1 X108.575 Y113.124 F7800.000
G1 E2.00000 F2400.00000
G1 F600
G1 X108.901 Y113.450 E2.02574
G1 X109.352 Y113.596 E2.05223
G1 X109.746 Y113.661 E2.07451
G1 X109.209 Y113.124 E2.11694
G1 X109.842 Y113.124 E2.15231
G1 X110.395 Y113.677 E2.19596
G1 X110.632 Y113.657 E2.20928
G1 X110.946 Y113.595 E2.22717
G1 X110.475 Y113.124 E2.26438
G1 X111.109 Y113.124 E2.29976
G1 X111.435 Y113.450 E2.32550
G1 Z1.100 F7800.000
G1 X113.929 Y110.483 F7800.000
G1 F900
G1 X113.848 Y110.933 E2.34940
G1 X113.704 Y111.402 E2.37501
G1 X113.523 Y111.807 E2.39820
G1 X113.272 Y112.228 E2.42380
G1 X112.982 Y112.604 E2.44859
G1 X112.649 Y112.942 E2.47337
G1 X112.279 Y113.238 E2.49814
G1 X111.876 Y113.487 E2.52291
G1 X111.432 Y113.693 E2.54848
G1 X111.011 Y113.830 E2.57162
G1 X110.515 Y113.928 E2.59800
G1 X110.310 Y113.949 E2.60876
G1 X109.821 Y113.957 E2.63432
G1 X109.350 Y113.907 E2.65907
G1 X108.873 Y113.798 E2.68464
G1 X108.677 Y113.734 E2.69540
G1 X108.227 Y113.542 E2.72098
G1 X107.803 Y113.297 E2.74655
G1 X107.635 Y113.178 E2.75732
G1 X107.250 Y112.851 E2.78372
G1 X107.105 Y112.704 E2.79450
G1 X106.794 Y112.325 E2.82010
G1 X106.539 Y111.925 E2.84489
G1 X106.326 Y111.483 E2.87050
G1 X106.183 Y111.063 E2.89369
G1 X106.078 Y110.568 E2.92012
G1 X106.053 Y110.363 E2.93091
G1 X106.039 Y109.873 E2.95653
G1 X106.081 Y109.400 E2.98134
G1 X106.183 Y108.921 E3.00695
G1 X106.244 Y108.723 E3.01775
G1 X106.435 Y108.255 E3.04417
G1 X106.530 Y108.072 E3.05496
G1 X106.794 Y107.659 E3.08056
G1 X107.105 Y107.280 E3.10616
G1 X107.250 Y107.133 E3.11693
G1 X107.623 Y106.816 E3.14252
G1 X108.020 Y106.554 E3.16740
G1 X108.399 Y106.362 E3.18955
G1 X108.873 Y106.186 E3.21600
G1 X109.350 Y106.077 E3.24156
G1 X109.823 Y106.027 E3.26641
G1 X110.251 Y106.032 E3.28877
G1 X110.521 Y106.057 E3.30293
G1 X110.997 Y106.151 E3.32831
G1 X111.402 Y106.281 E3.35051
G1 X111.863 Y106.489 E3.37690
G1 X112.279 Y106.746 E3.40248
G1 X112.649 Y107.042 E3.42725
G1 X112.982 Y107.380 E3.45203
G1 X113.282 Y107.768 E3.47763
G1 X113.401 Y107.955 E3.48923
G1 X113.509 Y108.149 E3.50082
G1 X113.708 Y108.597 E3.52643
G1 X113.848 Y109.051 E3.55124
G1 X113.935 Y109.533 E3.57685
G1 X113.954 Y109.739 E3.58765
G1 X113.938 Y110.424 E3.62343
G1 X114.342 Y110.558 F7800.000
G1 F900
G1 X114.256 Y111.033 E3.64864
G1 X114.098 Y111.543 E3.67654
G1 X113.893 Y112.006 E3.70300
G1 X113.619 Y112.464 E3.73090
G1 X113.298 Y112.879 E3.75831
G1 X112.930 Y113.253 E3.78571
G1 X112.521 Y113.581 E3.81311
G1 X112.075 Y113.856 E3.84049
G1 X111.591 Y114.081 E3.86836
G1 X111.110 Y114.237 E3.89478
G1 X110.578 Y114.342 E3.92313
G1 X110.336 Y114.368 E3.93586
G1 X109.802 Y114.376 E3.96372
G1 X109.281 Y114.321 E3.99109
G1 X108.761 Y114.202 E4.01896
G1 X108.530 Y114.127 E4.03169
G1 X108.039 Y113.917 E4.05956
G1 X107.577 Y113.650 E4.08743
G1 X107.378 Y113.509 E4.10017
G1 X106.964 Y113.158 E4.12853
G1 X106.793 Y112.984 E4.14127
G1 X106.454 Y112.572 E4.16916
G1 X106.172 Y112.129 E4.19658
G1 X105.941 Y111.648 E4.22448
G1 X105.777 Y111.169 E4.25094
G1 X105.664 Y110.637 E4.27933
G1 X105.635 Y110.395 E4.29209
G1 X105.619 Y109.861 E4.32000
G1 X105.666 Y109.338 E4.34743
G1 X105.777 Y108.815 E4.37533
G1 X105.849 Y108.582 E4.38809
G1 X106.055 Y108.079 E4.41647
G1 X106.167 Y107.862 E4.42923
G1 X106.454 Y107.412 E4.45712
G1 X106.793 Y107.000 E4.48501
G1 X106.964 Y106.826 E4.49775
G1 X107.371 Y106.481 E4.52564
G1 X107.809 Y106.191 E4.55309
G1 X108.225 Y105.981 E4.57742
G1 X108.761 Y105.782 E4.60731
G1 X109.281 Y105.663 E4.63517
G1 X109.804 Y105.608 E4.66261
G1 X110.273 Y105.613 E4.68714
G1 X110.581 Y105.642 E4.70331
G1 X111.102 Y105.745 E4.73106
G1 X111.546 Y105.888 E4.75543
G1 X112.067 Y106.123 E4.78527
G1 X112.521 Y106.403 E4.81314
G1 X112.930 Y106.731 E4.84054
G1 X113.298 Y107.104 E4.86794
G1 X113.625 Y107.527 E4.89583
G1 X113.761 Y107.740 E4.90906
G1 X113.884 Y107.962 E4.92230
G1 X114.101 Y108.450 E4.95020
G1 X114.256 Y108.951 E4.97762
G1 X114.351 Y109.477 E5.00553
G1 X114.373 Y109.720 E5.01829
G1 X114.373 Y110.264 E5.04668
G1 X114.352 Y110.499 E5.05901
G1 X114.732 Y110.629 F7800.000
G1 F900
G1 X114.642 Y111.127 E5.08272
G1 X114.473 Y111.677 E5.10970
G1 X114.243 Y112.194 E5.13621
G1 X113.948 Y112.688 E5.16317
G1 X113.598 Y113.141 E5.18998
G1 X113.197 Y113.549 E5.21678
G1 X112.750 Y113.906 E5.24358
G1 X112.264 Y114.207 E5.27037
G1 X111.742 Y114.449 E5.29731
G1 X111.205 Y114.624 E5.32379
G1 X110.637 Y114.736 E5.35088
G1 X110.359 Y114.765 E5.36397
G1 X109.784 Y114.773 E5.39091
G1 X109.216 Y114.714 E5.41769
G1 X108.655 Y114.585 E5.44463
G1 X108.390 Y114.499 E5.45772
G1 X107.861 Y114.273 E5.48466
G1 X107.363 Y113.985 E5.51160
G1 X107.135 Y113.824 E5.52470
G1 X106.693 Y113.449 E5.55181
G1 X106.497 Y113.250 E5.56491
G1 X106.132 Y112.805 E5.59187
G1 X105.824 Y112.323 E5.61868
G1 X105.575 Y111.804 E5.64564
G1 X105.392 Y111.269 E5.67216
G1 X105.272 Y110.702 E5.69928
G1 X105.239 Y110.424 E5.71239
