; generated by Slic3r 1.3.0 on 2020-07-21 at 03:05:47

; external perimeters extrusion width = 0.44mm (3.38mm^3/s)
; perimeters extrusion width = 0.48mm (7.54mm^3/s)
; infill extrusion width = 0.48mm (10.05mm^3/s)
; solid infill extrusion width = 0.48mm (2.51mm^3/s)
; top infill extrusion width = 0.48mm (1.88mm^3/s)

M107
M190 S65 ; set bed temperature and wait for it to be reached
M104 S205 ; set temperature
G28 ; home all axes
G1 Z5 F5000 ; lift nozzle

; Filament gcode

M109 S205 ; set temperature and wait for it to be reached
G21 ; set units to millimeters
G90 ; use absolute coordinates
M82 ; use absolute distances for extrusion
G92 E0
G1 Z0.500 F7800.000
G1 E-2.00000 F2400.00000
G92 E0
G1 X71.401 Y102.467 F7800.000
G1 E2.00000 F2400.00000
G1 F1800
G1 X71.747 Y102.253 E2.07553
G1 X72.171 Y102.023 E2.16508
G1 X72.715 Y101.779 E2.27571
G1 X73.300 Y101.574 E2.39073
G1 X73.877 Y101.424 E2.50126
G1 X74.402 Y101.331 E2.60021
G1 X74.890 Y101.280 E2.69122
G1 X75.345 Y101.262 E2.77588
G1 X144.601 Y101.262 E15.62773
G1 X145.363 Y101.302 E15.76923
G1 X146.016 Y101.402 E15.89182
G1 X146.437 Y101.499 E15.97208
G1 X147.017 Y101.678 E16.08471
G1 X147.711 Y101.965 E16.22399
G1 X148.345 Y102.306 E16.35759
G1 X148.792 Y102.600 E16.45701
G1 X149.107 Y102.835 E16.52982
G1 X149.571 Y103.237 E16.64386
G1 X150.161 Y103.859 E16.80288
G1 X150.605 Y104.444 E16.93916
G1 X150.933 Y104.970 E17.05413
G1 X151.162 Y105.410 E17.14618
G1 X151.456 Y106.110 E17.28706
G1 X151.667 Y106.802 E17.42143
G1 X151.809 Y107.510 E17.55539
G1 X151.882 Y108.227 E17.68909
G1 X151.892 Y108.672 E17.77176
G1 X151.863 Y109.895 E17.99879
G1 X151.793 Y110.869 E18.17989
G1 X151.728 Y111.415 E18.28204
G1 X151.621 Y112.046 E18.40066
G1 X151.510 Y112.528 E18.49255
G1 X151.366 Y113.008 E18.58555
G1 X150.245 Y115.125 E19.03009
G1 X148.531 Y116.719 E19.46427
G1 X146.233 Y117.682 E19.92667
G1 X144.750 Y117.843 E20.20359
G1 X75.250 Y117.843 E33.10074
G1 X73.765 Y117.682 E33.37793
G1 X71.598 Y116.801 E33.81211
G1 X70.265 Y115.720 E34.13044
G1 X69.701 Y115.057 E34.29207
G1 X69.069 Y114.052 E34.51242
G1 X68.701 Y113.204 E34.68398
G1 X68.486 Y112.515 E34.81775
G1 X68.336 Y111.821 E34.94967
G1 X68.236 Y111.138 E35.07764
G1 X68.163 Y110.337 E35.22693
G1 X68.115 Y109.260 E35.42706
G1 X68.108 Y108.508 E35.56659
G1 X68.130 Y108.036 E35.65429
G1 X68.224 Y107.304 E35.79120
G1 X68.334 Y106.800 E35.88692
G1 X68.544 Y106.112 E36.02036
G1 X68.799 Y105.490 E36.14510
G1 X69.067 Y104.971 E36.25350
G1 X69.408 Y104.426 E36.37291
G1 X69.914 Y103.772 E36.52621
G1 X70.435 Y103.232 E36.66554
G1 X70.904 Y102.827 E36.78058
G1 X71.353 Y102.502 E36.88329
G1 E34.88329 F2400.00000
G92 E0
G1 X144.398 Y110.451 F7800.000
G1 E2.00000 F2400.00000
G1 F1800
G1 X140.608 Y110.448 E2.70327
G1 X140.571 Y110.208 E2.74834
G1 X140.510 Y109.219 E2.93225
G1 X140.510 Y108.655 E3.03704
G1 X144.498 Y108.654 E3.77722
G1 X144.457 Y109.894 E4.00736
G1 X144.404 Y110.391 E4.10011
G1 X144.055 Y110.244 F7800.000
G1 X144.022 Y109.552 F7800.000
G1 F1800
G1 X140.977 Y109.552 E4.60367
G1 E2.60367 F2400.00000
G92 E0
G1 X79.491 Y108.655 F7800.000
G1 E2.00000 F2400.00000
G1 F1800
G1 X79.495 Y109.059 E2.07511
G1 X79.415 Y110.448 E2.33328
G1 X75.608 Y110.448 E3.03989
G1 X75.543 Y109.898 E3.14263
G1 X75.502 Y108.659 E3.37278
G1 X79.431 Y108.655 E4.10199
G1 X79.293 Y109.002 F7800.000
G1 X79.019 Y109.551 F7800.000
G1 F1800
G1 X75.978 Y109.553 E4.60377
M104 S200 ; set temperature
M140 S60 ; set bed temperature
G1 Z0.800 F7800.000
G1 E2.60377 F2400.00000
G92 E0
G1 X141.038 Y109.104 F7800.000
G1 E2.00000 F2400.00000
G1 F667.599
G1 X143.961 Y109.105 E2.15269
G1 X143.961 Y109.352 E2.16563
G1 X143.854 Y109.925 E2.19608
G1 X143.961 Y110.490 E2.22612
G1 X143.962 Y111.004 E2.25294
G1 X141.038 Y111.004 E2.40572
G1 X141.039 Y110.485 E2.43281
G1 X141.146 Y109.902 E2.46377
G1 X141.039 Y109.345 E2.49339
G1 X141.038 Y109.164 E2.50285
G1 X140.618 Y108.685 F7800.000
G1 F2670.39
G1 X144.380 Y108.686 E2.69942
G1 X144.379 Y109.391 E2.73626
G1 X144.280 Y109.925 E2.76463
G1 X144.380 Y110.451 E2.79258
G1 X144.381 Y111.151 E2.82917

G1 F3600
G1 X144.382 Y111.422 E2.84336
G1 X140.618 Y111.423 E3.04003
G1 X140.619 Y111.151 E3.05423

G1 F2670.39
G1 X140.620 Y110.446 E3.09103
G1 X140.720 Y109.904 E3.11984
G1 X140.620 Y109.386 E3.14740
G1 X140.618 Y108.745 E3.18087
G1 X140.331 Y108.351 F7800.000
G1 F1800
G1 X140.416 Y108.305 E3.18542
G1 X140.518 Y108.288 E3.19025
G1 X144.486 Y108.288 E3.37614
G1 X144.605 Y108.313 E3.38182
G1 X144.697 Y108.375 E3.38707
G1 X144.747 Y108.445 E3.39104
G1 X144.777 Y108.551 E3.39624
G1 X144.777 Y109.428 E3.43730
G1 X144.685 Y109.924 E3.46096
G1 X144.777 Y110.413 E3.48426
G1 X144.779 Y111.149 E3.51875

G1 F3600
G1 X144.780 Y111.568 E3.54065
G1 X144.755 Y111.692 E3.54723
G1 X144.689 Y111.786 E3.55325
G1 X144.599 Y111.820 E3.55828
G1 X140.416 Y111.820 E3.77680
G1 X140.334 Y111.801 E3.78121
G1 X140.246 Y111.698 E3.78828
G1 X140.220 Y111.568 E3.79518
G1 X140.221 Y111.149 E3.81708

G1 F1800
G1 X140.223 Y110.410 E3.85171
G1 X140.315 Y109.906 E3.87573
G1 X140.223 Y109.424 E3.89869
G1 X140.220 Y108.581 E3.93821
G1 X140.248 Y108.455 E3.94426
G1 X140.293 Y108.398 E3.94766
G1 X140.421 Y108.387 F7800.000
G1 E1.94766 F2400.00000
G92 E0
G1 X141.621 Y110.748 F7800.000
G1 E2.00000 F2400.00000
G1 F667.599
G1 X141.295 Y110.422 E2.02525
G1 X141.382 Y109.887 E2.05492
G1 X142.242 Y110.748 E2.12159
G1 X142.863 Y110.748 E2.15563
G1 X141.476 Y109.360 E2.26314
G1 X142.097 Y109.360 E2.29718
G1 X143.485 Y110.748 E2.40468
G1 X143.705 Y110.748 E2.41676
G1 X143.625 Y110.266 E2.44349
G1 X142.719 Y109.360 E2.51370
G1 X143.340 Y109.360 E2.54774
G1 X143.666 Y109.686 E2.57300
G1 E0.57300 F2400.00000
G92 E0
G1 X78.961 Y109.105 F7800.000
G1 E2.00000 F2400.00000
G1 F667.599
G1 X78.961 Y109.352 E2.01294
G1 X78.854 Y109.925 E2.04339
G1 X78.961 Y110.490 E2.07342
G1 X78.962 Y111.004 E2.10024
G1 X76.038 Y111.004 E2.25303
G1 X76.039 Y110.485 E2.28012
G1 X76.146 Y109.902 E2.31108
G1 X76.039 Y109.345 E2.34069
G1 X76.038 Y109.104 E2.35330
G1 X78.901 Y109.105 E2.50285
G1 X79.380 Y108.686 F7800.000
G1 F2670.39
G1 X79.379 Y109.391 E2.53970
G1 X79.281 Y109.925 E2.56806
G1 X79.379 Y110.451 E2.59601
G1 X79.381 Y111.151 E2.63260

G1 F3600
G1 X79.382 Y111.422 E2.64679
G1 X75.618 Y111.423 E2.84346
G1 X75.619 Y111.151 E2.85766

G1 F2670.39
G1 X75.620 Y110.446 E2.89446
G1 X75.720 Y109.904 E2.92327
G1 X75.620 Y109.386 E2.95083
G1 X75.618 Y108.685 E2.98744
G1 X79.320 Y108.686 E3.18087
G1 X79.747 Y108.445 F7800.000
G1 F1800
G1 X79.777 Y108.551 E3.18606
G1 X79.777 Y109.428 E3.22713
G1 X79.685 Y109.924 E3.25078
G1 X79.777 Y110.413 E3.27409
G1 X79.779 Y111.149 E3.30858

G1 F3600
G1 X79.780 Y111.568 E3.33048
G1 X79.755 Y111.692 E3.33705
G1 X79.689 Y111.786 E3.34308
G1 X79.599 Y111.820 E3.34810
G1 X75.416 Y111.820 E3.56663
G1 X75.334 Y111.801 E3.57104
G1 X75.246 Y111.698 E3.57811
G1 X75.220 Y111.568 E3.58501
G1 X75.221 Y111.149 E3.60690

G1 F1800
G1 X75.223 Y110.410 E3.64154
G1 X75.315 Y109.906 E3.66556
G1 X75.223 Y109.424 E3.68851
G1 X75.220 Y108.581 E3.72804
G1 X75.248 Y108.455 E3.73408
G1 X75.331 Y108.351 E3.74029
G1 X75.416 Y108.305 E3.74484
G1 X75.518 Y108.288 E3.74967
G1 X79.486 Y108.288 E3.93556
G1 X79.605 Y108.313 E3.94125
G1 X79.712 Y108.396 E3.94759
G1 X79.685 Y108.537 F7800.000
G1 X78.666 Y109.686 F7800.000
G1 F667.599
G1 X78.340 Y109.360 E3.97284
G1 X77.719 Y109.360 E4.00689
G1 X78.625 Y110.266 E4.07710
G1 X78.705 Y110.748 E4.10383
G1 X78.485 Y110.748 E4.11590
G1 X77.097 Y109.360 E4.22340
G1 X76.476 Y109.360 E4.25745
G1 X77.863 Y110.748 E4.36495
G1 X77.242 Y110.748 E4.39899
G1 X76.382 Y109.887 E4.46567
G1 X76.295 Y110.422 E4.49534
G1 X76.621 Y110.748 E4.52058
G1 Z1.100 F7800.000
G1 E2.52058 F2400.00000
G92 E0
G1 X140.224 Y111.036 F7800.000
G1 E2.00000 F2400.00000
G1 F633.773
G1 X144.780 Y111.042 E2.21344
G1 X144.780 Y111.548 E2.23717
G1 X144.733 Y111.708 E2.24496
G1 X144.676 Y111.772 E2.24900
G1 X144.562 Y111.830 E2.25500
G1 X140.482 Y111.836 E2.44615
G1 X140.371 Y111.803 E2.45155
G1 X140.303 Y111.753 E2.45549
G1 X140.228 Y111.610 E2.46309
G1 X140.225 Y111.096 E2.48713
G1 X140.574 Y111.231 F7800.000
G1 X140.426 Y111.436 F7800.000
G1 F845.031
G1 X144.581 Y111.435 E2.66199
G1 E0.66199 F2400.00000
G92 E0
G1 X140.223 Y108.802 F7800.000
G1 E2.00000 F2400.00000
G1 F633.773
G1 X140.223 Y108.517 E2.01335
G1 X140.251 Y108.414 E2.01832
G1 X140.326 Y108.320 E2.02398
G1 X140.449 Y108.263 E2.03034
G1 X144.499 Y108.257 E2.22007
G1 X144.595 Y108.276 E2.22464
G1 X144.718 Y108.364 E2.23173
G1 X144.755 Y108.429 E2.23524
G1 X144.779 Y108.527 E2.23995
G1 X144.780 Y108.796 E2.25257
G1 X140.283 Y108.801 E2.46323
G1 X140.360 Y108.552 F7800.000
G1 X140.498 Y108.532 F7800.000
G1 F845.031
G1 X144.506 Y108.530 E2.50209
G1 E0.50209 F2400.00000
G92 E0
G1 X79.780 Y108.796 F7800.000
G1 E2.00000 F2400.00000
G1 F633.773
G1 X75.223 Y108.802 E2.21347
G1 X75.223 Y108.517 E2.22682
G1 X75.282 Y108.363 E2.23453
G1 X75.326 Y108.320 E2.23742
G1 X75.449 Y108.263 E2.24379
G1 X79.499 Y108.257 E2.43352
G1 X79.595 Y108.276 E2.43808
G1 X79.718 Y108.364 E2.44518
G1 X79.755 Y108.429 E2.44869
G1 X79.779 Y108.527 E2.45340
G1 X79.779 Y108.736 E2.46320
G1 X79.429 Y108.604 F7800.000
G1 X79.506 Y108.530 F7800.000
G1 F845.031
G1 X75.498 Y108.532 E2.50206
G1 E0.50206 F2400.00000
G92 E0
G1 X79.780 Y111.042 F7800.000
G1 E2.00000 F2400.00000
G1 F633.773
G1 X79.767 Y111.634 E2.02778
G1 X79.676 Y111.772 E2.03551
G1 X79.562 Y111.830 E2.04152
G1 X75.482 Y111.836 E2.23266
G1 X75.371 Y111.803 E2.23806
G1 X75.303 Y111.753 E2.24201
G1 X75.228 Y111.610 E2.24960
G1 X75.224 Y111.036 E2.27646
G1 X79.720 Y111.041 E2.48708
G1 X79.594 Y111.396 F7800.000
G1 X79.581 Y111.435 F7800.000
G1 F845.031
G1 X75.426 Y111.436 E2.66194
M106 S255
G1 Z1.400 F7800.000
G1 E0.66194 F2400.00000
G92 E0
G1 X140.223 Y111.337 F7800.000
G1 E2.00000 F2400.00000
G1 F600
G1 X144.779 Y111.341 E2.21345
G1 X144.778 Y111.548 E2.22312
G1 X144.715 Y111.702 E2.23091
G1 X144.606 Y111.783 E2.23730
G1 X144.527 Y111.804 E2.24113
G1 X140.476 Y111.803 E2.43089
G1 X140.380 Y111.775 E2.43558
G1 X140.305 Y111.722 E2.43990
G1 X140.250 Y111.643 E2.44439
G1 X140.223 Y111.546 E2.44916
G1 X140.223 Y111.397 E2.45612
G1 X140.575 Y111.527 F7800.000
G1 X140.449 Y111.556 F7800.000
G1 F717.828
G1 X140.510 Y111.570 E2.45612
G1 X144.517 Y111.570 E2.45662
G1 E0.45662 F2400.00000
G92 E0
G1 X140.099 Y108.501 F7800.000
G1 E2.00000 F2400.00000
G1 F600
G1 X140.366 Y108.264 E2.01671
G1 X140.474 Y108.228 E2.02208
G1 X144.515 Y108.226 E2.21137
G1 X144.643 Y108.266 E2.21767
G1 X144.696 Y108.307 E2.22084
G1 X144.846 Y108.501 E2.23228
G1 X140.159 Y108.501 E2.45185
G1 X140.412 Y108.330 F7800.000
G1 E0.45185 F2400.00000
G92 E0
G1 X79.846 Y108.501 F7800.000
G1 E2.00000 F2400.00000
G1 F600
G1 X75.099 Y108.501 E2.22238
G1 X75.366 Y108.264 E2.23909
G1 X75.474 Y108.228 E2.24445
G1 X79.515 Y108.226 E2.43374
G1 X79.643 Y108.266 E2.44004
G1 X79.809 Y108.453 E2.45178
G1 X79.462 Y108.388 F7800.000
G1 E0.45178 F2400.00000
G92 E0
G1 X79.779 Y111.341 F7800.000
G1 E2.00000 F2400.00000
G1 F600
G1 X79.778 Y111.548 E2.00967
G1 X79.756 Y111.632 E2.01374
G1 X79.675 Y111.742 E2.02015
G1 X79.527 Y111.804 E2.02768
G1 X75.476 Y111.803 E2.21744
G1 X75.380 Y111.775 E2.22213
G1 X75.305 Y111.722 E2.22645
G1 X75.250 Y111.643 E2.23094
G1 X75.223 Y111.546 E2.23571
G1 X75.223 Y111.337 E2.24548
G1 X79.719 Y111.341 E2.45612
G1 X79.678 Y111.521 F7800.000
G1 X79.517 Y111.570 F7800.000
G1 F717.828
G1 X75.510 Y111.570 E2.45661
G1 X75.449 Y111.556 E2.45662
G1 Z1.700 F7800.000
G1 E0.45662 F2400.00000
G92 E0
G1 X140.278 Y111.671 F7800.000
G1 E2.00000 F2400.00000
G1 F600
G1 X140.328 Y111.513 E2.00777
G1 X144.674 Y111.515 E2.21139
G1 X144.725 Y111.668 E2.21896
G1 X144.634 Y111.738 E2.22434
G1 X144.485 Y111.775 E2.23154
G1 X140.471 Y111.771 E2.41958
G1 X140.390 Y111.748 E2.42355
G1 X140.328 Y111.705 E2.42709
G1 X140.406 Y111.566 F7800.000
G1 E0.42709 F2400.00000
G92 E0
G1 X144.977 Y108.493 F7800.000
G1 E2.00000 F2400.00000
G1 F600
G1 X144.853 Y108.405 E2.00320
G1 F600
G1 X144.788 Y108.357 E2.00582
G1 F600
G1 X144.718 Y108.316 E2.00941
G1 F600
G1 X144.614 Y108.277 E2.01539
G1 F600
G1 X144.501 Y108.260 E2.02262
G1 X140.482 Y108.260 E2.27618
G1 X140.380 Y108.277 E2.28272
G1 X140.010 Y108.403 E2.30735
G1 E0.30735 F2400.00000
G92 E0
G1 X79.977 Y108.493 F7800.000
G1 E2.00000 F2400.00000
G1 F600
G1 X79.853 Y108.405 E2.00320
G1 F600
G1 X79.788 Y108.357 E2.00582
G1 F600
G1 X79.718 Y108.316 E2.00941
G1 F600
G1 X79.614 Y108.277 E2.01539
G1 F600
G1 X79.501 Y108.260 E2.02262
G1 X75.482 Y108.260 E2.27618
G1 X75.380 Y108.277 E2.28273
G1 X75.011 Y108.403 E2.30735
G1 E0.30735 F2400.00000
G92 E0
G1 X79.674 Y111.515 F7800.000
G1 E2.00000 F2400.00000
G1 F600
G1 X79.725 Y111.668 E2.00758
G1 X79.634 Y111.738 E2.01295
G1 X79.485 Y111.775 E2.02015
G1 X75.471 Y111.771 E2.20820
G1 X75.390 Y111.748 E2.21217
G1 X75.278 Y111.671 E2.21851
G1 X75.328 Y111.513 E2.22628
G1 X79.614 Y111.515 E2.42709
G1 X79.627 Y111.670 F7800.000
G1 Z2.000 F7800.000
G1 E0.42709 F2400.00000
G92 E0
G1 X144.984 Y111.452 F7800.000
G1 E2.00000 F2400.00000
G1 F600
G1 X144.845 Y111.530 E2.00341
G1 F600
G1 X144.786 Y111.576 E2.00589
G1 F600
G1 X144.711 Y111.616 E2.00962
G1 F600
G1 X144.629 Y111.650 E2.01445
G1 F600
G1 X144.472 Y111.675 E2.02412
G1 X140.474 Y111.673 E2.26732
G1 X140.326 Y111.637 E2.27659
G1 F600
G1 X140.251 Y111.596 E2.28121
G1 F600
G1 X140.184 Y111.553 E2.28470
G1 F600
G1 X140.126 Y111.507 E2.28716
G1 F600
G1 X140.017 Y111.453 E2.28978
G1 E0.28978 F2400.00000
G92 E0
G1 X144.970 Y108.400 F7800.000
G1 E2.00000 F2400.00000
G1 F600
G1 X144.867 Y108.334 E2.00227
G1 F600
G1 X144.815 Y108.299 E2.00385
G1 F600
G1 X144.760 Y108.266 E2.00603
G1 F600
G1 X144.676 Y108.231 E2.00981
G1 F600
G1 X144.518 Y108.196 E2.01811
G1 X140.477 Y108.196 E2.22511
G1 X140.281 Y108.248 E2.23547
G1 F600
G1 X140.212 Y108.282 E2.23874
G1 F600
G1 X140.158 Y108.320 E2.24098
G1 F600
G1 X140.026 Y108.389 E2.24458
G1 E0.24458 F2400.00000
G92 E0
G1 X79.970 Y108.400 F7800.000
G1 E2.00000 F2400.00000
G1 F600
G1 X79.867 Y108.334 E2.00227
G1 F600
G1 X79.815 Y108.299 E2.00386
G1 F600
G1 X79.760 Y108.266 E2.00604
G1 F600
G1 X79.676 Y108.231 E2.00981
G1 F600
G1 X79.518 Y108.196 E2.01811
G1 X75.477 Y108.196 E2.22511
G1 X75.281 Y108.248 E2.23547
G1 F600
G1 X75.212 Y108.282 E2.23874
G1 F600
G1 X75.158 Y108.320 E2.24098
G1 F600
G1 X75.026 Y108.389 E2.24458
G1 E0.24458 F2400.00000
G92 E0
G1 X79.984 Y111.452 F7800.000
G1 E2.00000 F2400.00000
G1 F600
G1 X79.845 Y111.530 E2.00341
G1 F600
G1 X79.786 Y111.576 E2.00589
G1 F600
G1 X79.711 Y111.616 E2.00962
G1 F600
G1 X79.629 Y111.650 E2.01445
G1 F600
G1 X79.472 Y111.675 E2.02412
G1 X75.474 Y111.673 E2.26732
G1 X75.326 Y111.637 E2.27659
G1 F600
G1 X75.251 Y111.596 E2.28121
G1 F600
G1 X75.184 Y111.553 E2.28470
G1 F600
G1 X75.126 Y111.507 E2.28716
G1 F600
G1 X75.017 Y111.453 E2.28978
G1 Z2.300 F7800.000
G1 E0.28978 F2400.00000
G92 E0
G1 X144.980 Y111.489 F7800.000
G1 E2.00000 F2400.00000
G1 F600
G1 X144.847 Y111.547 E2.00274
G1 F600
G1 X144.788 Y111.588 E2.00480
G1 F600
G1 X144.716 Y111.622 E2.00785
G1 F600
G1 X144.595 Y111.663 E2.01387
G1 F600
G1 X140.474 Y111.672 E2.24368
G1 X140.351 Y111.648 E2.25068
G1 F600
G1 X140.261 Y111.612 E2.25544
G1 F600
G1 X140.188 Y111.570 E2.25884
G1 F600
G1 X140.137 Y111.534 E2.26070
G1 F600
G1 X140.022 Y111.487 E2.26328
G1 E0.26328 F2400.00000
G92 E0
G1 X79.980 Y111.489 F7800.000
G1 E2.00000 F2400.00000
G1 F600
G1 X79.847 Y111.547 E2.00275
G1 F600
G1 X79.788 Y111.588 E2.00480
G1 F600
G1 X79.716 Y111.622 E2.00785
G1 F600
G1 X79.595 Y111.663 E2.01387
G1 F600
G1 X75.474 Y111.672 E2.24368
G1 X75.351 Y111.648 E2.25068
G1 F600
G1 X75.261 Y111.612 E2.25544
G1 F600
G1 X75.188 Y111.570 E2.25883
G1 F600
G1 X75.137 Y111.534 E2.26070
G1 F600
G1 X75.022 Y111.487 E2.26328
G1 E0.26328 F2400.00000
G92 E0
M107
; Filament-specific end gcode 
;END gcode for filament

M104 S0 ; turn off temperature
G28 X0  ; home X axis
M84     ; disable motors

M140 S0 ; set bed temperature
; filament used = 52.3mm (0.1cm3)
; total filament cost = 0.0

; avoid_crossing_perimeters = 0
