; generated by PrusaSlicer 2.3.1 on 2021-06-05 at 23:12:19 UTC

; 

; external perimeters extrusion width = 0.45mm
; perimeters extrusion width = 0.45mm
; infill extrusion width = 0.45mm
; solid infill extrusion width = 0.45mm
; top infill extrusion width = 0.40mm
; support material extrusion width = 0.40mm
; first layer extrusion width = 0.80mm

M107
M190 S65 ; set bed temperature and wait for it to be reached
M104 S205 ; set temperature
;TYPE:Custom
G28 ; home all axes
G1 Z5 F5000 ; lift nozzle
M109 S205 ; set temperature and wait for it to be reached
G21 ; set units to millimeters
G90 ; use absolute coordinates
M82 ; use absolute distances for extrusion
G92 E0
; Filament gcode
;LAYER_CHANGE
;Z:0.4
;HEIGHT:0.4
G1 Z0.400 F6000.000
G1 E-2.00000 F2400.000
G92 E0
G1 X82.594 Y81.919 F6000.000
G1 E2.00000 F2400.000
;TYPE:Skirt
;WIDTH:0.8
G1 F1200.000
G1 X86.638 Y77.842 E2.68197
G1 X87.623 Y77.068 E2.83076
G1 X88.722 Y76.481 E2.97878
G1 X89.997 Y76.074 E3.13773
G1 X91.319 Y75.911 E3.29590
G1 X108.475 Y75.908 E5.33341
G1 X109.337 Y75.960 E5.43608
G1 X110.188 Y76.117 E5.53874
G1 X111.013 Y76.374 E5.64140
G1 X111.801 Y76.730 E5.74406
G1 X117.675 Y79.871 E6.53519
G1 X118.770 Y80.739 E6.70116
G1 X119.672 Y81.798 E6.86636
G1 X123.298 Y88.252 E7.74557
G1 X126.412 Y94.859 E8.61305
G1 X126.687 Y95.919 E8.74309
G1 X126.796 Y97.015 E8.87392
G1 X126.791 Y100.470 E9.28421
G1 X126.572 Y101.930 E9.45955
G1 X123.246 Y111.405 E10.65218
G1 X120.348 Y117.629 E11.46754
G1 X119.560 Y118.758 E11.63118
G1 X118.564 Y119.720 E11.79559
G1 X117.342 Y120.501 E11.96781
G1 X105.972 Y126.186 E13.47758
G1 X104.885 Y126.613 E13.61622
G1 X103.894 Y126.836 E13.73688
G1 X102.881 Y126.916 E13.85754
G1 X96.957 Y126.913 E14.56113
G1 X95.392 Y126.690 E14.74894
G1 X94.187 Y126.261 E14.90086
G1 X93.072 Y125.621 E15.05356
G1 X81.382 Y116.851 E16.78917
G1 X80.698 Y116.220 E16.89965
G1 X77.887 Y113.172 E17.39213
G1 X77.356 Y112.482 E17.49557
G1 X76.915 Y111.738 E17.59823
G1 X76.348 Y110.241 E17.78838
G1 X76.128 Y108.655 E17.97853
G1 X76.126 Y91.293 E20.04051
G1 X76.188 Y90.438 E20.14239
G1 X76.352 Y89.596 E20.24427
G1 X76.630 Y88.743 E20.35084
G1 X77.013 Y87.931 E20.45742
G1 X77.495 Y87.174 E20.56399
G1 X78.072 Y86.478 E20.67135
G1 X82.552 Y81.962 E21.42684
G1 X83.058 Y82.464 F6000.000
G1 F1200.000
G1 X87.117 Y78.372 E22.11141
G1 X88.022 Y77.661 E22.24811
G1 X89.045 Y77.120 E22.38555
G1 X90.180 Y76.765 E22.52669
G1 X91.360 Y76.624 E22.66783
G1 X108.475 Y76.622 E24.70049
G1 X110.019 Y76.811 E24.88528
G1 X111.473 Y77.364 E25.07006
G1 X117.261 Y80.453 E25.84917
G1 X118.263 Y81.242 E26.00068
G1 X119.094 Y82.218 E26.15293
G1 X122.662 Y88.578 E27.01902
G1 X125.729 Y95.070 E27.87172
G1 X125.983 Y96.038 E27.99063
G1 X126.083 Y97.034 E28.10954
G1 X126.078 Y100.428 E28.51258
G1 X125.874 Y101.776 E28.67445
G1 X122.603 Y111.093 E29.84724
G1 X119.746 Y117.242 E30.65256
G1 X119.032 Y118.277 E30.80185
G1 X118.135 Y119.149 E30.95040
G1 X117.019 Y119.864 E31.10783
G1 X105.660 Y125.543 E32.61604
G1 X104.688 Y125.927 E32.74014
G1 X103.791 Y126.130 E32.84940
G1 X102.874 Y126.202 E32.95867
G1 X96.993 Y126.200 E33.65706
G1 X95.546 Y125.993 E33.83076
G1 X94.463 Y125.602 E33.96746
G1 X93.462 Y125.022 E34.10490
G1 X81.826 Y116.292 E35.83252
G1 X81.210 Y115.722 E35.93214
G1 X78.431 Y112.709 E36.41897
G1 X77.541 Y111.395 E36.60745
G1 X77.036 Y110.049 E36.77819
G1 X76.841 Y108.618 E36.94968
G1 X76.840 Y91.310 E39.00529
G1 X77.050 Y89.750 E39.19229
G1 X77.303 Y88.983 E39.28819
G1 X77.651 Y88.254 E39.38409
G1 X78.087 Y87.574 E39.48000
G1 X78.605 Y86.955 E39.57590
G1 X83.016 Y82.507 E40.31993
G1 X83.523 Y83.009 F6000.000
G1 F1200.000
G1 X87.598 Y78.900 E41.00734
G1 X88.429 Y78.248 E41.13271
G1 X89.360 Y77.763 E41.25738
G1 X90.364 Y77.456 E41.38205
G1 X91.401 Y77.338 E41.50602
G1 X108.475 Y77.336 E43.53381
G1 X109.849 Y77.504 E43.69823
G1 X111.142 Y77.997 E43.86265
G1 X116.850 Y81.039 E44.63079
G1 X117.766 Y81.754 E44.76872
G1 X118.517 Y82.639 E44.90665
G1 X122.027 Y88.904 E45.75954
G1 X125.048 Y95.285 E46.59794
G1 X125.280 Y96.163 E46.70584
G1 X125.369 Y97.061 E46.81304
G1 X125.365 Y100.388 E47.20816
G1 X125.177 Y101.618 E47.35585
G1 X121.960 Y110.779 E48.50906
G1 X119.140 Y116.862 E49.30530
G1 X118.506 Y117.792 E49.43905
G1 X117.702 Y118.580 E49.57279
G1 X116.695 Y119.228 E49.71491
G1 X105.349 Y124.901 E51.22156
G1 X104.493 Y125.240 E51.33085
G1 X103.687 Y125.423 E51.42896
G1 X102.858 Y125.488 E51.52777
G1 X97.022 Y125.486 E52.22094
G1 X95.704 Y125.296 E52.37909
G1 X94.745 Y124.946 E52.50027
G1 X93.864 Y124.431 E52.62145
G1 X82.275 Y115.736 E54.34217
G1 X78.970 Y112.241 E54.91347
G1 X78.172 Y111.060 E55.08277
G1 X77.725 Y109.862 E55.23465
G1 X77.555 Y108.588 E55.38723
G1 X77.554 Y91.320 E57.43807
G1 X77.747 Y89.908 E57.60736
G1 X78.286 Y88.582 E57.77735
G1 X79.137 Y87.431 E57.94734
G1 X83.480 Y83.052 E58.67987
G1 E56.67987 F2400.000
G92 E0
G1 X86.417 Y84.630 F6000.000
G1 E2.00000 F2400.000
G1 F1200.000
G1 X86.647 Y84.273 E2.05042
G1 X87.190 Y83.729 E2.14177
G1 X87.490 Y83.531 E2.18438
G1 X88.065 Y83.294 E2.25827
G1 X88.417 Y83.224 E2.30095
G1 X88.863 Y83.203 E2.35390
G1 X88.883 Y82.597 E2.42586
G1 X88.965 Y82.256 E2.46752
G1 X89.190 Y81.732 E2.53528
G1 X89.388 Y81.438 E2.57737
G1 X89.982 Y80.859 E2.67582
G1 X90.273 Y80.680 E2.71646
G1 X90.732 Y80.489 E2.77550
G1 X91.213 Y80.394 E2.83371
G1 X108.858 Y80.401 E4.92934
G1 X109.271 Y80.491 E4.97951
G1 X109.852 Y80.748 E5.05497
G1 X110.133 Y80.952 E5.09621
G1 X110.622 Y81.450 E5.17912
G1 X110.848 Y81.805 E5.22913
G1 X111.059 Y82.332 E5.29650
G1 X111.127 Y82.685 E5.33916
G1 X111.140 Y83.219 E5.40263
G1 X114.119 Y83.219 E5.75647
G1 X114.529 Y83.292 E5.80587
G1 X115.056 Y83.503 E5.87335
G1 X115.353 Y83.685 E5.91466
G1 X115.908 Y84.219 E6.00609
G1 X116.111 Y84.498 E6.04713
G1 X116.368 Y85.081 E6.12273
G1 X116.464 Y85.563 E6.18120
G1 X116.464 Y88.869 E6.57375
G1 X117.264 Y88.869 E6.66875
G1 X117.680 Y88.945 E6.71889
G1 X118.200 Y89.154 E6.78551
G1 X118.550 Y89.379 E6.83498
G1 X119.140 Y89.980 E6.93498
G1 X119.320 Y90.273 E6.97578
G1 X119.511 Y90.735 E7.03512
G1 X119.599 Y91.146 E7.08507
G1 X119.607 Y94.507 E7.48427
G1 X120.107 Y94.532 E7.54371
G1 X120.450 Y94.615 E7.58570
G1 X120.975 Y94.839 E7.65346
G1 X121.268 Y95.038 E7.69555
G1 X121.847 Y95.631 E7.79400
G1 X122.027 Y95.923 E7.83464
G1 X122.217 Y96.382 E7.89368
G1 X122.312 Y96.863 E7.95187
G1 X122.312 Y100.659 E8.40272
G1 X122.276 Y100.868 E8.42798
G1 X122.092 Y101.327 E8.48670
G1 X121.981 Y101.503 E8.51143
G1 X121.171 Y102.313 E8.64748
G1 X120.996 Y102.424 E8.67207
G1 X120.540 Y102.608 E8.73046
G1 X120.332 Y102.645 E8.75557
G1 X119.388 Y102.649 E8.86764
G1 X119.388 Y108.790 E9.59692
G1 X119.334 Y109.129 E9.63775
G1 X119.103 Y109.725 E9.71366
G1 X118.922 Y110.020 E9.75473
G1 X118.333 Y110.620 E9.85467
G1 X117.977 Y110.848 E9.90489
G1 X117.451 Y111.059 E9.97223
G1 X116.780 Y111.188 E10.05328
G1 X116.774 Y114.511 E10.44792
G1 X116.703 Y114.862 E10.49045
G1 X116.426 Y115.503 E10.57340
G1 X116.226 Y115.780 E10.61404
G1 X115.782 Y116.224 E10.68854
G1 X115.375 Y116.496 E10.74674
G1 X114.918 Y116.686 E10.80550
G1 X114.437 Y116.781 E10.86370
G1 X108.315 Y116.781 E11.59076
G1 X108.302 Y117.315 E11.65422
G1 X108.234 Y117.668 E11.69689
G1 X108.024 Y118.195 E11.76423
G1 X107.795 Y118.552 E11.81465
G1 X107.251 Y119.096 E11.90600
G1 X106.951 Y119.294 E11.94861
G1 X106.376 Y119.531 E12.02250
G1 X106.027 Y119.600 E12.06479
G1 X105.488 Y119.616 E12.12886
G1 X105.467 Y120.228 E12.20155
G1 X105.385 Y120.569 E12.24321
G1 X105.161 Y121.093 E12.31097
G1 X104.962 Y121.387 E12.35307
G1 X104.369 Y121.966 E12.45151
G1 X104.077 Y122.145 E12.49215
G1 X103.618 Y122.335 E12.55119
G1 X103.137 Y122.431 E12.60939
G1 X96.863 Y122.431 E13.35451
G1 X96.454 Y122.358 E13.40391
G1 X95.926 Y122.147 E13.47139
G1 X95.631 Y121.966 E13.51255
G1 X95.038 Y121.387 E13.61095
G1 X94.839 Y121.093 E13.65305
G1 X94.615 Y120.569 E13.72081
G1 X94.533 Y120.228 E13.76247
G1 X94.512 Y119.616 E13.83516
G1 X93.973 Y119.600 E13.89924
G1 X93.624 Y119.531 E13.94152
G1 X93.048 Y119.294 E14.01541
G1 X92.749 Y119.096 E14.05802
G1 X92.205 Y118.552 E14.14937
G1 X91.976 Y118.195 E14.19979
G1 X91.766 Y117.668 E14.26713
G1 X91.698 Y117.315 E14.30979
G1 X91.687 Y116.842 E14.36599
G1 X90.925 Y116.686 E14.45835
G1 X90.415 Y116.470 E14.52411
G1 X90.117 Y116.273 E14.56653
G1 X89.618 Y115.785 E14.64944
G1 X89.342 Y115.371 E14.70856
G1 X89.131 Y114.843 E14.77602
G1 X89.063 Y114.491 E14.81869
G1 X89.050 Y113.956 E14.88215
G1 X85.563 Y113.956 E15.29627
G1 X85.084 Y113.861 E15.35424
G1 X84.567 Y113.640 E15.42100
G1 X84.220 Y113.401 E15.47114
G1 X83.774 Y112.955 E15.54596
G1 X83.536 Y112.609 E15.59592
G1 X83.296 Y112.034 E15.66995
G1 X83.233 Y111.756 E15.70376
G1 X83.215 Y111.189 E15.77112
G1 X82.472 Y111.035 E15.86116
G1 X82.016 Y110.845 E15.91988
G1 X81.662 Y110.616 E15.96998
G1 X81.168 Y110.131 E16.05221
G1 X80.896 Y109.725 E16.11021
G1 X80.707 Y109.268 E16.16897
G1 X80.611 Y108.787 E16.22717
G1 X80.611 Y90.867 E18.35551
G1 X80.648 Y90.657 E18.38076
G1 X80.831 Y90.198 E18.43949
G1 X80.943 Y90.022 E18.46422
G1 X81.753 Y89.212 E18.60026
G1 X81.928 Y89.101 E18.62485
G1 X82.384 Y88.917 E18.68325
G1 X82.592 Y88.881 E18.70836
G1 X83.527 Y88.876 E18.81944
G1 X83.540 Y88.334 E18.88389
G1 X83.608 Y87.981 E18.92653
G1 X83.819 Y87.454 E18.99400
G1 X84.093 Y87.043 E19.05270
G1 X84.536 Y86.599 E19.12719
G1 X84.884 Y86.360 E19.17733
G1 X85.399 Y86.140 E19.24387
G1 X86.128 Y85.984 E19.33234
G1 X86.139 Y85.509 E19.38874
G1 X86.207 Y85.157 E19.43139
G1 X86.395 Y84.686 E19.49161
G1 X87.058 Y84.951 F6000.000
G1 F1200.000
G1 X87.180 Y84.749 E19.51962
G1 X87.665 Y84.264 E19.60105
G1 X87.843 Y84.152 E19.62604
G1 X88.239 Y83.988 E19.67700
G1 X88.514 Y83.933 E19.71027
G1 X89.580 Y83.933 E19.83690
G1 X89.589 Y82.709 E19.98224
G1 X89.635 Y82.505 E20.00714
G1 X89.830 Y82.050 E20.06586
G1 X89.951 Y81.878 E20.09090
G1 X90.397 Y81.440 E20.16510
G1 X90.577 Y81.327 E20.19030
G1 X90.973 Y81.163 E20.24125
G1 X91.248 Y81.108 E20.27452
G1 X108.817 Y81.115 E22.36117
G1 X109.021 Y81.161 E22.38591
G1 X109.475 Y81.355 E22.44464
G1 X109.648 Y81.477 E22.46968
G1 X110.085 Y81.923 E22.54387
G1 X110.197 Y82.100 E22.56881
G1 X110.381 Y82.559 E22.62754
G1 X110.417 Y82.769 E22.65279
G1 X110.417 Y83.933 E22.79105
G1 X114.090 Y83.933 E23.22719
G1 X114.299 Y83.969 E23.25244
G1 X114.758 Y84.153 E23.31117
G1 X114.936 Y84.265 E23.33611
G1 X115.382 Y84.703 E23.41030
G1 X115.503 Y84.875 E23.43534
G1 X115.696 Y85.325 E23.49355
G1 X115.750 Y85.598 E23.52656
G1 X115.750 Y89.583 E23.99979
G1 X117.227 Y89.583 E24.17514
G1 X117.502 Y89.637 E24.20842
G1 X117.898 Y89.802 E24.25937
G1 X118.076 Y89.914 E24.28436
G1 X118.560 Y90.399 E24.36579
G1 X118.673 Y90.577 E24.39078
G1 X118.837 Y90.973 E24.44174
G1 X118.892 Y91.248 E24.47501
G1 X118.892 Y95.229 E24.94788
G1 X119.997 Y95.239 E25.07913
G1 X120.202 Y95.285 E25.10405
G1 X120.656 Y95.480 E25.16277
G1 X120.829 Y95.601 E25.18781
G1 X121.266 Y96.047 E25.26201
G1 X121.379 Y96.227 E25.28721
G1 X121.544 Y96.623 E25.33816
G1 X121.598 Y96.898 E25.37143
G1 X121.598 Y100.619 E25.81343
G1 X121.585 Y100.688 E25.82178
G1 X121.410 Y101.074 E25.87210
G1 X120.742 Y101.742 E25.98434
G1 X120.683 Y101.781 E25.99264
G1 X120.290 Y101.931 E26.04268
G1 X118.674 Y101.938 E26.23452
G1 X118.674 Y108.756 E27.04433
G1 X118.638 Y108.966 E27.06958
G1 X118.454 Y109.425 E27.12831
G1 X118.343 Y109.601 E27.15304
G1 X117.858 Y110.086 E27.23447
G1 X117.682 Y110.197 E27.25920
G1 X117.223 Y110.381 E27.31793
G1 X117.014 Y110.417 E27.34318
G1 X116.068 Y110.417 E27.45552
G1 X116.060 Y114.467 E27.93648
G1 X116.015 Y114.670 E27.96125
G1 X115.820 Y115.125 E28.01998
G1 X115.697 Y115.299 E28.04523
G1 X115.302 Y115.694 E28.11165
G1 X115.069 Y115.850 E28.14492
G1 X114.677 Y116.012 E28.19535
G1 X114.402 Y116.067 E28.22863
G1 X107.592 Y116.067 E29.03736
G1 X107.592 Y117.231 E29.17562
G1 X107.556 Y117.441 E29.20087
G1 X107.372 Y117.900 E29.25960
G1 X107.261 Y118.076 E29.28433
G1 X106.776 Y118.560 E29.36576
G1 X106.598 Y118.673 E29.39075
G1 X106.202 Y118.837 E29.44170
G1 X105.927 Y118.892 E29.47497
G1 X104.770 Y118.892 E29.61239
G1 X104.761 Y120.116 E29.75774
G1 X104.715 Y120.320 E29.78263
G1 X104.520 Y120.775 E29.84136
G1 X104.399 Y120.947 E29.86640
G1 X103.953 Y121.384 E29.94059
G1 X103.773 Y121.498 E29.96579
G1 X103.377 Y121.662 E30.01675
G1 X103.102 Y121.717 E30.05002
G1 X96.893 Y121.717 E30.78744
G1 X96.684 Y121.680 E30.81269
G1 X96.225 Y121.497 E30.87142
G1 X96.047 Y121.384 E30.89636
G1 X95.601 Y120.947 E30.97055
G1 X95.480 Y120.775 E30.99559
G1 X95.285 Y120.320 E31.05432
G1 X95.239 Y120.116 E31.07921
G1 X95.230 Y118.892 E31.22456
G1 X94.073 Y118.892 E31.36197
G1 X93.798 Y118.837 E31.39525
G1 X93.402 Y118.673 E31.44620
G1 X93.224 Y118.560 E31.47119
G1 X92.739 Y118.076 E31.55262
G1 X92.628 Y117.900 E31.57735
G1 X92.444 Y117.441 E31.63608
G1 X92.408 Y117.231 E31.66133
G1 X92.408 Y116.067 E31.79959
G1 X91.438 Y116.067 E31.91476
G1 X91.163 Y116.012 E31.94803
G1 X90.767 Y115.848 E31.99899
G1 X90.587 Y115.735 E32.02419
G1 X90.145 Y115.300 E32.09786
G1 X89.991 Y115.071 E32.13066
G1 X89.809 Y114.616 E32.18886
G1 X89.773 Y114.406 E32.21411
G1 X89.773 Y113.242 E32.35237
G1 X85.598 Y113.242 E32.84817
G1 X85.323 Y113.187 E32.88144
G1 X84.931 Y113.025 E32.93187
G1 X84.698 Y112.869 E32.96515
G1 X84.306 Y112.477 E33.03104
G1 X84.150 Y112.244 E33.06431
G1 X83.986 Y111.848 E33.11527
G1 X83.940 Y111.641 E33.14042
G1 X83.930 Y110.421 E33.28535
G1 X82.927 Y110.411 E33.40450
G1 X82.720 Y110.364 E33.42970
G1 X82.324 Y110.200 E33.48066
G1 X82.091 Y110.044 E33.51393
G1 X81.698 Y109.652 E33.57983
G1 X81.543 Y109.419 E33.61310
G1 X81.380 Y109.027 E33.66353
G1 X81.326 Y108.752 E33.69681
G1 X81.326 Y90.906 E35.81629
G1 X81.339 Y90.837 E35.82465
G1 X81.514 Y90.451 E35.87496
G1 X82.182 Y89.783 E35.98720
G1 X82.240 Y89.744 E35.99551
G1 X82.634 Y89.594 E36.04554
G1 X84.249 Y89.587 E36.23737
G1 X84.250 Y88.418 E36.37621
G1 X84.286 Y88.209 E36.40146
G1 X84.468 Y87.754 E36.45965
G1 X84.622 Y87.523 E36.49266
G1 X85.015 Y87.131 E36.55855
G1 X85.248 Y86.975 E36.59182
G1 X85.644 Y86.811 E36.64278
G1 X85.851 Y86.764 E36.66799
G1 X86.849 Y86.754 E36.78647
G1 X86.849 Y85.594 E36.92430
G1 X86.885 Y85.384 E36.94955
G1 X87.036 Y85.007 E36.99782
G1 X87.694 Y85.280 F6000.000
G1 F1200.000
G1 X87.751 Y85.178 E37.01162
G1 X88.094 Y84.836 E37.06918
G1 X88.480 Y84.661 E37.11950
G1 X88.549 Y84.647 E37.12785
G1 X90.297 Y84.647 E37.33545
G1 X90.297 Y82.808 E37.55383
G1 X90.311 Y82.739 E37.56219
G1 X90.485 Y82.353 E37.61250
G1 X90.828 Y82.011 E37.67006
G1 X90.887 Y81.972 E37.67842
G1 X91.283 Y81.822 E37.72873
G1 X108.717 Y81.822 E39.79929
G1 X109.113 Y81.972 E39.84960
G1 X109.172 Y82.011 E39.85796
G1 X109.515 Y82.353 E39.91552
G1 X109.689 Y82.739 E39.96583
G1 X109.703 Y82.808 E39.97419
G1 X109.703 Y84.647 E40.19257
G1 X114.050 Y84.647 E40.70884
G1 X114.447 Y84.796 E40.75916
G1 X114.848 Y85.178 E40.82493
G1 X115.022 Y85.564 E40.87525
G1 X115.036 Y85.633 E40.88360
G1 X115.036 Y90.297 E41.43749
G1 X117.192 Y90.297 E41.69349
G1 X117.588 Y90.446 E41.74380
G1 X117.647 Y90.485 E41.75216
G1 X118.028 Y90.887 E41.81793
G1 X118.178 Y91.283 E41.86825
G1 X118.178 Y95.947 E42.42213
G1 X119.898 Y95.947 E42.62644
G1 X119.967 Y95.960 E42.63480
G1 X120.353 Y96.135 E42.68511
G1 X120.735 Y96.536 E42.75089
G1 X120.884 Y96.933 E42.80120
G1 X120.884 Y100.513 E43.22642
G1 X120.830 Y100.644 E43.24329
G1 X120.311 Y101.163 E43.33038
G1 X120.181 Y101.217 E43.34715
G1 X117.960 Y101.227 E43.61090
G1 X117.960 Y108.717 E44.50047
G1 X117.946 Y108.786 E44.50882
G1 X117.772 Y109.172 E44.55914
G1 X117.429 Y109.515 E44.61670
G1 X117.043 Y109.689 E44.66702
G1 X116.974 Y109.703 E44.67537
G1 X115.353 Y109.703 E44.86791
G1 X115.353 Y114.367 E45.42180
G1 X115.203 Y114.763 E45.47211
G1 X114.822 Y115.164 E45.53789
G1 X114.436 Y115.339 E45.58820
G1 X114.367 Y115.353 E45.59656
G1 X106.878 Y115.353 E46.48594
G1 X106.878 Y117.192 E46.70432
G1 X106.729 Y117.588 E46.75464
G1 X106.347 Y117.989 E46.82041
G1 X105.961 Y118.164 E46.87073
G1 X105.892 Y118.178 E46.87908
G1 X104.053 Y118.178 E47.09747
