; generated by Slic3r 1.3.0 on 2020-07-24 at 00:11:48

; external perimeters extrusion width = 0.44mm (3.38mm^3/s)
; perimeters extrusion width = 0.48mm (7.54mm^3/s)
; infill extrusion width = 0.48mm (10.05mm^3/s)
; solid infill extrusion width = 0.48mm (2.51mm^3/s)
; top infill extrusion width = 0.48mm (1.88mm^3/s)

M107
M190 S65 ; set bed temperature and wait for it to be reached
M104 S205 ; set temperature
G28 ; home all axes
G1 Z5 F5000 ; lift nozzle

; Filament gcode

M109 S205 ; set temperature and wait for it to be reached
G21 ; set units to millimeters
G90 ; use absolute coordinates
M82 ; use absolute distances for extrusion
G92 E0
G1 Z0.500 F7800.000
G1 E-2.00000 F2400.00000
G92 E0
G1 X96.310 Y96.744 F7800.000
G1 E2.00000 F2400.00000
G1 F1800
G1 X97.716 Y95.423 E2.35790
G1 X98.277 Y94.948 E2.49431
G1 X98.932 Y94.458 E2.64608
G1 X99.942 Y93.782 E2.87161
G1 X101.006 Y93.165 E3.09986
G1 X101.688 Y92.829 E3.24098
G1 X103.481 Y92.067 E3.60247
G1 X104.173 Y91.816 E3.73908
G1 X104.953 Y91.584 E3.89016
G1 X105.372 Y91.473 E3.97054
G1 X106.535 Y91.219 E4.19145
G1 X107.341 Y91.089 E4.34299
G1 X108.105 Y91.010 E4.48545
G1 X110.057 Y90.916 E4.84811
G1 X110.824 Y90.922 E4.99049
G1 X112.028 Y91.012 E5.21463
G1 X113.201 Y91.173 E5.43417
G1 X114.017 Y91.330 E5.58851
G1 X114.752 Y91.517 E5.72922
G1 X116.613 Y92.102 E6.09112
G1 X117.304 Y92.360 E6.22813
G1 X118.475 Y92.897 E6.46721
G1 X119.513 Y93.454 E6.68575
G1 X120.190 Y93.865 E6.83278
G1 X120.814 Y94.293 E6.97315
G1 X122.344 Y95.474 E7.33183
G1 X122.904 Y95.955 E7.46886
G1 X123.490 Y96.522 E7.62000
G1 X123.886 Y96.937 E7.72646
G1 X124.603 Y97.747 E7.92725
G1 X125.100 Y98.370 E8.07515
G1 X125.535 Y98.983 E8.21469
G1 X126.551 Y100.595 E8.56831
G1 X126.910 Y101.240 E8.70534
G1 X127.268 Y101.977 E8.85722
G1 X127.549 Y102.631 E8.98934
G1 X127.892 Y103.512 E9.16489
G1 X128.146 Y104.274 E9.31386
G1 X128.343 Y104.994 E9.45244
G1 X128.737 Y106.824 E9.79980
G1 X128.853 Y107.553 E9.93671
G1 X128.967 Y108.796 E10.16847
G1 X128.998 Y110.032 E10.39776
G1 X128.975 Y110.840 E10.54789
G1 X128.914 Y111.579 E10.68547
G1 X128.664 Y113.398 E11.02613
G1 X128.524 Y114.122 E11.16292
G1 X128.322 Y114.927 E11.31698
G1 X127.959 Y116.102 E11.54525
G1 X127.513 Y117.268 E11.77686
G1 X127.205 Y117.937 E11.91351
G1 X126.366 Y119.531 E12.24783
G1 X125.989 Y120.163 E12.38444
G1 X125.523 Y120.857 E12.53965
G1 X124.819 Y121.790 E12.75639
G1 X123.960 Y122.789 E13.00089
G1 X122.203 Y124.215 E13.42083
G1 X120.703 Y125.066 E13.74085
G1 X118.502 Y125.860 E14.17503
G1 X117.298 Y125.966 E14.39933
G1 X103.819 Y125.966 E16.90066
G1 X101.812 Y125.938 E17.27307
G1 X99.523 Y125.456 E17.70725
G1 X97.381 Y124.104 E18.17733
G1 X96.761 Y123.530 E18.33413
G1 X95.932 Y122.670 E18.55576
G1 X95.618 Y122.317 E18.64351
G1 X95.098 Y121.686 E18.79515
G1 X94.659 Y121.092 E18.93221
G1 X93.670 Y119.593 E19.26544
G1 X93.301 Y118.962 E19.40127
G1 X92.915 Y118.214 E19.55739
G1 X92.480 Y117.243 E19.75473
G1 X92.254 Y116.686 E19.86632
G1 X91.981 Y115.922 E20.01688
G1 X91.769 Y115.209 E20.15493
G1 X91.342 Y113.430 E20.49435
G1 X91.210 Y112.710 E20.63022
G1 X91.104 Y111.881 E20.78532
G1 X91.035 Y110.970 E20.95488
G1 X91.004 Y110.223 E21.09374
G1 X91.007 Y109.417 E21.24317
G1 X91.052 Y108.669 E21.38222
G1 X91.264 Y106.816 E21.72836
G1 X91.386 Y106.094 E21.86435
G1 X91.570 Y105.285 E22.01830
G1 X91.770 Y104.563 E22.15726
G1 X92.044 Y103.694 E22.32622
G1 X92.320 Y102.945 E22.47452
G1 X92.621 Y102.253 E22.61450
G1 X93.472 Y100.554 E22.96706
G1 X93.835 Y99.917 E23.10324
G1 X94.283 Y99.226 E23.25603
G1 X95.000 Y98.241 E23.48213
G1 X95.787 Y97.292 E23.71083
G1 X96.269 Y96.787 E23.84039
G1 E21.84039 F2400.00000
G92 E0
G1 X113.313 Y113.595 F7800.000
G1 E2.00000 F2400.00000
G1 F1800
G1 X112.747 Y114.053 E2.13517
G1 X112.117 Y114.420 E2.27045
G1 X111.439 Y114.689 E2.40580
G1 X110.728 Y114.853 E2.54121
G1 X110.000 Y114.908 E2.67666
G1 X109.272 Y114.853 E2.81210
G1 X108.561 Y114.689 E2.94751
G1 X107.883 Y114.420 E3.08287
G1 X107.253 Y114.053 E3.21814
G1 X106.687 Y113.595 E3.35331
G1 X106.195 Y113.059 E3.48835
G1 X105.790 Y112.455 E3.62326
G1 X105.481 Y111.798 E3.75800
G1 X105.273 Y111.103 E3.89257
G1 X105.171 Y110.386 E4.02695
G1 X105.178 Y109.663 E4.16115
G1 X105.292 Y108.950 E4.29518
G1 X105.511 Y108.263 E4.42902
G1 X105.828 Y107.617 E4.56248
G1 X106.235 Y107.028 E4.69537
G1 X106.725 Y106.504 E4.82844
G1 X107.289 Y106.057 E4.96196
G1 X107.912 Y105.699 E5.09544
G1 X108.582 Y105.438 E5.22887
G1 X109.283 Y105.278 E5.36227
G1 X109.895 Y105.233 E5.47605
G1 X110.689 Y105.272 E5.62357
G1 X111.418 Y105.438 E5.76232
G1 X112.088 Y105.699 E5.89575
G1 X112.711 Y106.057 E6.02923
G1 X113.275 Y106.504 E6.16275
G1 X113.765 Y107.028 E6.29582
G1 X114.172 Y107.617 E6.42871
G1 X114.489 Y108.263 E6.56216
G1 X114.708 Y108.950 E6.69601
G1 X114.822 Y109.663 E6.83004
G1 X114.829 Y110.386 E6.96424
G1 X114.727 Y111.103 E7.09863
G1 X114.519 Y111.798 E7.23320
G1 X114.210 Y112.455 E7.36794
G1 X113.805 Y113.059 E7.50284
G1 X113.354 Y113.551 E7.62675
G1 X112.700 Y112.943 F7800.000
G1 F1800
G1 X112.238 Y113.316 E7.73691
G1 X111.725 Y113.615 E7.84716
G1 X111.173 Y113.834 E7.95747
G1 X110.593 Y113.968 E8.06783
G1 X110.000 Y114.013 E8.17822
G1 X109.407 Y113.968 E8.28860
G1 X108.827 Y113.834 E8.39896
G1 X108.275 Y113.615 E8.50927
G1 X107.762 Y113.316 E8.61953
G1 X107.300 Y112.943 E8.72969
G1 X106.899 Y112.505 E8.83975
G1 X106.569 Y112.013 E8.94969
G1 X106.317 Y111.478 E9.05951
G1 X106.147 Y110.912 E9.16919
G1 X106.065 Y110.327 E9.27871
G1 X106.070 Y109.738 E9.38809
G1 X106.163 Y109.157 E9.49733
G1 X106.341 Y108.597 E9.60641
G1 X106.600 Y108.070 E9.71523
G1 X106.932 Y107.590 E9.82366
G1 X107.331 Y107.162 E9.93220
G1 X107.791 Y106.798 E10.04098
G1 X108.299 Y106.507 E10.14973
G1 X108.845 Y106.293 E10.25845
G1 X109.416 Y106.164 E10.36713
G1 X109.906 Y106.127 E10.45829
G1 X110.567 Y106.160 E10.58110
G1 X111.155 Y106.293 E10.69305
G1 X111.701 Y106.507 E10.80176
G1 X112.209 Y106.798 E10.91051
G1 X112.669 Y107.162 E11.01930
G1 X113.068 Y107.590 E11.12783
G1 X113.400 Y108.070 E11.23627
G1 X113.659 Y108.597 E11.34508
G1 X113.837 Y109.157 E11.45416
G1 X113.930 Y109.738 E11.56340
G1 X113.935 Y110.328 E11.67278
G1 X113.853 Y110.912 E11.78231
G1 X113.683 Y111.478 E11.89199
G1 X113.431 Y112.013 E12.00180
G1 X113.101 Y112.505 E12.11174
G1 X112.741 Y112.899 E12.21067
G1 X112.087 Y112.291 F7800.000
G1 F1800
G1 X111.730 Y112.579 E12.29583
G1 X111.334 Y112.810 E12.38105
G1 X110.906 Y112.979 E12.46633
G1 X110.458 Y113.083 E12.55163
G1 X110.000 Y113.117 E12.63696
G1 X109.542 Y113.083 E12.72228
G1 X109.094 Y112.979 E12.80759
G1 X108.666 Y112.810 E12.89287
G1 X108.270 Y112.579 E12.97809
G1 X107.913 Y112.291 E13.06325
G1 X107.603 Y111.952 E13.14833
G1 X107.348 Y111.572 E13.23332
G1 X107.153 Y111.158 E13.31821
G1 X107.022 Y110.720 E13.40299
G1 X106.958 Y110.269 E13.48766
G1 X106.962 Y109.813 E13.57221
G1 X107.034 Y109.364 E13.65666
G1 X107.172 Y108.931 E13.74098
G1 X107.372 Y108.524 E13.82516
G1 X107.629 Y108.151 E13.90914
G1 X107.938 Y107.821 E13.99313
G1 X108.293 Y107.539 E14.07719
G1 X108.686 Y107.314 E14.16121
G1 X109.107 Y107.149 E14.24520
G1 X109.549 Y107.049 E14.32918
G1 X109.917 Y107.022 E14.39772
G1 X110.445 Y107.048 E14.49581
G1 X110.893 Y107.149 E14.58096
G1 X111.314 Y107.314 E14.66495
G1 X111.707 Y107.539 E14.74898
G1 X112.062 Y107.821 E14.83303
G1 X112.371 Y108.151 E14.91702
G1 X112.628 Y108.524 E15.00101
G1 X112.828 Y108.931 E15.08518
G1 X112.966 Y109.364 E15.16951
G1 X113.038 Y109.813 E15.25395
G1 X113.042 Y110.269 E15.33850
G1 X112.978 Y110.720 E15.42317
G1 X112.847 Y111.158 E15.50796
G1 X112.652 Y111.572 E15.59285
G1 X112.397 Y111.952 E15.67784
G1 X112.128 Y112.246 E15.75178
G1 X112.087 Y112.291 F7800.000
G1 E13.75178 F2400.00000
G92 E0
G1 X119.136 Y109.551 F7800.000
G1 E2.00000 F2400.00000
G1 F1800
G1 X118.827 Y109.886 E2.08457
G1 X118.419 Y112.105 E2.50324
G1 X118.662 Y112.677 E2.61858
G1 X118.367 Y112.830 E2.68017
G1 X117.143 Y114.922 E3.12999
G1 X117.161 Y115.286 E3.19759
G1 X115.355 Y116.788 E3.63356
G1 X104.645 Y116.788 E5.62087
G1 X103.290 Y115.661 E5.94807
G1 X102.175 Y113.756 E6.35758
G1 X101.666 Y113.513 E6.46229
G1 X101.783 Y113.207 E6.52302
G1 X101.366 Y110.934 E6.95186
G1 X100.887 Y110.451 E7.07802
G1 X101.186 Y110.110 E7.16227
G1 X101.542 Y108.005 E7.55833
G1 X101.205 Y107.280 E7.70680
G1 X101.716 Y107.002 E7.81472
G1 X102.687 Y105.295 E8.17929
G1 X102.607 Y104.388 E8.34828
G1 X103.294 Y104.289 E8.47708
G1 X104.685 Y103.112 E8.81523
G1 X104.939 Y102.161 E8.99785
G1 X105.636 Y102.342 E9.13156
G1 X107.402 Y101.704 E9.47993
G1 X107.913 Y100.893 E9.65786
G1 X108.462 Y101.321 E9.78714
G1 X110.469 Y101.321 E10.15948
G1 X111.170 Y100.728 E10.33000
G1 X111.562 Y101.329 E10.46322
G1 X113.455 Y102.014 E10.83665
G1 X114.280 Y101.688 E11.00119
G1 X114.504 Y102.424 E11.14395
G1 X115.867 Y103.579 E11.47557
G1 X116.825 Y103.683 E11.65436
G1 X116.788 Y104.373 E11.78264
G1 X117.736 Y106.039 E12.13837
G1 X118.508 Y106.424 E12.29842
G1 X118.281 Y106.958 E12.40615
G1 X118.628 Y109.009 E12.79211
G1 X119.095 Y109.508 E12.91896
G1 E10.91896 F2400.00000
G92 E0
G1 X102.970 Y116.556 F7800.000
G1 E2.00000 F2400.00000
G1 F1800
G1 X102.515 Y116.917 E2.10788
G1 X102.527 Y116.125 E2.25485
G1 X101.543 Y114.443 E2.61654
G1 X100.537 Y113.962 E2.82340
G1 X100.860 Y113.122 E2.99053
G1 X100.538 Y111.367 E3.32164
G1 X99.668 Y110.489 E3.55088
G1 X100.348 Y109.712 E3.74256
G1 X100.616 Y108.130 E4.04024
G1 X100.041 Y106.896 E4.29286
G1 X101.066 Y106.339 E4.50921
G1 X101.774 Y105.096 E4.77476
G1 X101.643 Y103.624 E5.04896
G1 X102.913 Y103.442 E5.28704
G1 X103.895 Y102.611 E5.52565
G1 X104.306 Y101.074 E5.82097
G1 X105.593 Y101.409 E6.06783
G1 X106.810 Y100.969 E6.30794
G1 X107.684 Y99.582 E6.61209
G1 X108.769 Y100.429 E6.86749
G1 X110.142 Y100.429 E7.12221
G1 X111.366 Y99.393 E7.41971
G1 X112.147 Y100.591 E7.68514
G1 X113.441 Y101.059 E7.94051
G1 X114.044 Y100.822 E8.06070
G1 X114.884 Y100.609 E8.22157
G1 X115.281 Y101.913 E8.47459
G1 X116.235 Y102.721 E8.70663
G1 X117.763 Y102.886 E8.99167
G1 X117.693 Y104.159 E9.22835
G1 X118.378 Y105.361 E9.48502
G1 X119.658 Y106.000 E9.75051
G1 X119.204 Y107.067 E9.96559
G1 X119.463 Y108.595 E10.25313
G1 X120.357 Y109.548 E10.49557
G1 X119.658 Y110.302 E10.68640
G1 X119.346 Y112.003 E11.00729
G1 X119.805 Y113.088 E11.22606
G1 X119.008 Y113.503 E11.39292
G1 X118.048 Y115.143 E11.74558
G1 X118.075 Y115.687 E11.84659
G1 X115.677 Y117.681 E12.42524
G1 X104.323 Y117.681 E14.53231
G1 X103.016 Y116.594 E14.84758
G1 X102.957 Y117.706 F7800.000
G1 F1800
G1 X102.092 Y118.392 E15.05234
G1 X101.828 Y118.147 E15.11924
G1 X101.299 Y117.586 E15.26230
G1 X101.074 Y117.313 E15.32798
G1 X101.624 Y116.757 E15.47315
G1 X101.631 Y116.361 E15.54675
G1 X100.910 Y115.131 E15.81131
G1 X100.521 Y114.944 E15.89136
G1 X99.691 Y115.224 E16.05392
G1 X99.510 Y114.872 E16.12729
G1 X99.271 Y114.321 E16.23880
G1 X99.078 Y113.800 E16.34192
G1 X99.767 Y113.478 E16.48314
G1 X99.936 Y113.036 E16.57092
G1 X99.709 Y111.799 E16.80429
G1 X99.353 Y111.440 E16.89814
G1 X98.498 Y111.422 E17.05685
G1 X98.443 Y110.989 E17.13785
G1 X98.397 Y110.230 E17.27893
G1 X98.399 Y109.797 E17.35915
G1 X99.143 Y109.734 E17.49772
G1 X99.510 Y109.314 E17.60127
G1 X99.689 Y108.255 E17.80058
G1 X99.442 Y107.724 E17.90925
G1 X98.665 Y107.425 E18.06374
G1 X98.771 Y106.957 E18.15277
G1 X98.986 Y106.235 E18.29265
G1 X99.150 Y105.790 E18.38066
G1 X99.853 Y105.982 E18.51583
G1 X100.416 Y105.676 E18.63472
G1 X100.860 Y104.897 E18.80125
G1 X100.801 Y104.237 E18.92409
G1 X100.191 Y103.709 E19.07392
G1 X100.579 Y103.126 E19.20377
G1 X100.918 Y102.671 E19.30918
G1 X101.249 Y102.281 E19.40398
G1 X101.829 Y102.695 E19.53627
G1 X102.532 Y102.595 E19.66808
G1 X103.104 Y102.110 E19.80714
G1 X103.292 Y101.409 E19.94181
G1 X102.905 Y100.718 E20.08876
G1 X103.346 Y100.388 E20.19093
G1 X103.969 Y99.981 E20.32904
G1 X104.437 Y99.717 E20.42881
G1 X104.827 Y100.287 E20.55692
G1 X105.550 Y100.475 E20.69558
G1 X106.218 Y100.233 E20.82744
G1 X106.623 Y99.591 E20.96840
G1 X106.500 Y98.836 E21.11026
G1 X107.046 Y98.674 E21.21603
G1 X107.629 Y98.540 E21.32695
G1 X108.314 Y98.423 E21.45597
G1 X108.479 Y99.070 E21.57987
G1 X109.076 Y99.536 E21.72047
G1 X109.815 Y99.536 E21.85757
G1 X110.399 Y99.042 E21.99945
G1 X110.542 Y98.311 E22.13763
G1 X111.111 Y98.347 E22.24349
G1 X111.848 Y98.441 E22.38131
G1 X112.388 Y98.545 E22.48330
G1 X112.319 Y99.221 E22.60946
G1 X112.732 Y99.853 E22.74952
G1 X113.428 Y100.105 E22.88683
G1 X113.769 Y99.970 E22.95496
G1 X114.123 Y99.881 E23.02278
G1 X114.521 Y99.213 E23.16699
G1 X115.037 Y99.442 E23.27169
G1 X115.695 Y99.785 E23.40950
G1 X116.153 Y100.062 E23.50877
G1 X115.845 Y100.701 E23.64034
G1 X116.059 Y101.402 E23.77619
G1 X116.603 Y101.863 E23.90865
G1 X117.334 Y101.942 E24.04509
G1 X117.945 Y101.446 E24.19098
G1 X118.423 Y101.918 E24.31566
G1 X118.836 Y102.372 E24.42958
G1 X119.152 Y102.768 E24.52367
G1 X118.635 Y103.274 E24.65786
G1 X118.599 Y103.946 E24.78260
G1 X119.019 Y104.684 E24.94021
G1 X119.621 Y104.984 E25.06503
G1 X120.383 Y104.723 E25.21457
G1 X120.603 Y105.177 E25.30816
G1 X120.886 Y105.872 E25.44750
G1 X121.035 Y106.318 E25.53475
G1 X120.362 Y106.626 E25.67219
G1 X120.128 Y107.176 E25.78297
G1 X120.298 Y108.180 E25.97208
G1 X120.705 Y108.614 E26.08247
G1 X121.533 Y108.632 E26.23604
G1 X121.580 Y109.092 E26.32183
G1 X121.608 Y109.849 E26.46225
G1 X121.596 Y110.277 E26.54184
G1 X120.839 Y110.340 E26.68272
G1 X120.489 Y110.718 E26.77835
G1 X120.272 Y111.901 E27.00146
G1 X120.472 Y112.372 E27.09645
G1 X121.263 Y112.683 E27.25431
G1 X121.162 Y113.090 E27.33204
G1 X120.987 Y113.634 E27.43824
G1 X120.781 Y114.175 E27.54564
G1 X120.035 Y113.975 E27.68883
G1 X119.648 Y114.177 E27.76983
G1 X118.952 Y115.365 E28.02533
G1 X118.974 Y115.798 E28.10591
G1 X119.626 Y116.377 E28.26777
G1 X119.415 Y116.692 E28.33819
G1 X118.978 Y117.258 E28.47077
G1 X118.714 Y117.559 E28.54509
G1 X117.893 Y116.999 E28.72943
G1 X116.319 Y118.308 E29.10950
G1 X116.461 Y118.573 E29.16537
G1 X104.000 Y118.573 E31.47783
G1 X103.003 Y117.744 E31.71842
G1 X102.632 Y117.473 F7800.000
G1 E29.71842 F2400.00000
G92 E0
G1 X110.000 Y108.047 F7800.000
G1 E2.00000 F2400.00000
G1 F1800
G1 X110.000 Y112.042 E2.24300
G1 E0.24300 F2400.00000
G92 E0
G1 X110.436 Y115.833 F7800.000
G1 E2.00000 F2400.00000
G1 F1800
G1 X109.963 Y115.848 E2.08959
G1 X109.086 Y115.812 E2.25565
G1 F1800
G1 X108.484 Y115.743 E2.37746
G1 X110.436 Y115.833 F7800.000
G1 F1800
G1 X110.914 Y115.812 E2.47372
G1 X111.516 Y115.743 E2.59549
G1 E0.59549 F2400.00000
G92 E0
G1 X115.899 Y115.233 F7800.000
G1 E2.00000 F2400.00000
G1 F1800
G1 X116.594 Y114.538 E2.19050
G1 X116.585 Y114.354 E2.22617
G1 X117.926 Y112.063 E2.74057
G1 X117.874 Y111.939 E2.76649
G1 X113.571 Y116.242 E3.94561
G1 X112.253 Y116.242 E4.20102
G1 X118.111 Y110.385 E5.80621
G1 X118.316 Y109.265 E6.02681
G1 X118.140 Y109.076 E6.07690
G1 X118.134 Y109.043 E6.08335
G1 X115.135 Y112.043 E6.90525
G1 X115.254 Y111.642 E6.98629
G1 X115.375 Y110.792 E7.15256
G1 X115.372 Y110.487 E7.21167
G1 X117.943 Y107.916 E7.91629
G1 X117.752 Y106.788 E8.13785
G1 X115.262 Y109.279 E8.82034
G1 X115.232 Y109.090 E8.85739
G1 X114.964 Y108.259 E9.02667
G1 X117.228 Y105.994 E9.64710
G1 X116.750 Y105.154 E9.83439
G1 X114.514 Y107.391 E10.44726
G1 X114.115 Y106.814 E10.58319
G1 X113.949 Y106.637 E10.63010
G1 X116.272 Y104.314 E11.26656
G1 X116.229 Y104.239 E11.28329
G1 X116.235 Y104.132 E11.30406
G1 X115.847 Y104.090 E11.37978
G1 X115.484 Y103.784 E11.47173
G1 X113.278 Y105.990 E12.07629
G1 X112.866 Y105.663 E12.17810
G1 X112.498 Y105.452 E12.26042
G1 X114.771 Y103.179 E12.88322
G1 X114.073 Y102.589 E13.06028
G1 X114.066 Y102.565 E13.06498
G1 X111.599 Y105.033 E13.74112
G1 X111.333 Y104.929 E13.79638
G1 X110.560 Y104.753 E13.95001
G1 X112.991 Y102.322 E14.61616
G1 X112.023 Y101.972 E14.81561
G1 X109.291 Y104.704 E15.56415
G1 X108.803 Y104.740 E15.65899
G1 X107.972 Y104.929 E15.82408
G1 X107.604 Y105.073 E15.90062
G1 X110.810 Y101.867 E16.77913
G1 X109.492 Y101.867 E17.03454
G1 X101.916 Y109.443 E19.11063
G1 X102.121 Y108.227 E19.34953
