; generated by Slic3r 1.3.0 on 2020-07-21 at 06:18:18

; external perimeters extrusion width = 0.44mm (3.38mm^3/s)
; perimeters extrusion width = 0.48mm (7.54mm^3/s)
; infill extrusion width = 0.48mm (10.05mm^3/s)
; solid infill extrusion width = 0.48mm (2.51mm^3/s)
; top infill extrusion width = 0.48mm (1.88mm^3/s)

M107
M190 S65 ; set bed temperature and wait for it to be reached
M104 S205 ; set temperature
G28 ; home all axes
G1 Z5 F5000 ; lift nozzle

; Filament gcode

M109 S205 ; set temperature and wait for it to be reached
G21 ; set units to millimeters
G90 ; use absolute coordinates
M82 ; use absolute distances for extrusion
G92 E0
G1 Z0.500 F7800.000
G1 E-2.00000 F2400.00000
G92 E0
G1 X57.125 Y102.069 F7800.000
G1 E2.00000 F2400.00000
G1 F1800
G1 X60.250 Y101.320 E2.59630
G1 X159.750 Y101.320 E21.06067
G1 X162.056 Y101.717 E21.49485
G1 X164.096 Y102.862 E21.92902
G1 X165.635 Y104.625 E22.36320
G1 X166.500 Y106.819 E22.80092
G1 X166.642 Y107.832 E22.99079
G1 X166.705 Y108.883 E23.18609
G1 X166.766 Y111.345 E23.64323
G1 X166.819 Y115.376 E24.39124
G1 X166.877 Y124.850 E26.14933
G1 X166.893 Y132.855 E27.63490
G1 X166.825 Y133.819 E27.81416
G1 X166.359 Y135.559 E28.14842
G1 X165.589 Y136.967 E28.44629
G1 X165.396 Y137.227 E28.50644
G1 X164.071 Y138.540 E28.85256
G1 X162.561 Y139.420 E29.17687
G1 X162.452 Y139.465 E29.19864
G1 X160.714 Y139.930 E29.53260
G1 X159.750 Y139.998 E29.71193
G1 X60.250 Y139.998 E48.17621
G1 X59.286 Y139.930 E48.35560
G1 X57.635 Y139.500 E48.67219
G1 X57.487 Y139.440 E48.70174
G1 X55.929 Y138.540 E49.03569
G1 X54.565 Y137.176 E49.39371
G1 X53.641 Y135.558 E49.73949
G1 X53.175 Y133.820 E50.07338
G1 X53.107 Y132.855 E50.25282
G1 X53.141 Y120.504 E52.54479
G1 X53.181 Y115.338 E53.50343
G1 X53.233 Y111.423 E54.23009
G1 X53.295 Y108.883 E54.70161
G1 X53.378 Y107.683 E54.92489
G1 X53.951 Y105.414 E55.35906
G1 X55.250 Y103.468 E55.79324
G1 X57.077 Y102.105 E56.21629
G1 E54.21629 F2400.00000
G92 E0
G1 X157.709 Y130.820 F7800.000
G1 E2.00000 F2400.00000
G1 F1800
G1 X62.294 Y130.820 E19.70624
G1 X62.294 Y126.483 E20.51098
G1 X62.359 Y115.451 E22.55819
G1 X62.436 Y110.498 E23.47755
G1 X157.564 Y110.498 E41.13052
G1 X157.590 Y111.554 E41.32652
G1 X157.681 Y120.548 E42.99567
G1 X157.709 Y130.760 E44.89069
G1 X158.604 Y131.712 F7800.000
G1 F1800
G1 X61.401 Y131.712 E62.92870
G1 X61.401 Y126.481 E63.89958
G1 X61.466 Y115.443 E65.94789
G1 X61.517 Y111.540 E66.67214
G1 X61.565 Y109.605 E67.03138
G1 X158.435 Y109.605 E85.00766
G1 X158.482 Y111.538 E85.36650
G1 X158.574 Y120.542 E87.03745
G1 X158.604 Y131.652 E89.09920
G1 X159.499 Y132.605 F7800.000
G1 F1800
G1 X60.509 Y132.605 E107.46898
G1 X60.509 Y126.478 E108.60600
G1 X60.573 Y115.434 E110.65540
G1 X60.625 Y111.524 E111.38119
G1 X60.681 Y109.219 E111.80898
G1 X60.717 Y108.712 E111.90322
G1 X159.287 Y108.712 E130.19502
G1 X159.315 Y109.077 E130.26289
G1 X159.375 Y111.523 E130.71688
G1 X159.467 Y120.536 E132.38964
G1 X159.499 Y132.545 E134.61811
G1 X159.153 Y132.406 F7800.000
G1 E132.61811 F2400.00000
G92 E0
G1 X156.467 Y130.274 F7800.000
G1 E2.00000 F2400.00000
G1 F1800
G1 X157.161 Y129.580 E2.18380
G1 X157.158 Y128.310 E2.42141
G1 X155.193 Y130.274 E2.94123
G1 X153.920 Y130.274 E3.17948
G1 X157.154 Y127.040 E4.03533
G1 X157.151 Y125.771 E4.27293
G1 X152.647 Y130.274 E5.46480
G1 X151.374 Y130.274 E5.70306
G1 X157.147 Y124.501 E7.23095
G1 X157.144 Y123.231 E7.46856
G1 X150.101 Y130.274 E9.33247
G1 X148.828 Y130.274 E9.57072
G1 X157.140 Y121.962 E11.77067
G1 X157.137 Y120.692 E12.00827
G1 X147.555 Y130.274 E14.54424
G1 X146.282 Y130.274 E14.78249
G1 X157.128 Y119.428 E17.65295
G1 X157.115 Y118.168 E17.88882
G1 X145.008 Y130.274 E21.09284
G1 X143.735 Y130.274 E21.33109
G1 X157.102 Y116.907 E24.86865
G1 X157.089 Y115.647 E25.10452
G1 X142.462 Y130.274 E28.97565
G1 X141.189 Y130.274 E29.21390
G1 X157.077 Y114.387 E33.41857
G1 X157.064 Y113.126 E33.65444
G1 X139.916 Y130.274 E38.19267
G1 X138.643 Y130.274 E38.43092
G1 X157.051 Y111.866 E43.30270
G1 X157.040 Y111.043 E43.45668
G1 X156.601 Y111.043 E43.53892
G1 X137.370 Y130.274 E48.62845
G1 X136.097 Y130.274 E48.86670
G1 X155.328 Y111.043 E53.95623
G1 X154.054 Y111.043 E54.19448
G1 X134.823 Y130.274 E59.28400
G1 X133.550 Y130.274 E59.52225
G1 X152.781 Y111.043 E64.61177
G1 X151.508 Y111.043 E64.85003
G1 X132.277 Y130.274 E69.93955
G1 X131.004 Y130.274 E70.17780
G1 X150.235 Y111.043 E75.26732
G1 X148.962 Y111.043 E75.50557
G1 X129.731 Y130.274 E80.59509
G1 X128.458 Y130.274 E80.83334
G1 X147.689 Y111.043 E85.92286
G1 X146.416 Y111.043 E86.16111
G1 X127.185 Y130.274 E91.25063
G1 X125.912 Y130.274 E91.48888
G1 X145.142 Y111.043 E96.57840
G1 X143.869 Y111.043 E96.81665
G1 X124.638 Y130.274 E101.90617
G1 X123.365 Y130.274 E102.14442
G1 X142.596 Y111.043 E107.23394
G1 X141.323 Y111.043 E107.47219
G1 X122.092 Y130.274 E112.56171
G1 X120.819 Y130.274 E112.79996
G1 X140.050 Y111.043 E117.88948
G1 X138.777 Y111.043 E118.12773
G1 X119.546 Y130.274 E123.21725
G1 X118.273 Y130.274 E123.45550
G1 X137.504 Y111.043 E128.54502
G1 X136.231 Y111.043 E128.78327
G1 X117.000 Y130.274 E133.87279
G1 X115.726 Y130.274 E134.11104
G1 X134.957 Y111.043 E139.20056
G1 X133.684 Y111.043 E139.43882
G1 X114.453 Y130.274 E144.52834
G1 X113.180 Y130.274 E144.76659
G1 X132.411 Y111.043 E149.85611
G1 X131.138 Y111.043 E150.09436
G1 X111.907 Y130.274 E155.18388
G1 X110.634 Y130.274 E155.42213
G1 X129.865 Y111.043 E160.51165
G1 X128.592 Y111.043 E160.74990
G1 X109.361 Y130.274 E165.83942
G1 X108.088 Y130.274 E166.07767
G1 X127.319 Y111.043 E171.16719
G1 X126.046 Y111.043 E171.40544
G1 X106.815 Y130.274 E176.49496
G1 X105.541 Y130.274 E176.73321
G1 X124.772 Y111.043 E181.82274
G1 X123.499 Y111.043 E182.06099
G1 X104.268 Y130.274 E187.15051
G1 X102.995 Y130.274 E187.38876
G1 X122.226 Y111.043 E192.47828
G1 X120.953 Y111.043 E192.71653
G1 X101.722 Y130.274 E197.80605
G1 X100.449 Y130.274 E198.04430
G1 X119.680 Y111.043 E203.13382
G1 X118.407 Y111.043 E203.37207
G1 X99.176 Y130.274 E208.46160
G1 X97.903 Y130.274 E208.69985
G1 X117.134 Y111.043 E213.78937
G1 X115.861 Y111.043 E214.02762
G1 X96.630 Y130.274 E219.11714
G1 X95.356 Y130.274 E219.35539
G1 X114.587 Y111.043 E224.44491
G1 X113.314 Y111.043 E224.68316
G1 X94.083 Y130.274 E229.77269
G1 X92.810 Y130.274 E230.01094
G1 X112.041 Y111.043 E235.10046
G1 X110.768 Y111.043 E235.33871
G1 X91.537 Y130.274 E240.42823
G1 X90.264 Y130.274 E240.66648
G1 X109.495 Y111.043 E245.75600
G1 X108.222 Y111.043 E245.99425
G1 X88.991 Y130.274 E251.08378
G1 X87.718 Y130.274 E251.32203
G1 X106.949 Y111.043 E256.41155
G1 X105.675 Y111.043 E256.64980
G1 X86.445 Y130.274 E261.73932
G1 X85.171 Y130.274 E261.97757
G1 X104.402 Y111.043 E267.06709
G1 X103.129 Y111.043 E267.30534
G1 X83.898 Y130.274 E272.39487
G1 X82.625 Y130.274 E272.63312
G1 X101.856 Y111.043 E277.72264
G1 X100.583 Y111.043 E277.96089
G1 X81.352 Y130.274 E283.05041
G1 X80.079 Y130.274 E283.28867
G1 X99.310 Y111.043 E288.37819
G1 X98.037 Y111.043 E288.61644
G1 X78.806 Y130.274 E293.70596
G1 X77.533 Y130.274 E293.94421
G1 X96.764 Y111.043 E299.03374
G1 X95.490 Y111.043 E299.27199
G1 X76.260 Y130.274 E304.36151
G1 X74.986 Y130.274 E304.59976
G1 X94.217 Y111.043 E309.68928
G1 X92.944 Y111.043 E309.92753
G1 X73.713 Y130.274 E315.01706
G1 X72.440 Y130.274 E315.25531
G1 X91.671 Y111.043 E320.34483
G1 X90.398 Y111.043 E320.58308
G1 X71.167 Y130.274 E325.67261
G1 X69.894 Y130.274 E325.91086
G1 X89.125 Y111.043 E331.00038
G1 X87.852 Y111.043 E331.23863
G1 X68.621 Y130.274 E336.32815
G1 X67.348 Y130.274 E336.56641
G1 X86.579 Y111.043 E341.65593
G1 X85.305 Y111.043 E341.89418
G1 X66.074 Y130.274 E346.98370
G1 X64.801 Y130.274 E347.22195
G1 X84.032 Y111.043 E352.31148
G1 X82.759 Y111.043 E352.54973
G1 X63.528 Y130.274 E357.63925
G1 X62.839 Y130.274 E357.76815
G1 X62.839 Y129.690 E357.87751
G1 X81.486 Y111.043 E362.81238
G1 X80.213 Y111.043 E363.05063
G1 X62.839 Y128.417 E367.64858
G1 X62.839 Y127.144 E367.88683
G1 X78.940 Y111.043 E372.14783
G1 X77.667 Y111.043 E372.38608
G1 X62.845 Y125.865 E376.30865
G1 X62.853 Y124.584 E376.54831
G1 X76.394 Y111.043 E380.13195
G1 X75.120 Y111.043 E380.37020
G1 X62.860 Y123.304 E383.61492
G1 X62.868 Y122.023 E383.85458
G1 X73.847 Y111.043 E386.76038
G1 X72.574 Y111.043 E386.99863
G1 X62.875 Y120.742 E389.56551
G1 X62.883 Y119.462 E389.80517
G1 X71.301 Y111.043 E392.03313
G1 X70.028 Y111.043 E392.27138
G1 X62.890 Y118.181 E394.16041
G1 X62.898 Y116.900 E394.40007
G1 X68.755 Y111.043 E395.95018
G1 X67.482 Y111.043 E396.18843
G1 X62.907 Y115.618 E397.39913
G1 X62.927 Y114.325 E397.64119
G1 X66.208 Y111.043 E398.50960
G1 X64.935 Y111.043 E398.74785
G1 X62.947 Y113.031 E399.27397
G1 X62.968 Y111.738 E399.51604
G1 X63.662 Y111.043 E399.69987
M104 S200 ; set temperature
M140 S60 ; set bed temperature
G1 Z0.800 F7800.000
G1 X158.964 Y132.073 F7800.000
G1 F3600
G1 X61.036 Y132.073 E404.81609
G1 X61.036 Y108.012 E406.07314

G1 F3600
G1 X61.037 Y92.143 E406.90222
G1 X73.462 Y92.144 E407.55136
G1 X73.464 Y94.994 E407.70027
G1 X73.586 Y95.450 E407.72491
G1 X73.834 Y95.773 E407.74620
G1 X74.158 Y96.021 E407.76751
G1 X74.614 Y96.143 E407.79217
G1 X80.386 Y96.143 E408.09377
G1 X80.911 Y96.003 E408.12216
G1 X81.395 Y95.519 E408.15793
G1 X81.536 Y94.994 E408.18631
G1 X81.538 Y92.143 E408.33525
G1 X138.462 Y92.144 E411.30926
G1 X138.464 Y94.925 E411.45456
G1 X138.508 Y95.261 E411.47227
G1 X138.779 Y95.731 E411.50056
G1 X139.158 Y96.021 E411.52551
G1 X139.614 Y96.143 E411.55016
G1 X145.386 Y96.143 E411.85176
G1 X145.911 Y96.003 E411.88016
G1 X146.395 Y95.519 E411.91593
G1 X146.536 Y94.994 E411.94430
G1 X146.538 Y92.148 E412.09301
G1 X158.962 Y92.143 E412.74210
G1 X158.963 Y108.012 E413.57117

G1 F3600
G1 X158.964 Y132.013 E414.82509
G1 X159.383 Y132.492 F7800.000
G1 F3600
G1 X60.617 Y132.492 E419.98508
G1 X60.617 Y108.012 E421.26401

G1 F3600
G1 X60.619 Y91.724 E422.11498
G1 X73.881 Y91.725 E422.80785
G1 X73.883 Y94.939 E422.97575
G1 X73.969 Y95.261 E422.99316
G1 X74.133 Y95.474 E423.00723
G1 X74.347 Y95.638 E423.02130
G1 X74.669 Y95.724 E423.03872
G1 X80.331 Y95.724 E423.33456
G1 X80.695 Y95.627 E423.35421
G1 X81.020 Y95.302 E423.37825
G1 X81.117 Y94.939 E423.39789
G1 X81.119 Y91.724 E423.56583
G1 X138.881 Y91.725 E426.58358
G1 X138.883 Y94.898 E426.74932
G1 X138.913 Y95.124 E426.76125
G1 X139.100 Y95.449 E426.78084
G1 X139.347 Y95.638 E426.79708
G1 X139.669 Y95.724 E426.81450
G1 X145.331 Y95.724 E427.11034
G1 X145.695 Y95.627 E427.12999
G1 X146.020 Y95.302 E427.15403
G1 X146.117 Y94.939 E427.17367
G1 X146.119 Y91.729 E427.34136
G1 X159.381 Y91.724 E428.03421
G1 X159.381 Y108.012 E428.88517

G1 F3600
G1 X159.383 Y132.432 E430.16097
G1 X159.780 Y132.889 F7800.000
G1 F1800
G1 X60.220 Y132.889 E434.82529
G1 X60.220 Y108.012 E435.99075

G1 F3600
G1 X60.222 Y91.327 E436.86248
G1 X74.278 Y91.328 E437.59682
G1 X74.280 Y94.886 E437.78274
G1 X74.332 Y95.081 E437.79330
G1 X74.416 Y95.191 E437.80050
G1 X74.526 Y95.275 E437.80771
G1 X74.721 Y95.327 E437.81827
G1 X80.279 Y95.327 E438.10865
G1 X80.489 Y95.271 E438.12000
G1 X80.664 Y95.096 E438.13292
G1 X80.720 Y94.886 E438.14427
G1 X80.722 Y91.327 E438.33022
G1 X139.278 Y91.328 E441.38947
G1 X139.280 Y94.872 E441.57460
G1 X139.296 Y94.994 E441.58104
G1 X139.405 Y95.182 E441.59237
G1 X139.526 Y95.275 E441.60036
G1 X139.721 Y95.327 E441.61092
G1 X145.279 Y95.327 E441.90129
G1 X145.489 Y95.271 E441.91264
G1 X145.664 Y95.096 E441.92556
G1 X145.720 Y94.886 E441.93691
G1 X145.722 Y91.332 E442.12262
G1 X159.778 Y91.327 E442.85696
G1 X159.779 Y108.012 E443.72869

G1 F1800
G1 X159.780 Y132.829 E444.89134
G1 X159.646 Y132.512 F7800.000
G1 X158.707 Y111.585 F7800.000
G1 F1200
G1 X158.381 Y111.259 E444.91543
G1 X157.788 Y111.259 E444.94639
G1 X158.707 Y112.177 E445.01427
G1 X158.707 Y112.770 E445.04524
G1 X157.196 Y111.259 E445.15692
G1 X156.603 Y111.259 E445.18788
G1 X158.707 Y113.362 E445.34335
G1 X158.707 Y113.955 E445.37432
G1 X156.011 Y111.259 E445.57359
G1 X155.418 Y111.259 E445.60455
G1 X158.707 Y114.548 E445.84761
G1 X158.707 Y115.140 E445.87858
G1 X154.826 Y111.259 E446.16543
G1 X154.233 Y111.259 E446.19639
G1 X158.707 Y115.733 E446.52704
G1 X158.707 Y116.325 E446.55801
G1 X153.640 Y111.259 E446.93245
G1 X153.048 Y111.259 E446.96341
G1 X158.707 Y116.918 E447.38165
G1 X158.707 Y117.510 E447.41261
G1 X152.455 Y111.259 E447.87464
G1 X151.863 Y111.259 E447.90561
G1 X158.707 Y118.103 E448.41143
G1 X158.707 Y118.696 E448.44240
G1 X151.270 Y111.259 E448.99201
G1 X150.678 Y111.259 E449.02298
G1 X158.707 Y119.288 E449.61639
G1 X158.707 Y119.881 E449.64736
G1 X150.085 Y111.259 E450.28454
G1 X149.493 Y111.259 E450.31550
G1 X158.707 Y120.473 E450.99647
G1 X158.707 Y121.066 E451.02743
G1 X148.900 Y111.259 E451.75219
G1 X148.308 Y111.259 E451.78316
G1 X158.707 Y121.658 E452.55171
G1 X158.707 Y122.251 E452.58268
G1 X147.715 Y111.259 E453.39502
G1 X147.123 Y111.259 E453.42599
G1 X158.707 Y122.843 E454.28212
G1 X158.707 Y123.436 E454.31309
G1 X146.530 Y111.259 E455.21302
G1 X145.937 Y111.259 E455.24400
G1 X158.707 Y124.029 E456.18776
G1 X158.707 Y124.621 E456.21872
G1 X145.345 Y111.259 E457.20627
G1 X144.752 Y111.259 E457.23723
G1 X158.708 Y125.214 E458.26857
G1 X158.708 Y125.806 E458.29953
G1 X144.160 Y111.259 E459.37466
G1 X143.567 Y111.259 E459.40562
G1 X158.708 Y126.399 E460.52454
G1 X158.708 Y126.991 E460.55551
G1 X142.975 Y111.259 E461.71822
G1 X142.382 Y111.259 E461.74919
G1 X158.708 Y127.584 E462.95569
G1 X158.708 Y128.176 E462.98666
G1 X141.790 Y111.259 E464.23695
G1 X141.197 Y111.259 E464.26792
G1 X158.708 Y128.769 E465.56201
G1 X158.708 Y129.362 E465.59297
G1 X140.605 Y111.259 E466.93086
G1 X140.012 Y111.259 E466.96182
G1 X158.708 Y129.954 E468.34349
G1 X158.708 Y130.547 E468.37446
G1 X139.420 Y111.259 E469.79993
G1 X138.827 Y111.259 E469.83089
G1 X158.708 Y131.139 E471.30015
G1 X158.708 Y131.732 E471.33112
G1 X138.235 Y111.259 E472.84417
G1 X137.642 Y111.259 E472.87513
G1 X158.201 Y131.817 E474.39448
G1 X157.608 Y131.817 E474.42545
G1 X137.049 Y111.259 E475.94480
G1 X136.457 Y111.259 E475.97577
G1 X157.016 Y131.817 E477.49512
G1 X156.423 Y131.817 E477.52608
G1 X135.864 Y111.259 E479.04543
G1 X135.272 Y111.259 E479.07640
G1 X155.830 Y131.817 E480.59575
G1 X155.238 Y131.817 E480.62672
G1 X134.679 Y111.259 E482.14607
G1 X134.087 Y111.259 E482.17703
G1 X154.645 Y131.817 E483.69638
G1 X154.053 Y131.817 E483.72735
G1 X133.494 Y111.259 E485.24670
G1 X132.902 Y111.259 E485.27767
G1 X153.460 Y131.817 E486.79702
G1 X152.868 Y131.817 E486.82798
G1 X132.309 Y111.259 E488.34734
G1 X131.717 Y111.259 E488.37830
G1 X152.275 Y131.817 E489.89765
G1 X151.683 Y131.817 E489.92862
G1 X131.124 Y111.259 E491.44797
G1 X130.532 Y111.259 E491.47893
G1 X151.090 Y131.817 E492.99829
G1 X150.498 Y131.817 E493.02925
G1 X129.939 Y111.259 E494.54860
G1 X129.347 Y111.259 E494.57957
G1 X149.905 Y131.817 E496.09892
G1 X149.313 Y131.817 E496.12988
G1 X128.754 Y111.259 E497.64924
G1 X128.162 Y111.259 E497.68020
G1 X148.720 Y131.817 E499.19955
G1 X148.128 Y131.817 E499.23052
G1 X127.569 Y111.259 E500.74987
G1 X126.976 Y111.259 E500.78084
G1 X147.535 Y131.817 E502.30019
G1 X146.943 Y131.817 E502.33115
G1 X126.384 Y111.259 E503.85051
G1 X125.791 Y111.259 E503.88147
G1 X146.350 Y131.817 E505.40082
G1 X145.757 Y131.817 E505.43179
G1 X125.199 Y111.259 E506.95114
G1 X124.606 Y111.259 E506.98210
G1 X145.165 Y131.817 E508.50146
G1 X144.572 Y131.817 E508.53242
G1 X124.014 Y111.259 E510.05177
G1 X123.421 Y111.259 E510.08274
G1 X143.980 Y131.817 E511.60209
G1 X143.387 Y131.817 E511.63305
G1 X122.829 Y111.259 E513.15241
G1 X122.236 Y111.259 E513.18337
G1 X142.795 Y131.817 E514.70272
G1 X142.202 Y131.817 E514.73369
G1 X121.644 Y111.259 E516.25304
G1 X121.051 Y111.259 E516.28400
G1 X141.610 Y131.817 E517.80336
G1 X141.017 Y131.817 E517.83432
G1 X120.459 Y111.259 E519.35367
G1 X119.866 Y111.259 E519.38464
G1 X140.425 Y131.817 E520.90399
G1 X139.832 Y131.817 E520.93495
G1 X119.274 Y111.259 E522.45431
G1 X118.681 Y111.259 E522.48527
G1 X139.240 Y131.817 E524.00462
G1 X138.647 Y131.817 E524.03559
G1 X118.089 Y111.259 E525.55494
