; generated by Slic3r 1.3.0 on 2020-07-21 at 03:52:53

; external perimeters extrusion width = 0.44mm (3.38mm^3/s)
; perimeters extrusion width = 0.48mm (7.54mm^3/s)
; infill extrusion width = 0.48mm (10.05mm^3/s)
; solid infill extrusion width = 0.48mm (2.51mm^3/s)
; top infill extrusion width = 0.48mm (1.88mm^3/s)

M107
M190 S65 ; set bed temperature and wait for it to be reached
M104 S205 ; set temperature
G28 ; home all axes
G1 Z5 F5000 ; lift nozzle

; Filament gcode

M109 S205 ; set temperature and wait for it to be reached
G21 ; set units to millimeters
G90 ; use absolute coordinates
M82 ; use absolute distances for extrusion
G92 E0
G1 Z0.500 F7800.000
G1 E-2.00000 F2400.00000
G92 E0
G1 X58.802 Y84.798 F7800.000
G1 E2.00000 F2400.00000
G1 F1800
G1 X59.988 Y84.165 E2.24949
G1 X60.705 Y83.907 E2.39095
G1 X61.785 Y83.675 E2.59601
G1 X62.750 Y83.607 E2.77549
G1 X157.250 Y83.607 E20.31191
G1 X158.150 Y83.666 E20.47932
G1 X158.939 Y83.810 E20.62803
G1 X160.012 Y84.165 E20.83784
G1 X160.501 Y84.390 E20.93767
G1 X161.623 Y85.105 E21.18455
G1 X162.301 Y85.699 E21.35187
G1 X162.679 Y86.109 E21.45533
G1 X162.935 Y86.429 E21.53139
G1 X163.859 Y88.047 E21.87713
G1 X163.977 Y88.351 E21.93760
G1 X164.334 Y89.851 E22.22380
G1 X164.393 Y90.750 E22.39099
G1 X164.393 Y129.250 E29.53546
G1 X164.325 Y130.214 E29.71471
G1 X163.834 Y132.014 E30.06100
G1 X162.895 Y133.623 E30.40672
G1 X161.571 Y134.934 E30.75250
G1 X159.952 Y135.860 E31.09857
G1 X158.214 Y136.325 E31.43246
G1 X157.250 Y136.393 E31.61183
G1 X62.750 Y136.393 E49.14825
G1 X61.786 Y136.325 E49.32762
G1 X59.987 Y135.834 E49.67359
G1 X58.377 Y134.895 E50.01944
G1 X57.065 Y133.571 E50.36541
G1 X56.140 Y131.952 E50.71136
G1 X55.675 Y130.214 E51.04526
G1 X55.607 Y129.250 E51.22463
G1 X55.607 Y90.750 E58.36910
G1 X55.629 Y90.203 E58.47060
G1 X55.675 Y89.786 E58.54859
G1 X55.822 Y89.014 E58.69443
G1 X56.017 Y88.367 E58.81980
G1 X56.165 Y87.988 E58.89536
G1 X57.034 Y86.470 E59.21989
G1 X57.105 Y86.377 E59.24147
G1 X58.378 Y85.105 E59.57553
G1 X58.753 Y84.833 E59.66145
G1 E57.66145 F2400.00000
G92 E0
G1 X66.360 Y127.214 F7800.000
G1 E2.00000 F2400.00000
G1 F1800
G1 X64.793 Y127.214 E2.29068
G1 X64.793 Y124.434 E2.80662
G1 X65.440 Y124.787 E2.94347
G1 X65.952 Y125.144 E3.05929
G1 X66.256 Y125.258 E3.11943
G1 X66.055 Y125.865 E3.23821
G1 X66.347 Y127.156 E3.48370
G1 X67.721 Y128.107 F7800.000
G1 F1800
G1 X63.901 Y128.107 E4.19252
G1 X63.900 Y122.395 E5.25251
G1 X64.344 Y122.318 E5.33616
G1 X64.569 Y122.947 E5.46010
G1 X65.573 Y123.843 E5.70987
G1 X65.911 Y124.027 E5.78125
G1 X66.370 Y124.348 E5.88516
G1 X67.373 Y124.721 E6.08372
G1 X66.980 Y125.910 E6.31610
G1 X67.334 Y127.473 E6.61350
G1 X67.689 Y128.056 E6.74014
G1 E4.74014 F2400.00000
G92 E0
G1 X64.791 Y117.589 F7800.000
G1 E2.00000 F2400.00000
G1 F1800
G1 X64.791 Y114.188 E2.63100
G1 X65.215 Y114.492 E2.72789
G1 X66.146 Y115.097 E2.93388
G1 X66.137 Y115.541 E3.01624
G1 X65.955 Y116.739 E3.24120
G1 X65.526 Y117.110 E3.34637
G1 X64.842 Y117.556 E3.49793
G1 E1.49793 F2400.00000
G92 E0
G1 X66.848 Y116.803 F7800.000
G1 E2.00000 F2400.00000
G1 F1800
G1 X67.537 Y117.226 E2.15010
G1 X66.568 Y117.389 E2.33256
G1 X66.064 Y117.825 E2.45620
G1 X65.125 Y118.437 E2.66410
G1 X64.484 Y119.389 E2.87713
G1 X64.346 Y119.788 E2.95543
G1 X63.899 Y119.712 E3.03946
G1 X63.897 Y112.319 E4.41137
G1 X64.371 Y112.264 E4.49987
G1 X64.479 Y112.722 E4.58710
G1 X65.073 Y113.293 E4.74013
G1 X65.718 Y113.754 E4.88724
G1 X66.659 Y114.366 E5.09541
G1 X67.257 Y114.564 E5.21244
G1 X67.038 Y115.156 E5.32956
G1 X67.028 Y115.617 E5.41522
G1 X66.857 Y116.744 E5.62664
G1 E3.62664 F2400.00000
G92 E0
G1 X64.789 Y107.512 F7800.000
G1 E2.00000 F2400.00000
G1 F1800
G1 X64.788 Y104.118 E2.62976
G1 X65.905 Y104.870 E2.87947
G1 X66.252 Y105.010 E2.94903
G1 X65.961 Y105.456 E3.04784
G1 X66.103 Y106.667 E3.27423
G1 X65.462 Y106.985 E3.40689
G1 X64.836 Y107.475 E3.55438
G1 X64.275 Y109.376 F7800.000
G1 F1800
G1 X63.897 Y109.260 E3.62778
G1 X63.895 Y102.011 E4.97297
G1 X64.341 Y101.935 E5.05695
G1 X64.506 Y102.407 E5.14972
G1 X65.151 Y103.274 E5.35024
G1 X66.326 Y104.077 E5.61427
G1 X67.311 Y104.475 E5.81143
G1 X67.051 Y105.224 E5.95859
G1 X67.032 Y105.449 E6.00040
G1 X66.885 Y105.673 E6.05020
G1 X67.062 Y107.188 E6.33319
G1 X65.941 Y107.744 E6.56555
G1 X65.313 Y108.235 E6.71334
G1 X64.892 Y108.468 E6.80268
G1 X64.309 Y109.326 E6.99527
G1 E4.99527 F2400.00000
G92 E0
G1 X64.787 Y96.856 F7800.000
G1 E2.00000 F2400.00000
G1 F1800
G1 X64.786 Y92.794 E2.75388
G1 X67.376 Y92.794 E3.23454
G1 X66.530 Y93.543 E3.44424
G1 X66.345 Y94.518 E3.62846
G1 X66.145 Y94.924 E3.71230
G1 X66.095 Y96.258 E3.96016
G1 X66.138 Y96.479 E4.00195
G1 X65.771 Y96.661 E4.07798
G1 X65.673 Y96.733 E4.10054
G1 X64.846 Y96.848 E4.25546
G1 E2.25546 F2400.00000
G92 E0
G1 X67.147 Y96.976 F7800.000
G1 E2.00000 F2400.00000
G1 F1800
G1 X66.236 Y97.427 E2.18864
G1 X66.018 Y97.586 E2.23856
G1 X65.630 Y97.640 E2.31129
G1 X65.063 Y98.333 E2.47754
G1 X64.615 Y98.686 E2.58328
G1 X64.537 Y98.895 E2.62479
G1 X64.429 Y98.914 E2.64510
G1 X64.354 Y99.171 E2.69484
G1 X63.895 Y99.105 E2.78095
G1 X63.893 Y91.901 E4.11785
G1 X69.614 Y91.901 E5.17943
G1 X69.000 Y92.501 E5.33860
G1 X68.489 Y92.865 E5.45509
G1 X67.829 Y93.585 E5.63643
G1 X67.350 Y94.009 E5.75504
G1 X67.200 Y94.804 E5.90517
G1 X67.030 Y95.148 E5.97627
G1 X66.991 Y96.188 E6.16939
G1 X67.135 Y96.917 E6.30745
G1 E4.30745 F2400.00000
G92 E0
G1 X73.377 Y92.293 F7800.000
G1 E2.00000 F2400.00000
G1 F1800
G1 X73.486 Y91.901 E2.07543
G1 X74.928 Y91.901 E2.34306
G1 X75.017 Y92.328 E2.42392
G1 X74.684 Y92.472 E2.49124
G1 X74.321 Y92.878 E2.59227
G1 X74.036 Y92.726 E2.65203
G1 X73.979 Y92.658 E2.66867
G1 X73.428 Y92.324 E2.78818
G1 E0.78818 F2400.00000
G92 E0
G1 X79.141 Y91.901 F7800.000
G1 E2.00000 F2400.00000
G1 F1800
G1 X80.902 Y91.901 E2.32673
G1 X81.015 Y92.286 E2.40122
G1 X80.010 Y92.929 E2.62251
G1 X79.180 Y91.947 E2.86113
G1 E0.86113 F2400.00000
G92 E0
G1 X84.793 Y91.901 F7800.000
G1 E2.00000 F2400.00000
G1 F1800
G1 X86.722 Y91.901 E2.35793
G1 X86.832 Y92.292 E2.43323
G1 X86.482 Y92.506 E2.50932
G1 X85.932 Y92.910 E2.63597
G1 X85.443 Y92.623 E2.74134
G1 X84.833 Y91.946 E2.91043
G1 E0.91043 F2400.00000
G92 E0
G1 X90.941 Y92.298 F7800.000
G1 E2.00000 F2400.00000
G1 F1800
G1 X91.048 Y91.901 E2.07619
G1 X92.651 Y91.901 E2.37381
G1 X92.765 Y92.285 E2.44808
G1 X92.325 Y92.570 E2.54527
G1 X92.049 Y92.713 E2.60295
G1 X91.882 Y92.857 E2.64385
G1 X91.434 Y92.625 E2.73750
G1 X91.267 Y92.487 E2.77774
G1 X90.993 Y92.328 E2.83657
G1 E0.83657 F2400.00000
G92 E0
G1 X96.843 Y92.303 F7800.000
G1 E2.00000 F2400.00000
G1 F1800
G1 X96.947 Y91.901 E2.07693
G1 X98.927 Y91.901 E2.44432
G1 X98.105 Y92.605 E2.64507
G1 X97.710 Y92.879 E2.73433
G1 X97.365 Y92.674 E2.80879
G1 X97.232 Y92.519 E2.84669
G1 X96.895 Y92.332 E2.91822
G1 E0.91822 F2400.00000
G92 E0
G1 X102.790 Y92.313 F7800.000
G1 E2.00000 F2400.00000
G1 F1800
G1 X102.888 Y91.901 E2.07861
G1 X104.333 Y91.901 E2.34683
G1 X104.453 Y92.272 E2.41909
G1 X103.517 Y92.950 E2.63356
G1 X103.302 Y92.570 E2.71455
G1 X102.844 Y92.340 E2.80966
G1 E0.80966 F2400.00000
G92 E0
G1 X108.491 Y92.297 F7800.000
G1 E2.00000 F2400.00000
G1 F1800
G1 X108.598 Y91.901 E2.07607
G1 X110.185 Y91.901 E2.37055
G1 X110.298 Y92.287 E2.44504
G1 X109.467 Y92.818 E2.62804
G1 X108.953 Y92.598 E2.73183
G1 X108.832 Y92.496 E2.76124
G1 X108.543 Y92.327 E2.82323
G1 E0.82323 F2400.00000
G92 E0
G1 X114.289 Y92.293 F7800.000
G1 E2.00000 F2400.00000
G1 F1800
G1 X114.398 Y91.901 E2.07552
G1 X115.963 Y91.901 E2.36585
G1 X116.063 Y92.309 E2.44381
G1 X115.751 Y92.472 E2.50920
G1 X115.549 Y92.731 E2.57017
G1 X115.233 Y92.970 E2.64349
G1 X115.028 Y92.739 E2.70086
G1 X114.341 Y92.324 E2.84981
G1 E0.84981 F2400.00000
G92 E0
G1 X120.147 Y92.280 F7800.000
G1 E2.00000 F2400.00000
G1 F1800
G1 X120.263 Y91.901 E2.07347
G1 X121.871 Y91.901 E2.37185
G1 X121.986 Y92.281 E2.44555
G1 X121.062 Y92.899 E2.65196
G1 X120.196 Y92.313 E2.84588
G1 E0.84588 F2400.00000
G92 E0
G1 X126.453 Y91.901 F7800.000
G1 E2.00000 F2400.00000
G1 F1800
G1 X127.865 Y91.901 E2.26207
G1 X126.876 Y92.947 E2.52919
G1 X126.656 Y92.698 E2.59082
G1 X126.453 Y92.574 E2.63495
G1 X126.453 Y91.961 E2.74863
G1 E0.74863 F2400.00000
G92 E0
G1 X131.850 Y92.290 F7800.000
G1 E2.00000 F2400.00000
G1 F1800
G1 X131.961 Y91.901 E2.07497
G1 X133.543 Y91.901 E2.36844
G1 X133.664 Y92.269 E2.44028
G1 X132.822 Y92.894 E2.63502
G1 X131.901 Y92.321 E2.83617
G1 E0.83617 F2400.00000
G92 E0
G1 X137.792 Y92.310 F7800.000
G1 E2.00000 F2400.00000
G1 F1800
G1 X137.892 Y91.901 E2.07806
G1 X139.440 Y91.901 E2.36530
G1 X139.549 Y92.293 E2.44083
G1 X139.324 Y92.429 E2.48963
G1 X138.473 Y92.829 E2.66405
G1 X138.066 Y92.452 E2.76713
G1 X137.846 Y92.338 E2.81314
G1 E0.81314 F2400.00000
G92 E0
G1 X143.561 Y92.287 F7800.000
G1 E2.00000 F2400.00000
G1 F1800
G1 X143.674 Y91.901 E2.07453
G1 X145.663 Y91.901 E2.44371
G1 X144.686 Y92.712 E2.67926
G1 X144.508 Y92.833 E2.71925
G1 X144.161 Y92.670 E2.79042
G1 X143.612 Y92.319 E2.91141
G1 E0.91141 F2400.00000
G92 E0
G1 X149.229 Y91.901 F7800.000
G1 E2.00000 F2400.00000
G1 F1800
G1 X151.064 Y91.901 E2.34038
G1 X151.177 Y92.286 E2.41478
G1 X150.465 Y92.743 E2.57168
G1 X150.324 Y92.914 E2.61282
G1 X149.838 Y92.611 E2.71902
G1 X149.268 Y91.947 E2.88144
G1 E0.88144 F2400.00000
G92 E0
G1 X155.312 Y92.311 F7800.000
G1 E2.00000 F2400.00000
G1 F1800
G1 X155.411 Y91.901 E2.07830
G1 X156.107 Y91.901 E2.20757
G1 X156.107 Y92.718 E2.35915
G1 X155.365 Y92.339 E2.51379
G1 E0.51379 F2400.00000
G92 E0
G1 X125.561 Y92.769 F7800.000
G1 E2.00000 F2400.00000
G1 F1800
G1 X125.058 Y92.794 E2.09345
G1 X124.716 Y92.607 E2.16572
G1 X123.591 Y92.602 E2.37457
G1 X122.526 Y92.994 E2.58509
G1 X121.732 Y93.525 E2.76228
G1 X121.213 Y94.080 E2.90344
G1 X119.312 Y92.792 E3.32956
G1 X118.931 Y92.693 E3.40269
G1 X117.948 Y92.605 E3.58580
G1 X116.695 Y92.986 E3.82889
G1 X116.335 Y93.174 E3.90411
G1 X116.181 Y93.373 E3.95085
G1 X115.184 Y94.126 E4.18266
G1 X115.069 Y93.875 E4.23398
G1 X114.565 Y93.562 E4.34405
G1 X114.451 Y93.433 E4.37597
G1 X113.563 Y92.898 E4.56835
G1 X112.274 Y92.593 E4.81410
G1 X111.039 Y92.872 E5.04907
G1 X109.838 Y93.640 E5.31358
G1 X109.356 Y94.308 E5.46645
G1 X108.948 Y93.567 E5.62348
G1 X108.480 Y93.366 E5.71794
G1 X108.316 Y93.228 E5.75775
G1 X107.477 Y92.739 E5.93792
G1 X106.776 Y92.675 E6.06857
G1 X106.143 Y92.563 E6.18788
G1 X104.966 Y93.003 E6.42110
G1 X103.764 Y93.873 E6.69649
G1 X103.471 Y94.280 E6.78953
G1 X103.250 Y93.963 E6.86132
G1 X102.854 Y93.614 E6.95931
G1 X102.659 Y93.247 E7.03641
G1 X101.884 Y92.858 E7.19735
G1 X101.471 Y92.696 E7.27955
G1 X100.388 Y92.605 E7.48143
G1 X98.886 Y93.111 E7.77539
G1 X98.651 Y93.312 E7.83288
G1 X97.927 Y93.815 E7.99639
G1 X97.694 Y94.168 E8.07495
G1 X97.196 Y93.612 E8.21337
G1 X96.781 Y93.366 E8.30296
G1 X96.657 Y93.220 E8.33845
G1 X95.775 Y92.730 E8.52575
G1 X95.589 Y92.730 E8.56022
G1 X95.174 Y92.556 E8.64370
G1 X93.645 Y92.778 E8.93038
G1 X92.774 Y93.342 E9.12293
G1 X92.553 Y93.457 E9.16912
G1 X91.740 Y94.159 E9.36844
G1 X91.499 Y93.664 E9.47068
G1 X90.939 Y93.374 E9.58764
G1 X90.756 Y93.222 E9.63189
G1 X89.918 Y92.737 E9.81149
G1 X89.213 Y92.671 E9.94301
G1 X88.681 Y92.574 E10.04320
G1 X88.458 Y92.605 E10.08500
G1 X88.115 Y92.726 E10.15253
G1 X87.865 Y92.707 E10.19906
G1 X86.980 Y93.247 E10.39143
G1 X86.178 Y93.838 E10.57637
G1 X85.946 Y94.247 E10.66352
G1 X85.346 Y93.601 E10.82708
G1 X84.872 Y93.324 E10.92903
G1 X84.558 Y92.975 E11.01601
G1 X84.168 Y92.712 E11.10338
G1 X83.800 Y92.705 E11.17157
G1 X82.861 Y92.608 E11.34673
G1 X81.820 Y92.831 E11.54441
G1 X80.781 Y93.496 E11.77320
G1 X80.230 Y94.128 E11.92892
G1 X79.733 Y93.812 E12.03821
G1 X79.521 Y93.610 E12.09259
G1 X79.284 Y93.453 E12.14524
G1 X78.877 Y92.972 E12.26228
G1 X78.211 Y92.827 E12.38879
G1 X77.626 Y92.558 E12.50837
G1 X76.177 Y92.765 E12.77993
G1 X76.002 Y92.873 E12.81819
G1 X75.219 Y93.214 E12.97660
G1 X74.880 Y93.591 E13.07064
G1 X74.215 Y94.069 E13.22256
G1 X74.109 Y93.776 E13.28033
G1 X73.464 Y93.433 E13.41582
G1 X73.390 Y93.345 E13.43723
G1 X72.578 Y92.853 E13.61334
G1 X72.442 Y92.819 E13.63953
G1 X72.041 Y92.601 E13.72418
G1 X70.929 Y92.598 E13.93036
G1 X70.825 Y92.633 E13.95071
G1 X70.101 Y92.673 E14.08542
G1 X69.574 Y93.188 E14.22196
G1 X69.083 Y93.537 E14.33379
G1 X68.456 Y94.223 E14.50631
G1 X68.170 Y94.475 E14.57696
G1 X68.054 Y95.090 E14.69301
G1 X67.915 Y95.372 E14.75136
G1 X67.887 Y96.117 E14.88975
G1 X68.006 Y96.721 E15.00401
G1 X68.267 Y97.066 E15.08427
G1 X68.901 Y97.689 E15.24922
G1 X67.336 Y97.879 E15.54175
G1 X66.700 Y98.193 E15.67330
G1 X66.364 Y98.439 E15.75057
G1 X66.100 Y98.476 E15.80000
G1 X65.692 Y98.975 E15.91961
G1 X65.364 Y99.232 E15.99704
G1 X65.195 Y99.685 E16.08667
G1 X65.130 Y99.697 E16.09900
G1 X64.831 Y100.714 E16.29581
G1 X65.013 Y100.842 E16.33707
G1 X64.981 Y101.268 E16.41623
G1 X65.188 Y101.650 E16.49693
G1 X65.304 Y101.984 E16.56245
G1 X65.770 Y102.610 E16.70729
G1 X66.233 Y102.906 E16.80934
G1 X66.242 Y102.944 E16.81660
G1 X66.747 Y103.284 E16.92949
G1 X67.763 Y103.695 E17.13280
G1 X67.915 Y103.630 E17.16357
G1 X69.116 Y103.635 E17.38634
G1 X68.541 Y104.220 E17.53846
G1 X68.340 Y104.231 E17.57581
G1 X67.931 Y105.410 E17.80744
G1 X67.903 Y105.748 E17.87025
G1 X67.809 Y105.891 E17.90196
G1 X67.942 Y107.028 E18.11447
G1 X68.124 Y106.897 E18.15598
G1 X68.665 Y107.658 E18.32934
G1 X67.497 Y107.969 E18.55359
G1 X66.419 Y108.503 E18.77699
G1 X65.807 Y108.982 E18.92110
G1 X65.510 Y109.146 E18.98408
G1 X65.202 Y109.600 E19.08599
G1 X65.056 Y110.415 E19.23946
G1 X64.989 Y110.582 E19.27295
G1 X64.987 Y111.263 E19.39931
G1 X65.151 Y111.684 E19.48321
G1 X65.288 Y112.261 E19.59311
G1 X65.645 Y112.605 E19.68526
G1 X66.222 Y113.017 E19.81667
G1 X67.049 Y113.555 E19.99984
G1 X67.737 Y113.783 E20.13432
G1 X68.193 Y113.849 E20.21979
G1 X68.508 Y113.778 E20.27982
G1 X68.704 Y114.123 E20.35356
G1 X68.161 Y114.694 E20.49978
G1 X67.927 Y115.325 E20.62466
G1 X67.920 Y115.694 E20.69310
G1 X67.820 Y116.352 E20.81655
G1 X68.057 Y116.497 E20.86829
G1 X68.212 Y117.381 E21.03485
G1 X68.403 Y117.410 E21.07065
G1 X68.733 Y117.930 E21.18494
G1 X66.962 Y118.228 E21.51813
G1 X66.602 Y118.540 E21.60659
G1 X65.765 Y119.086 E21.79203
G1 X65.289 Y119.791 E21.94993
G1 X65.084 Y120.382 E22.06600
G1 X64.962 Y120.595 E22.11162
G1 X64.977 Y121.694 E22.31552
G1 X65.161 Y121.953 E22.37443
G1 X65.333 Y122.432 E22.46894
G1 X66.091 Y123.108 E22.65740
G1 X66.382 Y123.267 E22.71891
G1 X66.788 Y123.551 E22.81092
G1 X67.532 Y123.828 E22.95824
G1 X67.803 Y123.970 E23.01501
G1 X68.342 Y123.893 E23.11598
G1 X69.117 Y123.884 E23.25978
G1 X68.462 Y124.616 E23.44195
G1 X68.303 Y124.752 E23.48079
G1 X67.906 Y125.955 E23.71591
G1 X68.172 Y127.133 E23.94011
G1 X68.424 Y127.546 E24.02978
G1 X68.653 Y127.860 E24.10198
G1 X68.800 Y127.956 E24.13445
G1 X69.019 Y128.280 E24.20699
G1 X69.641 Y128.585 E24.33563
G1 X69.545 Y128.999 E24.41459
G1 X63.008 Y129.000 E25.62754
G1 X63.000 Y91.009 E32.67764
G1 X157.000 Y91.009 E50.12126
G1 X157.000 Y95.132 E50.88641
G1 X156.574 Y95.221 E50.96720
G1 X156.287 Y94.562 E51.10047
G1 X156.237 Y94.575 E51.11002
G1 X156.032 Y94.089 E51.20785
G1 X155.467 Y93.587 E51.34813
G1 X155.249 Y93.282 E51.41767
G1 X154.591 Y92.945 E51.55488
G1 X154.382 Y92.712 E51.61297
G1 X153.921 Y92.702 E51.69858
G1 X153.620 Y92.594 E51.75785
G1 X153.361 Y92.596 E51.80593
G1 X152.426 Y92.803 E51.98364
G1 X152.106 Y92.838 E52.04351
G1 X151.842 Y92.919 E52.09463
G1 X151.065 Y93.419 E52.26623
G1 X150.992 Y93.506 E52.28727
G1 X150.265 Y93.929 E52.44340
G1 X149.250 Y93.296 E52.66538
G1 X148.973 Y92.973 E52.74435
G1 X148.484 Y92.848 E52.83800
G1 X148.015 Y92.608 E52.93570
G1 X147.798 Y92.568 E52.97666
G1 X146.495 Y92.735 E53.22042
G1 X146.404 Y92.778 E53.23905
G1 X145.936 Y92.834 E53.32655
G1 X145.224 Y93.425 E53.49822
G1 X144.820 Y93.702 E53.58908
G1 X144.460 Y94.234 E53.70830
G1 X144.196 Y93.673 E53.82323
G1 X143.729 Y93.453 E53.91907
G1 X142.785 Y92.850 E54.12692
G1 X141.677 Y92.600 E54.33771
G1 X140.480 Y92.775 E54.56220
G1 X139.745 Y93.217 E54.72140
G1 X139.319 Y93.418 E54.80888
G1 X139.222 Y93.596 E54.84637
