; generated by Slic3r 1.3.0 on 2020-07-24 at 19:41:37

; external perimeters extrusion width = 0.44mm (3.38mm^3/s)
; perimeters extrusion width = 0.48mm (7.54mm^3/s)
; infill extrusion width = 0.48mm (10.05mm^3/s)
; solid infill extrusion width = 0.48mm (2.51mm^3/s)
; top infill extrusion width = 0.48mm (1.88mm^3/s)

M107
M190 S65 ; set bed temperature and wait for it to be reached
M104 S205 ; set temperature
G28 ; home all axes
G1 Z5 F5000 ; lift nozzle

; Filament gcode

M109 S205 ; set temperature and wait for it to be reached
G21 ; set units to millimeters
G90 ; use absolute coordinates
M82 ; use absolute distances for extrusion
G92 E0
G1 Z0.500 F7800.000
G1 E-2.00000 F2400.00000
G92 E0
G1 X71.980 Y85.398 F7800.000
G1 E2.00000 F2400.00000
G1 F1800
G1 X73.042 Y84.689 E2.23695
G1 X75.291 Y83.710 E2.69223
G1 X122.584 Y72.577 E11.70823
G1 X124.085 Y72.394 E11.98886
G1 X127.469 Y72.394 E12.61677
G1 X129.770 Y72.818 E13.05094
G1 X131.797 Y73.986 E13.48512
G1 X133.636 Y76.371 E14.04389
G1 X135.782 Y80.969 E14.98560
G1 X150.844 Y114.152 E21.74810
G1 X151.328 Y115.656 E22.04133
G1 X151.633 Y117.187 E22.33096
G1 X151.744 Y119.070 E22.68104
G1 X151.003 Y128.525 E24.44088
G1 X150.892 Y129.331 E24.59190
G1 X150.587 Y130.862 E24.88152
G1 X149.558 Y133.346 E25.38059
G1 X148.691 Y134.644 E25.67022
G1 X147.692 Y135.826 E25.95737
G1 X144.256 Y139.071 E26.83432
G1 X143.353 Y139.790 E27.04860
G1 X142.289 Y140.502 E27.28621
G1 X139.804 Y141.531 E27.78527
G1 X138.398 Y141.809 E28.05131
G1 X102.477 Y148.127 E34.81943
G1 X99.939 Y148.099 E35.29059
G1 X98.408 Y147.795 E35.58021
G1 X96.440 Y147.079 E35.96874
G1 X89.396 Y143.219 E37.45924
G1 X88.639 Y142.737 E37.62592
G1 X82.765 Y138.439 E38.97653
G1 X81.104 Y136.706 E39.42199
G1 X80.361 Y135.595 E39.67007
G1 X79.484 Y133.725 E40.05334
G1 X68.492 Y96.655 E47.22851
G1 X68.340 Y96.040 E47.34605
G1 X68.090 Y94.788 E47.58300
G1 X68.090 Y92.098 E48.08207
G1 X68.340 Y90.846 E48.31902
G1 X69.369 Y88.361 E48.81810
G1 X70.078 Y87.300 E49.05505
G1 X71.937 Y85.440 E49.54298
G1 E47.54298 F2400.00000
G92 E0
G1 X102.464 Y138.520 F7800.000
G1 E2.00000 F2400.00000
G1 F1800
G1 X101.922 Y138.882 E2.12090
G1 X101.283 Y139.009 E2.24181
G1 X100.644 Y138.882 E2.36272
G1 X100.103 Y138.520 E2.48362
G1 X99.741 Y137.978 E2.60453
G1 X99.613 Y137.339 E2.72543
G1 X99.741 Y136.700 E2.84634
G1 X100.103 Y136.158 E2.96725
G1 X100.644 Y135.796 E3.08815
G1 X101.283 Y135.669 E3.20906
G1 X101.922 Y135.796 E3.32996
G1 X102.464 Y136.158 E3.45087
G1 X102.826 Y136.700 E3.57177
G1 X102.953 Y137.339 E3.69268
G1 X102.826 Y137.978 E3.81359
G1 X102.497 Y138.470 E3.92336
G1 X103.206 Y139.016 F7800.000
G1 F1800
G1 X103.108 Y139.163 E3.95631
G1 X102.271 Y139.723 E4.14312
G1 X101.283 Y139.919 E4.32993
G1 X100.296 Y139.723 E4.51674
G1 X99.459 Y139.163 E4.70354
G1 X98.900 Y138.326 E4.89035
G1 X98.703 Y137.339 E5.07716
G1 X98.900 Y136.352 E5.26397
G1 X99.459 Y135.515 E5.45078
G1 X100.296 Y134.955 E5.63759
G1 X101.283 Y134.759 E5.82440
G1 X102.271 Y134.955 E6.01121
G1 X103.108 Y135.515 E6.19801
G1 X103.667 Y136.352 E6.38482
G1 X103.863 Y137.339 E6.57163
G1 X103.667 Y138.326 E6.75844
G1 X103.240 Y138.966 E6.90116
G1 X103.949 Y139.512 F7800.000
G1 F1800
G1 X103.751 Y139.807 E6.96707
G1 X102.619 Y140.563 E7.21978
G1 X101.283 Y140.829 E7.47249
G1 X99.948 Y140.563 E7.72520
G1 X98.815 Y139.807 E7.97792
G1 X98.059 Y138.675 E8.23063
G1 X97.793 Y137.339 E8.48334
G1 X98.059 Y136.003 E8.73605
G1 X98.815 Y134.871 E8.98876
G1 X99.948 Y134.114 E9.24148
G1 X101.283 Y133.849 E9.49419
G1 X102.619 Y134.114 E9.74690
G1 X103.751 Y134.871 E9.99961
G1 X104.508 Y136.003 E10.25232
G1 X104.773 Y137.339 E10.50504
G1 X104.508 Y138.675 E10.75775
G1 X103.982 Y139.462 E10.93342
G1 X103.593 Y139.515 F7800.000
G1 E8.93342 F2400.00000
G92 E0
G1 X102.167 Y137.529 F7800.000
G1 E2.00000 F2400.00000
G1 F1800
G1 X101.473 Y138.224 E2.21867
G1 X100.229 Y137.952 F7800.000
G1 F1800
G1 X101.896 Y136.285 E2.74368
G1 E0.74368 F2400.00000
G92 E0
G1 X95.622 Y136.757 F7800.000
G1 E2.00000 F2400.00000
G1 F1800
G1 X94.745 Y136.595 E2.20882
G1 F1800
G1 X94.307 Y136.514 E2.32143
G1 X93.433 Y136.676 E2.54579
G1 F1800
G1 X92.996 Y136.757 E2.65039
G1 E0.65039 F2400.00000
G92 E0
G1 X89.128 Y128.714 F7800.000
G1 E2.00000 F2400.00000
G1 F1800
G1 X88.253 Y127.404 E2.29230
G1 X88.169 Y126.983 E2.37199
G1 X88.253 Y126.562 E2.45168
G1 X88.491 Y126.205 E2.53136
G1 X88.848 Y125.966 E2.61105
G1 X89.269 Y125.882 E2.69074
G1 X89.691 Y125.966 E2.77042
G1 X90.048 Y126.205 E2.85011
G1 X90.286 Y126.562 E2.92980
G1 X90.370 Y126.983 E3.00949
G1 X90.286 Y127.404 E3.08917
G1 X89.399 Y128.731 E3.38536
G1 X90.270 Y130.035 E3.67627
G1 X90.354 Y130.454 E3.75563
G1 X90.270 Y130.874 E3.83499
G1 X90.033 Y131.229 E3.91435
G1 X89.677 Y131.467 E3.99371
G1 X89.258 Y131.550 E4.07307
G1 X88.838 Y131.467 E4.15243
G1 X88.483 Y131.229 E4.23179
G1 X88.245 Y130.874 E4.31115
G1 X88.162 Y130.454 E4.39051
G1 X88.245 Y130.035 E4.46987
G1 X89.094 Y128.764 E4.75353
G1 X88.054 Y128.714 F7800.000
G1 F1800
G1 X87.412 Y127.752 E4.96809
G1 X87.259 Y126.983 E5.11368
G1 X87.412 Y126.214 E5.25927
G1 X87.848 Y125.561 E5.40486
G1 X88.500 Y125.125 E5.55046
G1 X89.269 Y124.972 E5.69604
G1 X90.039 Y125.125 E5.84164
G1 X90.691 Y125.561 E5.98723
G1 X91.127 Y126.214 E6.13282
G1 X91.280 Y126.983 E6.27841
G1 X91.127 Y127.752 E6.42400
G1 X90.473 Y128.731 E6.64244
G1 X91.111 Y129.686 E6.85561
G1 X91.264 Y130.454 E7.00088
G1 X91.111 Y131.222 E7.14614
G1 X90.676 Y131.873 E7.29140
G1 X90.026 Y132.308 E7.43667
G1 X89.258 Y132.460 E7.58193
G1 X88.490 Y132.308 E7.72720
G1 X87.839 Y131.873 E7.87246
G1 X87.404 Y131.222 E8.01772
G1 X87.252 Y130.454 E8.16299
G1 X87.404 Y129.686 E8.30825
G1 X88.021 Y128.764 E8.51417
G1 X86.980 Y128.714 F7800.000
G1 F1800
G1 X86.571 Y128.101 E8.65100
G1 X86.349 Y126.983 E8.86249
G1 X86.571 Y125.865 E9.07398
G1 X87.204 Y124.918 E9.28548
G1 X88.152 Y124.284 E9.49697
G1 X89.269 Y124.062 E9.70846
G1 X90.387 Y124.284 E9.91996
G1 X91.335 Y124.918 E10.13145
G1 X91.968 Y125.865 E10.34294
G1 X92.190 Y126.983 E10.55444
G1 X91.968 Y128.101 E10.76593
G1 X91.547 Y128.731 E10.90664
G1 X91.952 Y129.338 E11.04207
G1 X92.174 Y130.454 E11.25324
G1 X91.952 Y131.570 E11.46441
G1 X91.320 Y132.516 E11.67557
G1 X90.374 Y133.149 E11.88674
G1 X89.258 Y133.371 E12.09791
G1 X88.142 Y133.149 E12.30907
G1 X87.196 Y132.516 E12.52024
G1 X86.563 Y131.570 E12.73141
G1 X86.341 Y130.454 E12.94257
G1 X86.563 Y129.338 E13.15374
G1 X86.947 Y128.764 E13.28192
G1 X86.980 Y128.714 F7800.000
G1 E11.28192 F2400.00000
G92 E0
G1 X100.649 Y98.110 F7800.000
G1 E2.00000 F2400.00000
G1 F1800
G1 X99.751 Y96.766 E2.30003
G1 X99.272 Y96.446 E2.40699
G1 X99.617 Y95.612 E2.57448
G1 X100.395 Y95.767 E2.72170
G1 X101.145 Y95.617 E2.86358
G1 X100.661 Y98.051 E3.32411
G1 X100.418 Y98.436 F7800.000
G1 E1.32411 F2400.00000
G92 E0
G1 X93.676 Y99.036 F7800.000
G1 E2.00000 F2400.00000
G1 F1800
G1 X92.586 Y100.668 E2.36437
G1 X92.044 Y101.030 E2.48528
G1 X91.405 Y101.157 E2.60618
G1 X90.766 Y101.030 E2.72709
G1 X90.224 Y100.668 E2.84799
G1 X89.862 Y100.126 E2.96890
G1 X89.666 Y99.142 E3.15524
G1 X90.224 Y98.307 E3.34158
G1 X90.766 Y97.945 E3.46248
G1 X91.405 Y97.818 E3.58339
G1 X92.044 Y97.945 E3.70429
G1 X93.627 Y99.002 E4.05753
G1 X95.012 Y99.686 F7800.000
G1 F1800
G1 X96.103 Y98.053 E4.42190
G1 X96.644 Y97.691 E4.54281
G1 X97.283 Y97.564 E4.66371
G1 X97.922 Y97.691 E4.78461
G1 X98.464 Y98.053 E4.90552
G1 X99.022 Y98.888 E5.09186
G1 X98.826 Y99.873 E5.27820
G1 X98.464 Y100.415 E5.39911
G1 X97.922 Y100.777 E5.52001
G1 X97.283 Y100.904 E5.64092
G1 X96.644 Y100.777 E5.76182
G1 X95.062 Y99.719 E6.11506
G1 X94.035 Y100.106 F7800.000
G1 F1800
G1 X93.229 Y101.312 E6.38408
G1 X92.392 Y101.871 E6.57089
G1 X91.405 Y102.067 E6.75770
G1 X90.417 Y101.871 E6.94451
G1 X89.580 Y101.312 E7.13131
G1 X89.021 Y100.475 E7.31812
G1 X88.719 Y98.953 E7.60603
G1 X89.580 Y97.663 E7.89394
G1 X90.417 Y97.104 E8.08075
G1 X91.405 Y96.907 E8.26756
G1 X92.392 Y97.104 E8.45437
G1 X94.654 Y98.615 E8.95907
G1 X95.459 Y97.409 E9.22809
G1 X96.296 Y96.850 E9.41490
G1 X97.283 Y96.654 E9.60171
G1 X98.271 Y96.850 E9.78851
G1 X99.108 Y97.409 E9.97532
G1 X99.970 Y98.699 E10.26323
G1 X99.667 Y100.221 E10.55114
G1 X99.108 Y101.058 E10.73795
G1 X98.271 Y101.617 E10.92476
G1 X97.283 Y101.814 E11.11157
G1 X96.296 Y101.617 E11.29838
G1 X94.084 Y100.140 E11.79195
G1 E9.79195 F2400.00000
G92 E0
G1 X99.849 Y93.838 F7800.000
G1 E2.00000 F2400.00000
G1 F1800
G1 X99.540 Y93.375 E2.10334
G1 X99.469 Y93.020 E2.17039
G1 X99.540 Y92.666 E2.23743
G1 X99.741 Y92.365 E2.30448
G1 X100.041 Y92.165 E2.37153
G1 X100.395 Y92.094 E2.43858
G1 X100.750 Y92.165 E2.50563
G1 X101.050 Y92.365 E2.57268
G1 X101.251 Y92.666 E2.63973
G1 X101.321 Y93.020 E2.70678
G1 X101.168 Y93.793 E2.85292
G1 X100.395 Y93.946 E2.99906
G1 X99.908 Y93.849 E3.09126
G1 E1.09126 F2400.00000
G92 E0
G1 X101.927 Y94.552 F7800.000
G1 E2.00000 F2400.00000
G1 F1800
G1 X100.395 Y94.856 E2.28978
G1 X99.312 Y94.641 E2.49469
G1 X98.699 Y93.723 E2.69959
G1 X98.559 Y93.020 E2.83255
G1 X98.699 Y92.317 E2.96550
G1 X99.097 Y91.722 E3.09845
G1 X99.693 Y91.324 E3.23140
G1 X100.395 Y91.184 E3.36435
G1 X101.098 Y91.324 E3.49731
G1 X101.694 Y91.722 E3.63026
G1 X102.092 Y92.317 E3.76321
G1 X102.232 Y93.020 E3.89616
G1 X101.939 Y94.493 E4.17481
G1 E2.17481 F2400.00000
G92 E0
G1 X107.797 Y94.433 F7800.000
G1 E2.00000 F2400.00000
G1 F1800
G1 X108.191 Y92.449 E2.37535
G1 X108.395 Y92.144 E2.44339
G1 X108.700 Y91.940 E2.51142
G1 X109.059 Y91.869 E2.57945
G1 X109.419 Y91.940 E2.64748
G1 X110.885 Y92.920 E2.97471
G1 X111.699 Y92.758 E3.12870
G1 X112.338 Y92.885 E3.24961
G1 X112.880 Y93.247 E3.37051
G1 X113.242 Y93.789 E3.49142
G1 X113.369 Y94.428 E3.61232
G1 X113.242 Y95.067 E3.73323
G1 X112.880 Y95.609 E3.85414
G1 X112.338 Y95.971 E3.97504
G1 X111.699 Y96.098 E4.09594
G1 X111.114 Y95.981 E4.20661
G1 X109.813 Y96.851 E4.49702
G1 X108.404 Y97.131 E4.76350
G1 X107.295 Y97.872 E5.01101
G1 X105.815 Y98.166 E5.29111
G1 X105.429 Y98.744 E5.41995
G1 X104.888 Y99.106 E5.54086
G1 X104.249 Y99.233 E5.66176
G1 X103.610 Y99.106 E5.78267
G1 X103.068 Y98.744 E5.90357
G1 X102.510 Y97.909 E6.08991
G1 X102.856 Y96.170 E6.41887
G1 X105.090 Y95.726 E6.84158
G1 X105.476 Y95.148 E6.97043
G1 X106.017 Y94.786 E7.09133
G1 X107.738 Y94.444 E7.41684
G1 X107.037 Y93.673 F7800.000
G1 F1800
G1 X107.350 Y92.100 E7.71445
G1 X107.751 Y91.500 E7.84839
G1 X108.351 Y91.099 E7.98232
G1 X109.059 Y90.958 E8.11626
G1 X109.767 Y91.099 E8.25019
G1 X111.074 Y91.972 E8.54175
G1 X111.699 Y91.848 E8.66008
G1 X112.686 Y92.044 E8.84689
G1 X113.523 Y92.603 E9.03370
G1 X114.083 Y93.440 E9.22051
G1 X114.279 Y94.428 E9.40731
G1 X114.083 Y95.415 E9.59412
G1 X113.523 Y96.252 E9.78093
G1 X112.686 Y96.811 E9.96774
G1 X111.699 Y97.008 E10.15455
G1 X111.303 Y96.929 E10.22955
G1 X110.161 Y97.692 E10.48429
G1 X108.753 Y97.972 E10.75077
G1 X107.644 Y98.713 E10.99828
G1 X106.352 Y98.970 E11.24271
G1 X106.073 Y99.387 E11.33589
G1 X105.236 Y99.947 E11.52269
G1 X104.249 Y100.143 E11.70950
G1 X103.261 Y99.947 E11.89631
G1 X102.424 Y99.387 E12.08312
G1 X101.562 Y98.097 E12.37103
G1 X102.097 Y95.411 E12.87930
G1 X104.553 Y94.922 E13.34408
G1 X104.832 Y94.505 E13.43726
G1 X105.669 Y93.946 E13.62407
G1 X106.979 Y93.685 E13.87183
G1 E11.87183 F2400.00000
G92 E0
G1 X79.923 Y97.678 F7800.000
G1 E2.00000 F2400.00000
G1 F1800
G1 X78.362 Y96.635 E2.34828
G1 X78.001 Y96.093 E2.46918
G1 X77.873 Y95.454 E2.59009
G1 X77.984 Y94.898 E2.69529
G1 X77.253 Y93.804 E2.93957
G1 X77.181 Y93.443 E3.00781
G1 X77.253 Y93.082 E3.07604
G1 X77.457 Y92.777 E3.14427
G1 X77.763 Y92.572 E3.21250
G1 X78.123 Y92.501 E3.28073
G1 X78.484 Y92.572 E3.34896
G1 X78.790 Y92.777 E3.41719
G1 X79.451 Y93.766 E3.63797
G1 X80.182 Y93.911 E3.77641
G1 X81.652 Y94.894 E4.10447
G1 X82.171 Y94.790 E4.20273
G1 X82.811 Y94.917 E4.32364
G1 X83.352 Y95.279 E4.44454
G1 X84.007 Y96.259 E4.66327
G1 X85.242 Y96.505 E4.89695
G1 X85.784 Y96.867 E5.01785
G1 X86.146 Y97.409 E5.13876
G1 X86.342 Y98.394 E5.32510
G1 X85.784 Y99.229 E5.51144
G1 X85.242 Y99.591 E5.63234
G1 X84.603 Y99.718 E5.75325
G1 X83.126 Y99.424 E6.03273
G1 X82.464 Y100.415 E6.25385
G1 X81.922 Y100.777 E6.37475
G1 X81.283 Y100.904 E6.49566
G1 X80.644 Y100.777 E6.61657
G1 X80.103 Y100.415 E6.73747
G1 X79.741 Y99.873 E6.85838
G1 X79.613 Y99.234 E6.97928
G1 X79.911 Y97.736 E7.26259
G1 X78.931 Y98.088 F7800.000
G1 F1800
G1 X77.719 Y97.279 E7.53313
G1 X77.160 Y96.442 E7.71994
G1 X76.963 Y95.454 E7.90675
G1 X77.036 Y95.087 E7.97629
G1 X76.412 Y94.152 E8.18490
G1 X76.271 Y93.443 E8.31904
G1 X76.412 Y92.734 E8.45317
G1 X76.813 Y92.133 E8.58730
G1 X77.414 Y91.731 E8.72144
G1 X78.123 Y91.590 E8.85557
G1 X78.832 Y91.731 E8.98971
G1 X79.433 Y92.133 E9.12384
G1 X79.987 Y92.963 E9.30896
G1 X80.531 Y93.071 E9.41173
G1 X81.841 Y93.946 E9.70412
G1 X82.171 Y93.880 E9.76671
G1 X83.159 Y94.077 E9.95352
G1 X83.996 Y94.636 E10.14033
G1 X84.544 Y95.456 E10.32339
G1 X85.590 Y95.664 E10.52141
G1 X86.427 Y96.223 E10.70821
G1 X86.987 Y97.060 E10.89502
G1 X87.289 Y98.582 E11.18293
G1 X86.427 Y99.872 E11.47084
G1 X85.590 Y100.431 E11.65765
G1 X84.603 Y100.628 E11.84446
G1 X83.537 Y100.416 E12.04620
G1 X83.108 Y101.058 E12.18958
G1 X82.271 Y101.617 E12.37639
G1 X81.283 Y101.814 E12.56320
G1 X80.296 Y101.617 E12.75001
G1 X79.459 Y101.058 E12.93682
G1 X78.900 Y100.221 E13.12363
G1 X78.703 Y99.234 E13.31043
G1 X78.919 Y98.147 E13.51601
G1 E11.51601 F2400.00000
G92 E0
G1 X87.879 Y99.307 F7800.000
G1 E2.00000 F2400.00000
G1 F1800
G1 X87.071 Y100.516 E2.26977
G1 X85.939 Y101.272 E2.52248
G1 X84.603 Y101.538 E2.77519
G1 X83.948 Y101.408 E2.89919
G1 X83.751 Y101.702 E2.96484
G1 X82.619 Y102.458 E3.21755
G1 X81.283 Y102.724 E3.47026
G1 X79.948 Y102.458 E3.72297
G1 X78.815 Y101.702 E3.97569
G1 X78.059 Y100.569 E4.22840
G1 X77.793 Y99.234 E4.48111
G1 X77.939 Y98.499 E4.62008
G1 X77.075 Y97.922 E4.81288
G1 X76.319 Y96.790 E5.06559
G1 X76.053 Y95.454 E5.31830
G1 X76.089 Y95.275 E5.35217
G1 X75.571 Y94.500 E5.52512
G1 X75.361 Y93.443 E5.72516
G1 X75.571 Y92.386 E5.92520
G1 X76.170 Y91.489 E6.12523
G1 X77.066 Y90.891 E6.32527
G1 X78.123 Y90.680 E6.52531
G1 X79.181 Y90.891 E6.72535
G1 X80.077 Y91.489 E6.92538
G1 X80.524 Y92.159 E7.07483
G1 X80.879 Y92.230 E7.14194
G1 X82.029 Y92.998 E7.39866
G1 X82.171 Y92.970 E7.42559
G1 X83.507 Y93.236 E7.67830
G1 X84.639 Y93.992 E7.93102
G1 X85.081 Y94.653 E8.07841
G1 X85.939 Y94.823 E8.24075
G1 X87.071 Y95.580 E8.49347
G1 X87.828 Y96.712 E8.74618
G1 X88.129 Y98.228 E9.03303
G1 X88.937 Y97.020 E9.30280
G1 X90.069 Y96.263 E9.55551
G1 X91.405 Y95.997 E9.80822
G1 X92.740 Y96.263 E10.06093
G1 X94.407 Y97.377 E10.43293
G1 X94.815 Y96.766 E10.56924
G1 X95.948 Y96.009 E10.82196
G1 X97.283 Y95.744 E11.07467
G1 X99.235 Y96.132 E11.44395
G1 X97.858 Y94.071 E11.90386
G1 X97.649 Y93.020 E12.10271
G1 X97.858 Y91.969 E12.30157
G1 X98.453 Y91.078 E12.50042
G1 X99.344 Y90.483 E12.69928
G1 X100.395 Y90.274 E12.89814
G1 X101.446 Y90.483 E13.09699
G1 X102.337 Y91.078 E13.29585
G1 X102.933 Y91.969 E13.49470
G1 X103.142 Y93.020 E13.69356
G1 X102.878 Y94.345 E13.94428
G1 X104.016 Y94.119 E14.15960
G1 X104.188 Y93.861 E14.21711
G1 X105.321 Y93.105 E14.46982
G1 X106.278 Y92.914 E14.65098
G1 X106.509 Y91.752 E14.87086
G1 X107.108 Y90.857 E15.07070
G1 X108.003 Y90.258 E15.27054
G1 X109.059 Y90.048 E15.47038
G1 X110.115 Y90.258 E15.67022
G1 X111.262 Y91.025 E15.92611
G1 X111.699 Y90.938 E16.00877
G1 X113.035 Y91.203 E16.26148
G1 X114.167 Y91.960 E16.51419
G1 X114.923 Y93.092 E16.76690
G1 X115.189 Y94.428 E17.01962
G1 X114.923 Y95.763 E17.27233
G1 X114.167 Y96.896 E17.52504
G1 X113.035 Y97.652 E17.77775
G1 X111.699 Y97.918 E18.03046
G1 X111.491 Y97.877 E18.06979
G1 X110.509 Y98.533 E18.28887
G1 X109.101 Y98.813 E18.55535
G1 X107.992 Y99.554 E18.80286
G1 X106.889 Y99.773 E19.01162
G1 X106.716 Y100.031 E19.06913
G1 X105.584 Y100.787 E19.32184
G1 X104.249 Y101.053 E19.57456
G1 X102.913 Y100.787 E19.82727
G1 X101.781 Y100.031 E20.07998
G1 X100.882 Y98.687 E20.38001
G1 X100.508 Y100.569 E20.73628
G1 X99.751 Y101.702 E20.98899
G1 X98.619 Y102.458 E21.24170
G1 X97.283 Y102.724 E21.49441
